liuchen18/hilsys_new/sim_sys/data/fwx_planned_trajectory_cehou.txt
this is the FWX joint values,the following info is time,x,y,theta,joint1,joint2,joint3,joint4,joint5,joint6,joint7
0.0 3.07400615738 0.249704701225 0.291147081638 0.34231679397 -0.793713770461 -0.453370971481 0.616037456804 -0.951387348995 1.15435787587 0.074425448121
0.0969112521289 3.06935092025 0.249126175259 0.290039990832 0.341522541407 -0.794131172149 -0.453165997052 0.615235867353 -0.951388507565 1.15567440201 0.075226690523
0.169517991162 3.06469390364 0.24854877673 0.288936137777 0.340730113856 -0.794548538523 -0.452961153001 0.614434199988 -0.951388520616 1.15698619852 0.0760260100424
0.230460910334 3.06003511488 0.247972508861 0.287835517704 0.339939511337 -0.794965864165 -0.452756441667 0.613632465184 -0.951387399238 1.15829327527 0.0768234126699
0.284029457814 3.05537456127 0.247397374815 0.286738125809 0.339150733825 -0.795383143714 -0.452551865382 0.612830673322 -0.951385154448 1.15959564215 0.0776189043605
0.332542653657 3.05071225015 0.246823377701 0.285643957244 0.338363781241 -0.795800371858 -0.452347426452 0.612028834694 -0.951381797166 1.16089330911 0.0784124910278
0.377360380509 3.04604821118 0.24625048543 0.284552955199 0.337578585528 -0.796217529384 -0.452143103977 0.611226994779 -0.9513772316 1.16218615058 0.0792041577196
0.419178373552 3.0413824215 0.245678746873 0.283465184595 0.336795237263 -0.796634623079 -0.451938945876 0.610425121487 -0.951371632936 1.16347435095 0.0799939578903
0.458587470217 3.03671489609 0.245108154303 0.282380622734 0.336013713556 -0.797051649754 -0.451734932059 0.609623231786 -0.951364954289 1.1647578812 0.0807818707103
0.496097757338 3.03204564225 0.244538710602 0.281299264614 0.33523401413 -0.797468604301 -0.451531064775 0.608821335624 -0.951357206254 1.16603675145 0.0815679019547
0.532157694341 3.02737466729 0.243970418599 0.280221105202 0.334456138662 -0.797885481656 -0.451327346265 0.608019442865 -0.951348399352 1.16731097189 0.0823520573678
0.566823299837 3.02270197849 0.243403281069 0.279146139429 0.333680086784 -0.79830227681 -0.45112377875 0.607217563283 -0.95133854402 1.16858055272 0.0831343426538
0.600481629692 3.01802759054 0.242837290203 0.278074344997 0.332905836026 -0.798718986529 -0.450920342642 0.606415713787 -0.951327594898 1.16984546525 0.0839147382732
0.633162000039 3.0133514959 0.242272469722 0.277005751153 0.332133430006 -0.799135602468 -0.450717083677 0.605613889552 -0.951315673544 1.17110579742 0.0846933002363
0.664892722849 3.00867370926 0.241708811712 0.275940335528 0.331362846191 -0.799552121461 -0.450513982279 0.604812107318 -0.9513027346 1.1723615209 0.0854700089886
0.695701342394 3.00399423788 0.24114631873 0.274878092912 0.330594084026 -0.799968538687 -0.450311040612 0.60401037653 -0.951288788187 1.17361264604 0.0862448701061
0.725913736403 2.99931308903 0.240584993282 0.273819018065 0.329827142913 -0.800384849374 -0.450108260821 0.603208706548 -0.951273844355 1.17485918325 0.0870178891319
0.755541395187 2.99463026994 0.240024837819 0.272763105711 0.32906202221 -0.800801048795 -0.449905645038 0.602407106652 -0.951257913068 1.176101143 0.0877890715729
0.78459554107 2.98994579501 0.239465844352 0.271710333871 0.328298699786 -0.801217133749 -0.449703174163 0.601605593511 -0.951240950407 1.1773384972 0.0885583990869
0.813087315978 2.98525965716 0.238908036012 0.270660730558 0.32753721778 -0.80163309668 -0.449500892686 0.600804161299 -0.951223073674 1.17857133322 0.0893259247079
0.84102751661 2.98057187078 0.238351404705 0.269614273726 0.326777554 -0.802048934448 -0.449298781516 0.600002826523 -0.951204238944 1.17979962333 0.0900916300784
0.868426774143 2.97588244307 0.237795952677 0.268570957974 0.326019707632 -0.80246464251 -0.449096842725 0.599201598145 -0.951184455885 1.18102337811 0.0908555205852
0.895295517975 2.97119138126 0.237241682121 0.267530777871 0.325263677819 -0.802880216369 -0.448895078368 0.598400485042 -0.95116373409 1.18224260818 0.0916176015802
0.921383100454 2.96649869252 0.236688595183 0.266493727958 0.324509463667 -0.803295651573 -0.448693490486 0.597599496017 -0.951142083083 1.18345732418 0.0923778783872
0.947221268019 2.96180439095 0.236136683699 0.265459786562 0.323757043367 -0.803710944959 -0.448492060436 0.596798647494 -0.951119460289 1.18466749866 0.0931363337873
0.972812437276 2.95710846991 0.235585970232 0.26442898054 0.323006457662 -0.804126089705 -0.448290831522 0.595997932714 -0.951095978987 1.18587321835 0.093893018014
0.998158889261 2.95241094346 0.235036446519 0.263401288157 0.322257684687 -0.804541082706 -0.448089785106 0.595197367945 -0.951071596599 1.18707445611 0.0946479138342
1.02326292708 2.94771181877 0.234488114504 0.262376703839 0.321510723385 -0.804955919684 -0.44788892317 0.594396961683 -0.951046322358 1.18827122271 0.0954010264553
1.04812682389 2.94301110298 0.233940976086 0.261355221984 0.32076557266 -0.805370596408 -0.447688247678 0.593596722343 -0.951020165423 1.18946352893 0.096152361051
1.07275284024 2.93830880322 0.233395033114 0.260336836965 0.32002223138 -0.805785108685 -0.447487760577 0.592796658267 -0.950993134887 1.1906513856 0.0969019227671
1.09714317518 2.93360493328 0.232850277257 0.259321527408 0.319280678048 -0.806199453396 -0.447287443654 0.591996785636 -0.950965189444 1.19183476582 0.0976496954426
1.12130011606 2.9288994869 0.232306730536 0.258309319083 0.318540952086 -0.806613624405 -0.447087339084 0.591197096813 -0.950936438568 1.19301375572 0.0983957266771
1.14522582097 2.92419247786 0.231764384524 0.257300190559 0.317803031946 -0.80702761865 -0.446887428657 0.590397607826 -0.950906840947 1.19418832868 0.0991400002944
1.16892246846 2.91948391324 0.231223240879 0.256294136103 0.317066916342 -0.807441432107 -0.446687714261 0.589598326724 -0.950876405392 1.19535849564 0.0998825213304
1.19239221032 2.91477380012 0.230683301216 0.255291149962 0.316332603957 -0.807855060793 -0.446488197768 0.588799261478 -0.950845140651 1.19652426752 0.100623294791
1.21563718255 2.91006214554 0.2301445671 0.254291226357 0.315600093435 -0.808268500767 -0.446288881036 0.588000419987 -0.950813055403 1.19768565531 0.101362325655
1.23865947072 2.90534896301 0.229607030047 0.253294344204 0.314869363581 -0.808681748958 -0.446089746253 0.587201818187 -0.950780109535 1.19884263262 0.102099598756
1.26146123448 2.90063424662 0.22907071155 0.252300528254 0.314140452571 -0.809094799872 -0.445890834519 0.586403447618 -0.95074640892 1.19999528495 0.102835159213
1.28404451684 2.89591800986 0.228535603031 0.251309757368 0.313413339155 -0.809507650493 -0.445692128024 0.585605324069 -0.950711913433 1.20114358621 0.103568991844
1.30641137813 2.89120025971 0.228001705875 0.250322025675 0.31268802184 -0.809920297038 -0.445493628565 0.584807455158 -0.950676631488 1.20228754745 0.104301101524
1.32856385663 2.88648100318 0.227469021423 0.249337327283 0.311964499099 -0.810332735766 -0.445295337923 0.584009848429 -0.950640571432 1.20342717974 0.1050314931
1.35028674194 2.88176024723 0.226937550972 0.24835565628 0.311242769375 -0.810744962973 -0.445097257864 0.583212511357 -0.950603741551 1.20456249416 0.105760171393
1.37201646879 2.87703800509 0.226407285888 0.247376991864 0.310522811757 -0.81115697564 -0.444899370955 0.582415459632 -0.950566102858 1.20569346483 0.106487122175
1.39375305767 2.87231427113 0.225878247165 0.246401357826 0.309804663243 -0.811568768875 -0.444701717272 0.581618684023 -0.950527757806 1.20682017661 0.107212388224
1.41549645183 2.86758905858 0.225350426077 0.245428733315 0.309088302876 -0.81198033971 -0.444504279379 0.58082220008 -0.950488667397 1.20794260389 0.107935955297
1.43724661815 2.86286237434 0.224823823747 0.244459112334 0.308373728965 -0.812391684594 -0.444307058984 0.580026015007 -0.950448839657 1.20906075782 0.108657828117
1.45900352513 2.85813422529 0.22429844126 0.243492488871 0.307660939792 -0.812802800015 -0.444110057776 0.579230135938 -0.950408282554 1.21017464957 0.10937801138
1.48076713964 2.85340461833 0.223774279655 0.242528856892 0.306949933609 -0.813213682495 -0.443913277434 0.57843456994 -0.950367003994 1.21128429032 0.110096509758
1.50253740337 2.84867356638 0.223251330158 0.241568195872 0.306240689785 -0.813624329073 -0.443716700878 0.57763933246 -0.950324966055 1.21238965466 0.110813309907
1.52431434154 2.84394106413 0.222729613279 0.240610528701 0.3055332442 -0.814034735416 -0.443520367208 0.576844413542 -0.950282267946 1.2134908268 0.111528452401
1.54609789424 2.83920712449 0.222209120158 0.239655834807 0.304827576178 -0.814444898611 -0.443324259341 0.576049828499 -0.950238871728 1.21458778158 0.11224192388
1.56788802837 2.83447175427 0.22168985167 0.238704108085 0.304123683849 -0.814854815328 -0.443128378895 0.575255584137 -0.950194785061 1.21568053023 0.112953728923
1.58968471555 2.82973496028 0.22117180865 0.237755342412 0.303421565316 -0.81526448227 -0.442932727471 0.574461687197 -0.950150015547 1.216769084 0.113663872083
1.61148792269 2.82499674928 0.220654991895 0.23680953165 0.302721218654 -0.81567389618 -0.442737306658 0.573668144354 -0.950104570729 1.21785345415 0.114372357894
1.63329759145 2.82025713394 0.220139392498 0.235866655546 0.302022623501 -0.816083054152 -0.442542099712 0.572874970815 -0.950058413688 1.2189336157 0.115079173846
1.65511374705 2.81551610919 0.219625030509 0.23492673614 0.301325814683 -0.81649195238 -0.4423471448 0.572082155943 -0.950011640555 1.2200096522 0.115784358431
1.6769363296 2.81077368766 0.219111896937 0.233989753133 0.300630771793 -0.816900588006 -0.442152425171 0.571289714815 -0.949964214392 1.22108153892 0.11648789912
1.69876530757 2.80602987607 0.218599992422 0.233055700325 0.299937492796 -0.817308957909 -0.441957942356 0.570497653856 -0.949916142508 1.22214928715 0.117189800362
1.72060065258 2.8012846811 0.218089317565 0.232124571499 0.299245975629 -0.817717059004 -0.441763697869 0.56970597943 -0.949867432154 1.2232129082 0.117890066574
1.74244233152 2.79653810943 0.217579872929 0.231196360424 0.298556218203 -0.818124888237 -0.44156969321 0.568914697836 -0.949818090526 1.22427241338 0.118588702158
1.76429028923 2.79179017343 0.217071649486 0.230271047115 0.297868200421 -0.818532442765 -0.44137591195 0.568123824043 -0.949768081654 1.22532777812 0.11928569539
1.78614454619 2.78704086828 0.21656466684 0.229348652808 0.297181956103 -0.818939719269 -0.441182391366 0.567333346775 -0.949717498742 1.22637908532 0.119981082798
1.80800504724 2.78229020633 0.216058915884 0.228429157478 0.296497465109 -0.819346714954 -0.440989115023 0.566543280875 -0.9496663058 1.22742631064 0.120674852641
1.82987176241 2.77753819418 0.21555439703 0.227512554838 0.295814725248 -0.819753426897 -0.440796084362 0.565753632405 -0.949614509801 1.22846946541 0.12136700924
1.85174465862 2.7727848384 0.215051110658 0.226598838591 0.295133734307 -0.820159852211 -0.440603300814 0.564964407364 -0.94956211766 1.22950856098 0.122057556887
1.87362370747 2.76803014556 0.21454905711 0.225688002425 0.294454490045 -0.820565988039 -0.44041076579 0.564175611692 -0.949509136237 1.2305436087 0.122746499857
1.89550885381 2.76327412776 0.214048227244 0.224780026619 0.293776972619 -0.820971831602 -0.440218463159 0.563387260125 -0.949455530465 1.23157458438 0.123433827174
1.91740011969 2.75851678039 0.213548640238 0.223874931654 0.2931012149 -0.821377380039 -0.440026429351 0.562599340784 -0.949401390764 1.23260157026 0.124119573505
1.93929744679 2.75375811552 0.213050286874 0.222972697768 0.292427197005 -0.821782630613 -0.439834648224 0.561811868283 -0.949346682041 1.23362454236 0.124803727856
1.96120080516 2.74899813964 0.212553167352 0.222073318606 0.291754916601 -0.822187580594 -0.439643121136 0.561024848334 -0.949291410946 1.23464351204 0.125486294426
1.983110168 2.74423685921 0.212057281839 0.221176787798 0.291084371333 -0.822592227284 -0.43945184943 0.560238286589 -0.949235584071 1.23565849068 0.126167277391
2.00502550537 2.73947428067 0.211562630471 0.220283098967 0.290415558824 -0.822996568013 -0.439260834436 0.559452188644 -0.949179207961 1.23666948964 0.126846680906
2.02694675892 2.73471041585 0.211069203996 0.219392232648 0.289748459478 -0.823400600064 -0.439070060302 0.558666569002 -0.949122248397 1.23767648509 0.127524494702
2.04887395389 2.72994526035 0.210577021188 0.218504208611 0.289083105264 -0.823804321007 -0.438879562647 0.557881415221 -0.949064793152 1.2386795586 0.128200751686
2.07058987314 2.72517882594 0.210086072724 0.217619007357 0.288419476549 -0.824207728167 -0.438689325607 0.557096741689 -0.949006807984 1.23967868654 0.128875441571
2.09231159192 2.72041111901 0.209596358603 0.216736622467 0.28775757087 -0.824610818994 -0.438499350459 0.556312553782 -0.948948299234 1.2406738803 0.129548568443
2.11403907715 2.71564214589 0.209107878793 0.215857047516 0.287097385744 -0.825013590969 -0.438309638463 0.55552885682 -0.948889273187 1.24166515123 0.130220136366
2.13577230358 2.71087191291 0.20862063323 0.214980276069 0.286438918665 -0.825416041603 -0.438120190865 0.554745656068 -0.948829736078 1.2426525107 0.130890149382
2.15751121764 2.70610043162 0.208134612566 0.214106288916 0.285782150282 -0.825818168243 -0.437930992077 0.553962965802 -0.948769654501 1.24363593523 0.131558597891
2.17925583822 2.70132769779 0.207649835184 0.213235105154 0.285127111705 -0.826219968859 -0.437742076946 0.553180773051 -0.948709113705 1.24461550572 0.132225513137
2.20100611174 2.69655372295 0.207166291667 0.212366705543 0.284473783547 -0.826621440837 -0.43755342987 0.55239909198 -0.948648080257 1.24559119886 0.132890885502
2.2227620114 2.69177851333 0.206683981822 0.211501083615 0.283822163224 -0.827022581803 -0.437365052046 0.551617927646 -0.948586560201 1.24656302602 0.133554718965
2.24452350883 2.68700207516 0.206202905429 0.210638232896 0.283172248134 -0.827423389408 -0.43717694465 0.550837285048 -0.948524559524 1.24753099857 0.13421701748
2.26629057564 2.68222441463 0.205723062237 0.209778146905 0.282524035659 -0.827823861332 -0.43698910885 0.550057169134 -0.948462084172 1.24849512785 0.13487778499
2.28806315823 2.67744554305 0.205244442809 0.208920806683 0.281877506682 -0.828223994988 -0.436801529307 0.54927759396 -0.948399101505 1.24945539068 0.135537012526
2.30984127869 2.67266545632 0.204767065152 0.208066230694 0.281232691499 -0.82862378872 -0.436614240127 0.548498546055 -0.948335694367 1.25041186731 0.136194729755
2.33162488341 2.66788416572 0.204290919763 0.207214399951 0.280589570962 -0.829023239978 -0.43642722596 0.547720039369 -0.948271830098 1.25136453474 0.136850927695
2.3534139456 2.66310167735 0.203816006271 0.206365307948 0.279948142379 -0.829422346551 -0.436240487921 0.54694207865 -0.948207514452 1.2523134043 0.137505610222
2.37520843687 2.65831799731 0.203342324276 0.205518948171 0.279308403039 -0.829821106253 -0.436054027108 0.546164668592 -0.948142753136 1.25325848734 0.138158781192
2.39700832886 2.65353313167 0.20286987335 0.204675314105 0.278670350218 -0.830219516929 -0.435867844611 0.54538781384 -0.948077551815 1.25419979518 0.138810444449
2.41881357427 2.64874709146 0.202398643976 0.203834387038 0.278033965032 -0.830617576053 -0.435681925327 0.544611528234 -0.948011878579 1.25513730493 0.139460591621
2.44062418729 2.64395987275 0.201928653802 0.202996184835 0.277399277001 -0.831015282321 -0.435496302654 0.543835797833 -0.947945813982 1.25607109618 0.140109250888
2.46244011905 2.63917148654 0.201459893246 0.202160688761 0.276766267213 -0.831412633245 -0.43531096148 0.543060636377 -0.947879326092 1.2570011462 0.140756413864
2.48426134432 2.6343819388 0.200992361767 0.201327892278 0.276134932875 -0.83180962677 -0.435125902839 0.542286048318 -0.947812420389 1.2579274663 0.141402084332
2.50608783317 2.62959123551 0.200526058798 0.200497788847 0.27550527118 -0.832206260868 -0.434941127756 0.541512038058 -0.947745102313 1.25885006777 0.142046266055
2.52791956036 2.62479938262 0.200060983745 0.199670371921 0.274877279306 -0.832602533535 -0.43475663724 0.540738609953 -0.947677377256 1.25976896192 0.142688962779
2.54975647545 2.62000639088 0.199597127016 0.198845623037 0.274250938596 -0.832998442312 -0.434572416416 0.539965777629 -0.947609214007 1.26068412611 0.143330166708
2.57159859736 2.6152122565 0.199134505917 0.198023559494 0.273626277836 -0.833393986221 -0.434388498005 0.539193526709 -0.947540690932 1.26159563928 0.143969904602
2.59344587565 2.61041699021 0.198673110794 0.197204162804 0.273003278341 -0.833789162837 -0.434204867116 0.538421870723 -0.947471776792 1.26250347896 0.144608168647
2.6152982835 2.60562059787 0.198212940947 0.196387426408 0.272381937228 -0.834183970255 -0.434021524711 0.537650813843 -0.947402476811 1.2634076564 0.145244962537
2.63715579571 2.60082308531 0.197753995652 0.195573343747 0.271762251601 -0.834578406592 -0.433838471737 0.53688036019 -0.947332796163 1.26430818287 0.145880289944
2.65901838547 2.59602445835 0.197296274157 0.194761908256 0.271144218552 -0.834972469992 -0.433655709129 0.536110513842 -0.947262739985 1.2652050696 0.146514154527
2.68088600392 2.5912247275 0.196839766805 0.193953101715 0.270527819648 -0.83536615806 -0.433473222227 0.535341288222 -0.947192277731 1.26609829422 0.14714654903
2.7027586684 2.58642388908 0.196384490572 0.193146940888 0.269913082972 -0.835759470124 -0.433291043103 0.534572668537 -0.947121485676 1.266987935 0.147777498872
2.72463633318 2.58162195356 0.195930435742 0.192343407532 0.269299990064 -0.836152403821 -0.433109157079 0.533804668117 -0.947050333246 1.26787396971 0.148406996781
2.74651896832 2.57681892668 0.195477601465 0.191542495075 0.268688537961 -0.836544957388 -0.432927565043 0.533037290862 -0.946978825412 1.26875640957 0.149035046364
2.76840655018 2.57201481413 0.195025986867 0.190744196946 0.268078723687 -0.836937129082 -0.43274626787 0.532270540629 -0.946906967102 1.26963526576 0.14966165121
2.79029905195 2.56720962159 0.194575591053 0.189948506571 0.267470544254 -0.837328917187 -0.432565266422 0.531504421229 -0.946834763205 1.27051054947 0.150286814895
2.81219642792 2.56240335933 0.194126404303 0.189155405968 0.26686398145 -0.837720319371 -0.43238454624 0.530738945886 -0.946762183808 1.27138223854 0.150910530676
2.83409869385 2.55759602377 0.193678443281 0.188364911398 0.266259062688 -0.838111335247 -0.432204138778 0.529974099416 -0.946689303188 1.27225041061 0.151532822698
2.85600580404 2.55278762513 0.193231698214 0.18757700486 0.265655769732 -0.838501962514 -0.43202402956 0.529209894954 -0.946616091408 1.27311504367 0.152153684205
2.87791773009 2.54797816901 0.192786168111 0.186791679775 0.265054099543 -0.838892199543 -0.431844219401 0.528446336145 -0.946542553195 1.27397614886 0.152773118721
2.89983444995 2.54316766098 0.19234185196 0.18600892957 0.264454049075 -0.839282044727 -0.431664709107 0.527683426587 -0.946468693241 1.27483373731 0.153391129758
2.92175593681 2.53835610659 0.191898748728 0.185228747667 0.263855615268 -0.83967149648 -0.431485499468 0.526921169838 -0.946394516196 1.27568782011 0.15400772081
2.94368214653 2.53354351584 0.191456848643 0.184451116322 0.263258780128 -0.840060552533 -0.431306576219 0.526159578929 -0.946319992755 1.27653837535 0.154622885626
2.96561309174 2.52872988527 0.19101616807 0.183676051319 0.26266357043 -0.840449212766 -0.431127970219 0.52539863831 -0.946245195285 1.27738548 0.15523664714
2.98754872986 2.52391522484 0.190576697184 0.182903534895 0.262069968155 -0.84083747494 -0.430949667184 0.524638360926 -0.946170094451 1.27822911227 0.155848999082
3.00948903567 2.51909954001 0.190138434864 0.182133560475 0.2614779702 -0.841225337552 -0.430771667862 0.523878750175 -0.946094694755 1.27906928321 0.156459944905
3.03143398395 2.51428283623 0.189701379968 0.181366121487 0.260887573455 -0.841612799122 -0.430593972988 0.523119809412 -0.946019000658 1.27990600387 0.157069488041
3.05338354947 2.50946511891 0.189265531335 0.180601211359 0.260298774798 -0.84199985819 -0.430416583288 0.522361541952 -0.945943016585 1.28073928529 0.157677631914
3.07533768653 2.50464639781 0.188830879148 0.179838812582 0.259711556445 -0.84238651255 -0.430239484675 0.521603960638 -0.945866713807 1.28156910573 0.158284370734
3.09729641404 2.49982666955 0.188397439483 0.179078940488 0.259125944566 -0.84277276233 -0.430062707442 0.520847049576 -0.945790162865 1.28239554152 0.158889726285
3.11925968628 2.49500594385 0.187965202473 0.17832157755 0.258541921354 -0.843158605349 -0.429886237487 0.520090821528 -0.945713335003 1.28321857106 0.159493692765
3.14122747804 2.49018422604 0.187534166874 0.177566717203 0.257959483651 -0.843544040229 -0.429710075491 0.519335279655 -0.945636234503 1.28403820534 0.160096273553
3.16319976566 2.48536152143 0.187104331424 0.176814352885 0.257378628287 -0.843929065609 -0.429534222124 0.518580427079 -0.945558865607 1.2848544553 0.16069747201
3.18517652392 2.4805378353 0.186675694841 0.176064478035 0.256799352088 -0.844313680149 -0.429358678044 0.517826266886 -0.945481232524 1.2856673319 0.161297291488
3.20715771184 2.47571317718 0.18624824727 0.175317075376 0.256221637477 -0.844697881701 -0.429183429341 0.517072811734 -0.945403307075 1.28647681358 0.161895726641
3.2291433436 2.47088754374 0.185822004512 0.174572159812 0.255645510045 -0.845081670628 -0.429008505762 0.516320045406 -0.945325158059 1.28728297603 0.16249279816
3.25113337507 2.46606094448 0.185396956663 0.173829714053 0.255070952198 -0.845465044808 -0.428833893378 0.515567980487 -0.945246757269 1.28808579785 0.163088500685
3.2731277826 2.46123338461 0.184973102366 0.173089731547 0.254497960724 -0.845848002976 -0.428659592807 0.514816619914 -0.945168108775 1.28888528991 0.163682837524
3.29512654412 2.45640486927 0.184550440245 0.172352205748 0.253926532406 -0.846230543887 -0.428485604655 0.514065966585 -0.945089216612 1.28968146307 0.164275811974
3.31712963441 2.45157540364 0.184128968908 0.171617130114 0.253356664019 -0.846612666313 -0.428311929516 0.513316023365 -0.945010084782 1.29047432817 0.164867427319
3.33913701248 2.446744997 0.183708678465 0.170884487596 0.252788338194 -0.846994368169 -0.428138553645 0.512566802736 -0.944930685634 1.29126386386 0.165457678633
3.36114869409 2.44191364609 0.183289584457 0.170154292697 0.25222157997 -0.84737565003 -0.427965506267 0.511818288179 -0.944851086293 1.29205014518 0.166046585568
3.38316463354 2.43708136018 0.182871676948 0.169426528354 0.251656371957 -0.847756509834 -0.427792773621 0.511070492104 -0.944771259083 1.29283315089 0.166634143183
3.40518481032 2.43224814433 0.182454954475 0.168701188041 0.251092710903 -0.848136946427 -0.427620356263 0.510323417235 -0.944691207871 1.29361289176 0.167220354724
3.42720920079 2.42741400358 0.182039415559 0.167978265232 0.250530593546 -0.84851695867 -0.427448254734 0.509577066257 -0.944610936495 1.29438937855 0.167805223422
3.44923778289 2.42257894294 0.181625058703 0.167257753407 0.249970016619 -0.848896545444 -0.427276469568 0.508831441825 -0.944530448751 1.29516262201 0.168388752498
3.47127051405 2.41774297149 0.181211873991 0.166539635745 0.249410962956 -0.84927570472 -0.427104987179 0.508086556251 -0.944449717501 1.29593260093 0.168970937426
3.49330741003 2.41290608602 0.180799876712 0.165823926368 0.248853457067 -0.849654437277 -0.426933836292 0.507342392729 -0.944368808266 1.29669938973 0.169551796868
3.51534842827 2.40806829557 0.180389056907 0.165110608442 0.248297481771 -0.850032741111 -0.426763003305 0.506598963503 -0.944287693876 1.29746296732 0.170131326287
3.53739354828 2.40322960506 0.179979413014 0.164399675465 0.247743033773 -0.850410615167 -0.426592488712 0.505856271093 -0.944206378007 1.29822334437 0.170709528863
3.55944274483 2.3983900194 0.179570943457 0.163691120942 0.247190109777 -0.850788058414 -0.426422292996 0.505114317983 -0.944124864302 1.29898053154 0.17128640777
3.58149599902 2.39354954348 0.179163646643 0.16298493838 0.24663870648 -0.851165069832 -0.42625241663 0.504373106623 -0.944043156371 1.29973453945 0.171861966166
3.60355326826 2.38870818614 0.178757512636 0.162281111183 0.246088806915 -0.851541647451 -0.426082846181 0.503632649163 -0.943961227558 1.30048534705 0.172436199906
3.62561456834 2.38386594423 0.178352556485 0.16157965311 0.24554043509 -0.851917792236 -0.425913609894 0.50289292853 -0.943879141849 1.30123302813 0.173009126712
3.64767985827 2.37902282656 0.177948768211 0.160880547556 0.244993574023 -0.852293502238 -0.425744694318 0.502153956806 -0.943796872562 1.30197756175 0.173580742426
3.66974911597 2.37417883794 0.177546146163 0.16018378805 0.24444822039 -0.852668776503 -0.425576099889 0.501415736315 -0.943714423187 1.30271895846 0.174151050173
3.69182231937 2.36933398313 0.177144688674 0.159489368128 0.243904370861 -0.853043614096 -0.425407827032 0.500678269349 -0.943631797182 1.30345722881 0.174720053066
3.71389944799 2.36448826688 0.176744394064 0.158797281333 0.243362022105 -0.853418014093 -0.425239876165 0.499941558167 -0.943548997977 1.3041923833 0.175287754206
3.73598046241 2.35964169783 0.176345252379 0.158107511288 0.242821157351 -0.853791974581 -0.425072233998 0.499205614759 -0.943465999381 1.30492440103 0.175854149812
3.75806537524 2.35479427286 0.175947278442 0.157420071414 0.242281800127 -0.8541654967 -0.424904928317 0.498470421801 -0.943382863909 1.30565335516 0.176419256708
3.78015415023 2.34994600058 0.175550462259 0.156734945328 0.241743933649 -0.854538578554 -0.424737945814 0.49773599122 -0.943299565343 1.30637922489 0.1769830711
3.80224676373 2.34509688564 0.175154802095 0.156052126595 0.241207554566 -0.854911219283 -0.424571286873 0.497002325154 -0.943216106999 1.30710202065 0.177545596058
3.82434319367 2.34024693269 0.174760296201 0.155371608789 0.240672659524 -0.855283418044 -0.42440495186 0.496269425711 -0.943132492157 1.30782175286 0.178106834637
3.84644342271 2.33539614636 0.174366942816 0.15469338549 0.240139245165 -0.855655174005 -0.424238941139 0.495537294967 -0.943048724073 1.30853843192 0.178666789885
3.86854740829 2.33054453506 0.173974731976 0.154017440543 0.239607294915 -0.856026485308 -0.42407324156 0.494805944759 -0.942964777005 1.30925203704 0.179225458368
3.89065516774 2.32569209571 0.173583678284 0.153343787042 0.23907683184 -0.856397353253 -0.423907880465 0.494075357529 -0.942880712053 1.30996264078 0.179782856053
3.91276666167 2.3208388367 0.173193771739 0.152672408829 0.238547839354 -0.856767776 -0.423742844689 0.493345545051 -0.942796503452 1.31067022245 0.180338979494
3.93488186957 2.31598476257 0.172805010529 0.152003299508 0.238020314084 -0.857137752776 -0.423578134556 0.492616509289 -0.942712154342 1.31137479236 0.180893831705
3.95700076938 2.31112987783 0.172417392828 0.151336452695 0.237494252655 -0.857507282824 -0.423413750386 0.491888252174 -0.94262766784 1.31207636081 0.181447415691
3.97912334218 2.30627418698 0.172030916802 0.150671862012 0.23696965169 -0.857876365402 -0.423249692485 0.491160775609 -0.942543047034 1.31277493808 0.181999734448
4.00124955171 2.30141769821 0.171645572481 0.150009511522 0.236446494806 -0.858244998703 -0.423085947838 0.490434091283 -0.94245826661 1.31347050349 0.18255078487
4.02337940901 2.2965604085 0.171261374258 0.149349414013 0.235924804632 -0.858613184179 -0.422922543363 0.489708181416 -0.942373386316 1.314163129 0.183100582109
4.04551287782 2.29170232602 0.170878312132 0.148691553544 0.235404564772 -0.858980920039 -0.422759466028 0.48898305764 -0.942288380814 1.31485279402 0.183649123048
4.06764993923 2.28684345517 0.170496384217 0.148035923766 0.234885771839 -0.859348205596 -0.422596716108 0.488258721749 -0.942203253087 1.31553950875 0.184196410654
4.08979057273 2.28198380034 0.17011558862 0.14738251834 0.234368422441 -0.859715040177 -0.422434293867 0.487535175506 -0.942118006086 1.31622328336 0.184742447878
4.11193475784 2.27712336591 0.169735923438 0.146731330932 0.233852513186 -0.860081423119 -0.422272199563 0.486812420651 -0.94203264274 1.31690412799 0.185287237666
4.13386317294 2.27226215986 0.169357378699 0.146082345823 0.233338027882 -0.860447352669 -0.422110420308 0.486090468729 -0.941947138151 1.31758202207 0.185830777228
4.15579508447 2.2674001792 0.168979968601 0.145435575511 0.232824988736 -0.860812830417 -0.421948982615 0.485369301755 -0.941861550765 1.31825703697 0.186373080938
4.17773045302 2.26253743189 0.168603683139 0.14479100427 0.232313379544 -0.861177854625 -0.421787873578 0.484648931219 -0.941775855659 1.3189291522 0.186914145994
4.19966926126 2.25767392221 0.168228520367 0.1441486258 0.231803196906 -0.861542424683 -0.421627093423 0.483929358756 -0.941690055658 1.31959837783 0.187453975313
4.22161148869 2.25280965443 0.167854478327 0.143508433811 0.23129443742 -0.861906539996 -0.421466642365 0.483210585972 -0.941604153563 1.32026472389 0.187992571798
4.2435571164 2.24794463278 0.167481555053 0.142870422019 0.230787097684 -0.862270199982 -0.421306520614 0.482492614447 -0.941518152148 1.32092820039 0.188529938348
4.2655061097 2.24307886509 0.16710974058 0.142234574919 0.230281161691 -0.862633402935 -0.421146715404 0.481775455591 -0.941432026915 1.32158878688 0.189066072474
4.2874584812 2.23821234834 0.166739048912 0.141600904731 0.229776651247 -0.862996150576 -0.420987252855 0.481059091223 -0.941345835054 1.32224655411 0.189600987803
4.3094141978 2.23334509031 0.166369470052 0.140969395945 0.229273550337 -0.863358441214 -0.420828120188 0.480343532701 -0.941259552047 1.32290148171 0.190134681837
4.33137323901 2.22847709518 0.166001001996 0.140340042314 0.228771855552 -0.863720274317 -0.420669317578 0.479628781507 -0.941173180569 1.32355357959 0.190667157444
4.35333558591 2.22360836706 0.165633642728 0.139712837599 0.228271563484 -0.864081649363 -0.420510845196 0.478914839096 -0.941086723274 1.32420285767 0.191198417485
4.37530122116 2.21873891008 0.165267390226 0.139087775571 0.227772670723 -0.864442565843 -0.420352703202 0.478201706898 -0.941000182788 1.32484932582 0.191728464807
4.39727011008 2.21386873186 0.164902234532 0.138464840932 0.227275161449 -0.864803022101 -0.420194878951 0.477489396191 -0.940913534999 1.32549296366 0.192257297212
4.41924226686 2.20899782941 0.16453818947 0.137844045644 0.226779057083 -0.865163019976 -0.420037398186 0.476777888614 -0.940826835896 1.32613384138 0.192784927615
4.44121765524 2.20412621032 0.164175245053 0.13722537441 0.226284341795 -0.865522557827 -0.419880248247 0.476067195395 -0.940740061343 1.32677193868 0.193311353806
4.46319625788 2.19925387864 0.163813399224 0.136608821036 0.225791012172 -0.865881635191 -0.419723429265 0.475357317872 -0.940653213877 1.32740726536 0.193836578609
4.48517805744 2.19438083836 0.163452649915 0.135994379338 0.225299064803 -0.866240251617 -0.419566941363 0.474648257355 -0.940566296006 1.32803983117 0.194360604837
4.507163035 2.18950709349 0.163092995053 0.135382043144 0.224808496277 -0.866598406665 -0.419410784657 0.473940015133 -0.940479310218 1.32866964586 0.194883435296
4.52915115746 2.18463265145 0.162734424692 0.134771797364 0.224319290955 -0.866956098729 -0.419254946616 0.473232602357 -0.940392232771 1.32929668913 0.195405068058
4.55114243743 2.17975750928 0.162376952485 0.134163653715 0.223831469891 -0.867313329755 -0.419099452625 0.472526000496 -0.940305118502 1.3299210306 0.195925515365
4.57313684338 2.17488167439 0.162020568458 0.133557597106 0.223345017436 -0.86767009815 -0.418944290134 0.471820220655 -0.940217943643 1.33054265004 0.196444775277
4.5951343564 2.17000515067 0.161665270504 0.132953621403 0.222859930179 -0.868026403518 -0.41878945923 0.471115264034 -0.940130710592 1.33116155711 0.196962850574
4.61713495757 2.16512794204 0.161311056512 0.13235172048 0.222376204709 -0.868382245475 -0.418634959997 0.470411131806 -0.940043421729 1.33177776143 0.197479744029
4.6391386327 2.16025005235 0.160957924362 0.131751888223 0.221893837618 -0.868737623646 -0.418480792507 0.469707825125 -0.939956079405 1.33239127261 0.197995458405
4.66114534711 2.15537148887 0.160605864124 0.131154109749 0.221412813444 -0.869092536471 -0.418326944336 0.469005355021 -0.939868660233 1.33300207042 0.198509992034
4.68315511341 2.15049224863 0.160254889287 0.130558396541 0.22093315289 -0.869446985998 -0.418173440523 0.468303702804 -0.939781217942 1.33361022391 0.199023356509
4.70516790007 2.14561233885 0.159904989893 0.129964733714 0.220454840487 -0.86980097068 -0.418020268629 0.467602879461 -0.93969372912 1.33421571292 0.199535550151
4.72718368976 2.14073176333 0.159556163794 0.129373115195 0.219977872829 -0.870154490184 -0.417867428701 0.466902886059 -0.939606196037 1.33481854698 0.200046575701
4.74920246671 2.13585052584 0.159208408837 0.128783534919 0.219502246509 -0.870507544187 -0.417714920779 0.466203723643 -0.939518620942 1.33541873556 0.200556435889
4.771224212 2.13096863014 0.158861722862 0.128195986832 0.219027958122 -0.870860132378 -0.417562744893 0.465505393239 -0.939431006057 1.33601628813 0.201065133435
4.79324889411 2.1260860833 0.158516095958 0.127610456256 0.218554992385 -0.871212253242 -0.417410888728 0.464807905759 -0.939343328343 1.33661118454 0.201572666923
4.81527652722 2.12120288237 0.158171541457 0.127026954451 0.218083369664 -0.87156390892 -0.417259376989 0.464111242366 -0.939255640458 1.33720349326 0.202079047325
4.83730707823 2.11631903439 0.157828049422 0.126445466738 0.217613074667 -0.871915097909 -0.417108197342 0.463415413932 -0.939167919337 1.33779319422 0.202584273212
4.85934053295 2.11143454305 0.157485617668 0.125865987105 0.217144103995 -0.872265819935 -0.416957349796 0.4627204214 -0.939080167125 1.33838029678 0.203088347284
4.88137687246 2.10654941199 0.157144244005 0.125288509551 0.216676454249 -0.872616074737 -0.416806834348 0.462026265694 -0.938992385946 1.33896481028 0.20359127223
4.90341608101 2.10166364487 0.156803926237 0.124713028087 0.216210122031 -0.872965862059 -0.416656650993 0.461332947714 -0.938904577903 1.33954674406 0.204093050733
4.92545812863 2.09677724858 0.156464654475 0.124139528233 0.215745092234 -0.873315180432 -0.416506787514 0.460640478264 -0.938816720286 1.340126078 0.204593681612
4.94750302637 2.09189022018 0.156126441904 0.123568021041 0.215281384901 -0.873664032081 -0.416357268299 0.459948838366 -0.938728864728 1.34070288005 0.205093175248
4.96955074427 2.08700256652 0.155789278608 0.122998492032 0.214818984915 -0.874012415548 -0.416208081117 0.459258038784 -0.938640988496 1.34127713018 0.205591530449
4.99160126814 2.08211429119 0.155453162371 0.122430935261 0.214357888887 -0.874360330614 -0.416059225935 0.458568080344 -0.938553093616 1.34184883762 0.206088749876
5.01365457908 2.07722539772 0.155118090971 0.121865344791 0.213898093428 -0.874707777074 -0.415910702716 0.45787896385 -0.938465182094 1.34241801156 0.206584836179
5.03571066288 2.07233588966 0.154784062181 0.121301714698 0.213439595153 -0.875054754727 -0.415762511415 0.45719069009 -0.938377255916 1.34298466118 0.207079792004
5.0577694896 2.0674457737 0.154451066137 0.120740030702 0.212982379126 -0.875401262148 -0.415614639917 0.456503269758 -0.938289292694 1.34354876645 0.207573616397
5.07983107028 2.06255504694 0.15411911588 0.120180303656 0.212526465079 -0.87574730164 -0.415467112299 0.455816683749 -0.938201343071 1.34411039475 0.20806631917
5.10189537654 2.05766371606 0.153788201525 0.119622519279 0.212071838072 -0.876092871785 -0.415319916429 0.455130942721 -0.938113384637 1.34466952611 0.208557899358
5.12396239261 2.05277178451 0.153458320824 0.119066671693 0.211618494725 -0.876437972419 -0.41517305224 0.454446047388 -0.938025419303 1.34522616961 0.209048359585
5.14603210273 2.04787925573 0.153129471529 0.118512755028 0.211166431666 -0.876782603388 -0.415026519657 0.453761998445 -0.937937448963 1.34578033431 0.209537702465
5.16810449114 2.04298613315 0.152801651385 0.117960763428 0.210715645521 -0.877126764545 -0.414880318602 0.453078796568 -0.937849475492 1.34633202923 0.210025930605
5.19017952946 2.03809242332 0.152474850557 0.117410682809 0.210266121524 -0.877470454506 -0.414734437053 0.452396452349 -0.937761476811 1.3468812344 0.210513043268
5.21225722873 2.03319812331 0.152149081952 0.116862523834 0.209817879113 -0.877813675643 -0.414588898791 0.451714946564 -0.937673502611 1.34742801665 0.210999049721
5.23433756215 2.02830323964 0.151824335712 0.116316272421 0.209370903516 -0.878156426582 -0.414443691781 0.451034289768 -0.937585530793 1.34797235608 0.211483949219
5.25642051238 2.02340777567 0.151500609567 0.115771922758 0.20892519137 -0.878498707207 -0.41429881592 0.450354482572 -0.93749756316 1.34851426161 0.211967744347
5.27850606522 2.01851173472 0.151177901244 0.115229469046 0.208480739318 -0.878840517414 -0.414154271102 0.449675525563 -0.9374096015 1.34905374215 0.212450437685
5.30059420493 2.01361512011 0.150856208466 0.114688905496 0.208037544003 -0.879181857106 -0.41401005721 0.448997419316 -0.937321647575 1.34959080659 0.212932031801
5.32268490469 2.00871793823 0.150535521427 0.114150218218 0.207595590828 -0.879522724939 -0.413866162317 0.448320174323 -0.937233679614 1.35012543499 0.213412526166
5.34477817712 2.00382018616 0.150215852908 0.113613417698 0.207154898944 -0.87986312335 -0.413722609921 0.447643771248 -0.937145746386 1.35065769367 0.213891929528
5.36687399226 1.99892187025 0.149897193081 0.113078490045 0.206715453749 -0.880203051002 -0.413579388077 0.44696822055 -0.937057826095 1.35118756275 0.214370241347
5.38897233594 1.99402299376 0.149579539658 0.112545429519 0.206277251899 -0.880542507829 -0.413436496652 0.446293522739 -0.93696992044 1.35171505102 0.214847464174
5.41107319396 1.9891235599 0.149262890344 0.112014230391 0.205840290053 -0.880881493774 -0.413293935503 0.445619678305 -0.936882031103 1.35224016725 0.21532360055
5.43317655214 1.98422357189 0.148947242844 0.111484886942 0.205404564875 -0.881220008784 -0.413151704486 0.444946687721 -0.936794159751 1.35276292017 0.215798653014
5.45528238052 1.97932303595 0.148632587385 0.110957385474 0.204970061931 -0.881558051556 -0.413009791759 0.444274561387 -0.936706284896 1.35328328988 0.216272621231
5.47739069487 1.97442194917 0.148318936625 0.110431736301 0.204536800101 -0.881895624585 -0.412868220549 0.443603279862 -0.936618454427 1.35380134218 0.21674551345
5.49950146681 1.96952031775 0.148006280773 0.109907925726 0.204104764949 -0.882232726572 -0.412726978999 0.442932853514 -0.936530646837 1.35431705724 0.217217329328
5.52161468058 1.96461814484 0.147694617521 0.10938594808 0.203673953151 -0.882569357497 -0.412586066946 0.442263282756 -0.936442863729 1.3548304437 0.217688071382
5.54373032199 1.95971543354 0.14738394456 0.108865797704 0.203244361386 -0.882905517345 -0.412445484215 0.441594567985 -0.936355106684 1.35534151017 0.218157742121
5.56584838 1.95481218697 0.147074259578 0.108347468952 0.202815986339 -0.883241206108 -0.412305230632 0.440926709582 -0.936267377273 1.35585026525 0.218626344047
5.5879688231 1.94990841121 0.14676555284 0.107830948313 0.20238881374 -0.88357642252 -0.412165294442 0.440259717854 -0.936179654289 1.35635668908 0.219093877014
5.61009166704 1.94500410334 0.146457836885 0.107316245942 0.201962862208 -0.883911169129 -0.412025698608 0.439593573265 -0.936091984769 1.35686084693 0.219560348793
5.63221688502 1.9400992694 0.146151101961 0.106803348331 0.20153811747 -0.884245444675 -0.411886431361 0.438928286096 -0.936004347489 1.35736271902 0.220025759231
5.65434446128 1.93519391244 0.145845345745 0.106292249881 0.201114576222 -0.884579249178 -0.411747492507 0.438263856668 -0.935916743956 1.35786231383 0.22049011081
5.67647438321 1.93028803548 0.145540565916 0.105782945008 0.20069223517 -0.884912582665 -0.411608881843 0.43760028529 -0.935829175658 1.35835963984 0.220953406004
5.6986066382 1.92538164153 0.14523676015 0.105275428138 0.200271091019 -0.885245445169 -0.411470599165 0.436937572253 -0.935741644072 1.35885470549 0.221415647284
5.72074119787 1.92047473651 0.144933918749 0.104769685946 0.19985112966 -0.885577835461 -0.411332632801 0.436275727781 -0.935654128263 1.35934749095 0.221876834684
5.74287807641 1.9155673175 0.144632054143 0.104265728435 0.199432369463 -0.885909756137 -0.411195005463 0.435614732245 -0.93556667445 1.359838061 0.222336975517
5.76501724703 1.9106593904 0.144331156616 0.103763542281 0.199014796313 -0.886241205972 -0.411057705464 0.434954595843 -0.935479261677 1.36032639589 0.222796069806
5.78715869553 1.90575095817 0.144031223838 0.103263121961 0.198598406935 -0.886572185025 -0.410920732583 0.434295318812 -0.935391891365 1.36081250394 0.223254120004
5.8093024093 1.90084202371 0.143732253478 0.102764461964 0.198183198055 -0.886902693364 -0.41078408659 0.433636901375 -0.935304564913 1.3612963935 0.223711128552
5.83144837573 1.89593258993 0.1434342432 0.10226755679 0.197769166406 -0.887232731059 -0.410647767252 0.43297934374 -0.935217283703 1.36177807284 0.224167097887
5.8535965696 1.89102266264 0.143137183349 0.101772393295 0.197356298035 -0.887562296918 -0.410511762981 0.432322656049 -0.935130027072 1.36225752218 0.224622028216
5.87574700195 1.88611223889 0.142841086248 0.101278981341 0.196944611073 -0.887891393578 -0.410376096242 0.43166681859 -0.93504284044 1.36273480581 0.225075926409
5.89789964755 1.88120132444 0.142545942224 0.100787307785 0.196534091565 -0.88822001985 -0.410240755432 0.43101184148 -0.934955703122 1.36320990398 0.225528792666
5.92005449379 1.87628992216 0.142251748938 0.10029736718 0.196124736258 -0.88854817583 -0.410105740302 0.430357724876 -0.934868616448 1.36368282489 0.225980629404
5.94221152806 1.87137803485 0.141958504052 0.0998091540878 0.195716541908 -0.888875861622 -0.409971050597 0.42970446892 -0.934781581733 1.36415357672 0.226431439034
5.96437073774 1.86646566533 0.141666205226 0.0993226630837 0.195309505274 -0.889203077333 -0.409836686058 0.429052073743 -0.934694600275 1.36462216762 0.226881223961
5.98653209763 1.86155281925 0.141374842845 0.0988378812053 0.194903612558 -0.889529821806 -0.409702635174 0.428400549407 -0.934607651665 1.36508857782 0.227329984555
6.00869561875 1.85663949368 0.141084429133 0.0983548181757 0.194498881662 -0.889856097714 -0.409568920178 0.427749876123 -0.934520780561 1.36555287112 0.227777727265
6.03086127902 1.85172569424 0.140794954458 0.0978734610353 0.194095298785 -0.890181903903 -0.409435529546 0.427100063931 -0.934433966535 1.3660150278 0.228224452453
6.05302906428 1.84681142369 0.140506416479 0.0973938044097 0.193692860703 -0.890507240505 -0.409302463001 0.426451112913 -0.934347210832 1.36647505592 0.228670162506
6.07519896189 1.84189668475 0.140218812853 0.0969158429369 0.193291564201 -0.890832107657 -0.409169720267 0.425803023135 -0.934260514688 1.36693296351 0.229114859804
6.09737096084 1.83698148014 0.139932141237 0.0964395712675 0.192891406064 -0.8911565055 -0.409037301058 0.425155794653 -0.934173879318 1.36738875857 0.22955854672
6.11954503431 1.83206581538 0.139646392058 0.0959649766171 0.19249237265 -0.891480432911 -0.408905193942 0.424509437455 -0.934087284564 1.36784242135 0.230001223782
6.14216693823 1.82714968753 0.139361577447 0.0954920685788 0.192094481637 -0.891803892597 -0.408773420924 0.423863931681 -0.934000774345 1.36829401518 0.230442897031
6.16501718861 1.82223310208 0.139077687815 0.0950208343713 0.19169771938 -0.892126883436 -0.408641970558 0.423219287296 -0.933914328481 1.36874352035 0.230883566989
6.18809807594 1.81731606169 0.13879472082 0.094551268696 0.191302082684 -0.892449405592 -0.408510842545 0.422575504311 -0.933827948142 1.36919094479 0.23132323601
6.21141191594 1.812398569 0.138512674118 0.0940833662664 0.190907568363 -0.892771459235 -0.408380036583 0.42193258272 -0.933741634482 1.36963629636 0.231761906443
6.23496104954 1.80748062664 0.138231545364 0.0936171218089 0.190514173232 -0.89309304454 -0.408249552364 0.421290522511 -0.933655388642 1.37007958295 0.232199580632
6.25874782243 1.80256223999 0.137951325032 0.0931525227142 0.190121883799 -0.893414160414 -0.408119378529 0.420649333598 -0.933569190702 1.3705207848 0.232636259253
6.28277464647 1.79764340611 0.137672025161 0.0926895784531 0.189730717532 -0.893734809593 -0.407989536869 0.420008996055 -0.933483083872 1.37095996477 0.23307194796
6.30704391936 1.79272413036 0.137393636209 0.0922282764193 0.189340660935 -0.894054990988 -0.407860016011 0.41936951978 -0.933397048213 1.3713971032 0.233506647421
6.33155807504 1.7878044153 0.137116155834 0.09176861139 0.188951710847 -0.894374704794 -0.407730815633 0.418730904713 -0.933311084819 1.37183220784 0.233940359962
6.35631956953 1.78288426349 0.136839581692 0.0913105781555 0.188563864109 -0.894693951211 -0.407601935412 0.418093150783 -0.93322519477 1.37226528642 0.234373087902
6.38133088564 1.77796367748 0.136563911443 0.090854171518 0.188177117568 -0.895012730442 -0.407473375018 0.41745625791 -0.933139379134 1.37269634668 0.234804833554
6.40659451723 1.77304266251 0.136289135605 0.0903993790411 0.187791457883 -0.895331041429 -0.407345123166 0.416820235941 -0.933053618226 1.37312536889 0.235235597738
6.43211302435 1.76812121564 0.136015266131 0.0899462100787 0.187406902316 -0.89564888693 -0.407217201435 0.416185064889 -0.932967954566 1.37355241544 0.235665385732
6.45788895129 1.7631993421 0.135742293528 0.0894946521977 0.187023437522 -0.89596626589 -0.407089598526 0.415550754584 -0.932882368452 1.37397746667 0.236094198347
6.48392488176 1.75827704437 0.135470215455 0.0890447002518 0.186641060369 -0.89628317853 -0.406962314097 0.414917304904 -0.932796860906 1.37440053021 0.236522037881
6.51022342469 1.75335432492 0.135199029574 0.0885963491074 0.186259767733 -0.89659962508 -0.406835347804 0.414284715714 -0.932711432938 1.37482161364 0.236948906622
6.53678721422 1.74843118621 0.134928733547 0.0881495936434 0.185879556492 -0.896915605771 -0.406708699297 0.413652986871 -0.932626085543 1.37524072455 0.237374806855
6.56361889869 1.74350763337 0.13465931794 0.0877044215934 0.185500413451 -0.897231119574 -0.40658235736 0.413022128157 -0.932540799267 1.37565784322 0.237799739536
6.59072119579 1.73858366344 0.134390794626 0.087260842201 0.185122355678 -0.897546169272 -0.406456343371 0.412392119529 -0.932455615964 1.3760730316 0.238223709581
6.61809680589 1.73365928153 0.134123154158 0.086818843203 0.184745369972 -0.897860753835 -0.406330646103 0.411762970755 -0.93237051616 1.37648627004 0.238646717939
6.6460249897 1.72873449004 0.133856394202 0.0863784195299 0.184369453237 -0.898174873516 -0.406205265194 0.41113468165 -0.93228550081 1.37689756601 0.239068766879
6.67451688442 1.72380929135 0.133590512425 0.0859395661247 0.18399460238 -0.898488528567 -0.40608020028 0.410507252021 -0.932200570855 1.37730692697 0.239489858659
6.70358385581 1.71888368784 0.133325506495 0.0855022779431 0.183620814314 -0.898801719249 -0.405955450991 0.409880681666 -0.932115727224 1.37771436035 0.239909995535
6.73323747932 1.71395768453 0.133061367028 0.085066542886 0.183248075987 -0.899114444562 -0.405831006181 0.409254980305 -0.932030950684 1.37811984646 0.240329178594
6.76348961413 1.70903127843 0.132798105818 0.0846323700926 0.182876404279 -0.899426707304 -0.405706887036 0.408630127844 -0.931946282448 1.37852344679 0.240747412407
6.79435231017 1.70410447456 0.132535713468 0.0841997474668 0.182505786135 -0.899738506478 -0.405583082394 0.408006133989 -0.931861703262 1.3789251417 0.24116469805
6.82647073202 1.69917727521 0.132274187652 0.0837686700162 0.182136218492 -0.90004984236 -0.405459591877 0.4073829985 -0.931777214018 1.37932493853 0.241581037765
6.8595650152 1.69424968271 0.132013526044 0.0833391327605 0.18176769829 -0.900360715228 -0.405336415102 0.406760721128 -0.931692815592 1.37972284458 0.241996433782
6.89366479269 1.68932169933 0.131753726321 0.0829111307321 0.181400222478 -0.900671125366 -0.405213551683 0.406139301613 -0.931608508849 1.38011886716 0.242410888328
6.9288005787 1.68439332999 0.131494779147 0.0824846519966 0.181033778145 -0.900981071804 -0.405090990538 0.405518749618 -0.931524274769 1.38051298657 0.242824402614
6.96536590489 1.6794645717 0.131236696245 0.0820597055942 0.18066838199 -0.901290557355 -0.404968752667 0.404899045001 -0.931440153947 1.38090526388 0.243236980876
7.00341889437 1.67453542933 0.130979468266 0.0816362795939 0.180304021102 -0.90159958105 -0.404846826978 0.404280197411 -0.931356127349 1.38129567945 0.243648624319
7.04341606663 1.66960590514 0.130723092895 0.0812143690796 0.179940692451 -0.901908143187 -0.404725213072 0.403662206555 -0.931272195798 1.38168424047 0.244059335152
7.08630175205 1.66467600134 0.130467567815 0.0807939691479 0.179578393014 -0.902216244069 -0.404603910551 0.40304507213 -0.931188360109 1.38207095412 0.244469115579
7.13182925499 1.65974572014 0.130212890713 0.0803750749082 0.179217119773 -0.902523884002 -0.404482919011 0.402428793824 -0.931104621091 1.38245582756 0.2448779678
7.18113274422 1.65481506635 0.129959052303 0.0799576745882 0.178856859958 -0.902831062046 -0.404362227437 0.401813381245 -0.931020959931 1.38283884109 0.245285893142
7.23505934986 1.64988403696 0.129706064239 0.0795417771341 0.178497630095 -0.903137781023 -0.404241856649 0.401198814207 -0.930937416624 1.38322005535 0.245692895523
7.29582977094 1.64495263675 0.129453917224 0.079127370777 0.178139417411 -0.903444039992 -0.404121795618 0.400585102304 -0.930853972344 1.38359945072 0.246098976263
7.36709319518 1.64002086787 0.129202608952 0.0787144506776 0.177782218914 -0.903749839274 -0.404002043932 0.399972245193 -0.930770627858 1.38397703425 0.246504137547
7.45883380321 1.63508873248 0.128952137119 0.0783030120092 0.177426031614 -0.904055179194 -0.403882601175 0.399360242522 -0.930687383923 1.38435281297 0.246908381549
7.63872285902 1.63015623272 0.128702499423 0.0778930499582 0.177070852532 -0.904360060078 -0.403763466929 0.398749093929 -0.930604241288 1.3847267939 0.247311710441
7.7772248549 1.62940570485 0.124772393426 0.0797194204752 0.177353337411 -0.899638396631 -0.405718677462 0.399282782971 -0.932014765243 1.37817697482 0.251508305007
7.85695848336 1.62864427978 0.120835547999 0.0815496286055 0.177638090322 -0.894909514596 -0.407702314914 0.399809511189 -0.933467135219 1.37164640991 0.25574631404
7.9198231659 1.62787192639 0.116891782958 0.0833836117645 0.177925001361 -0.890173206749 -0.409714612398 0.400329410051 -0.934961892805 1.36513543727 0.260026670764
7.9736030427 1.62708858896 0.112940991808 0.0852213749183 0.178214058556 -0.885429313417 -0.411755802424 0.400842493236 -0.936499647807 1.35864469823 0.264350222438
8.02141616514 1.62629421132 0.10898306406 0.0870629198868 0.178505245469 -0.880677672669 -0.413826120324 0.401348772491 -0.938081018307 1.35217485398 0.268717827416
8.06521369941 1.6254887369 0.105017885069 0.0889082451203 0.178798540909 -0.875918120254 -0.415925804117 0.4018482575 -0.939706630487 1.34572658617 0.273130355173
8.1061403824 1.62467210871 0.101045335873 0.0907573454673 0.179093918643 -0.871150489569 -0.418055094365 0.402340955746 -0.941377118425 1.33930059766 0.277588686308
8.14481018979 1.62370651066 0.0970609354269 0.0925953344486 0.179379727835 -0.866387394646 -0.420209275553 0.402809837207 -0.943089059776 1.33291233348 0.282101667018
8.18130817101 1.62272968331 0.0930689580105 0.0944369637211 0.1796675481 -0.86161594737 -0.422393438072 0.403271881127 -0.944847052073 1.32654802384 0.286662044621
8.21610212148 1.62174157658 0.0890692357905 0.0962821851258 0.179957291113 -0.856835934711 -0.42460782781 0.403727153845 -0.946651718731 1.32020829148 0.291270819701
8.24960430356 1.62074213181 0.0850616328889 0.0981309763932 0.180248907733 -0.852047180221 -0.426852691803 0.404175653266 -0.948503716584 1.31389392724 0.295928911484
8.28186368309 1.61973128993 0.0810460082995 0.0999833103336 0.180542342139 -0.847249504906 -0.429128278654 0.404617374169 -0.950403708736 1.30760574656 0.300637249842
8.31323800767 1.61870899159 0.0770222157023 0.101839154526 0.180837531443 -0.842442727189 -0.431434838295 0.405052307982 -0.95235236415 1.30134459028 0.305396775156
8.34375258153 1.61767517708 0.072990103278 0.103698470992 0.181134405293 -0.837626662879 -0.433772621727 0.405480442531 -0.954350357213 1.29511132536 0.310208438138
8.37344226813 1.61649356567 0.0689481150066 0.10554309188 0.181419845246 -0.832818300604 -0.436134916506 0.405884843049 -0.956392054297 1.28892590309 0.315076998033
8.40232002696 1.61530038201 0.0648975364601 0.107390955783 0.181706776454 -0.828000338257 -0.438528778146 0.406282410368 -0.958484221398 1.2827702254 0.319999356589
8.43040916811 1.61409556693 0.0608381896922 0.109241998316 0.18199509224 -0.823172563634 -0.440954451281 0.406673146315 -0.960627524198 1.27664518576 0.324976536088
8.45800549178 1.61287905939 0.056769901811 0.111096156013 0.1822846892 -0.81833478242 -0.443412185691 0.407057022622 -0.962822645124 1.27055175651 0.330009517716
8.48566368248 1.61165079804 0.0526924935327 0.112953358057 0.182575454308 -0.813486797588 -0.445902230619 0.40743400592 -0.965070268953 1.26449093982 0.335099291405
8.51394219856 1.61041072131 0.0486057789828 0.114813525853 0.182867264413 -0.808628409388 -0.448424834376 0.407804057359 -0.96737108206 1.25846376858 0.340246855425
8.54285616235 1.60915876737 0.044509565497 0.11667657259 0.183159985722 -0.803759415336 -0.450980243935 0.408167132215 -0.969725771611 1.25247130715 0.345453215931
8.57270410908 1.60776046193 0.0404053961815 0.118521031937 0.183439053661 -0.798901288411 -0.453559381046 0.408506509278 -0.972125832742 1.24653755035 0.350718288445
8.60353010991 1.60635023867 0.0362913999533 0.120368033109 0.183718704694 -0.794032209452 -0.456171592561 0.408838848212 -0.974580790204 1.24064062593 0.356043830228
8.63536350933 1.6049284041 0.0321679036943 0.122218834028 0.18400033835 -0.789154772819 -0.458823578883 0.409163924687 -0.977101192652 1.23478719206 0.361432420522
8.66854962671 1.60349680793 0.0280369195221 0.124079124362 0.184290378793 -0.784282125636 -0.46154227568 0.409481075344 -0.9797288023 1.22900224143 0.366889914707
8.70314767757 1.6020562866 0.0238982265376 0.125949089717 0.184588910972 -0.779418103912 -0.46432810876 0.409790378856 -0.982465051684 1.22328950809 0.372413777058
8.73921951159 1.60060775065 0.0197516056491 0.127828893964 0.184895993665 -0.77456676545 -0.467181381283 0.410091919637 -0.985311196909 1.21765277745 0.378001135696
8.77720582448 1.59915218711 0.0155968417213 0.129718676897 0.185211657617 -0.769732393337 -0.470102261764 0.410385788085 -0.988268295812 1.21209587017 0.383648762295
8.81750494959 1.59755874041 0.0114391753108 0.131594912759 0.185521251819 -0.764948391533 -0.473082901649 0.410655745363 -0.991330970711 1.20665272579 0.389346524875
8.85559480768 1.5959606635 0.00727308580529 0.133481236589 0.185839428932 -0.760191073965 -0.47613086309 0.410918309967 -0.994505732196 1.20129712782 0.395096136249
8.89191089079 1.59435918332 0.00309838764011 0.13537769712 0.186166121504 -0.755465397541 -0.479245811151 0.411173596391 -0.99779285477 1.19603284136 0.400893159958
8.92653707076 1.59275560554 -0.00108509087137 0.137284307441 0.186501225212 -0.75077652718 -0.48242722026 0.411421728679 -1.00119230938 1.19086356209 0.406732744543
8.95988321856 1.59115131311 -0.00527750463734 0.139201042125 0.186844596908 -0.746129824277 -0.485674360727 0.4116628418 -1.00470373674 1.18579288263 0.41260961613
8.99465842891 1.58954776376 -0.00947898868581 0.14112783454 0.187196053006 -0.741530831125 -0.488986285941 0.411897083047 -1.00832642137 1.18082425628 0.418518075585
9.03128740029 1.58794648614 -0.0136896549618 0.143064574363 0.187555368173 -0.736985251164 -0.492361820613 0.412124613563 -1.01205926687 1.17596095798 0.424452000813
9.06978571532 1.58621995538 -0.0179004194586 0.144984681957 0.187906845028 -0.732534768906 -0.495789774008 0.412329858888 -1.01589247694 1.17124053572 0.430390295549
9.11074130773 1.58449915157 -0.022120339245 0.146914272138 0.188265625967 -0.728149958677 -0.49927789559 0.412528866185 -1.01983177232 1.16663106593 0.436339474701
9.1547467143 1.5827857735 -0.026349433859 0.148853090408 0.18863135717 -0.723836817755 -0.502824258594 0.412721848823 -1.02387475758 1.16213498819 0.442292219634
9.20258524657 1.58108156035 -0.030587687505 0.150800832612 0.18900364268 -0.719601376491 -0.506426681795 0.41290904071 -1.02801858859 1.15775439089 0.448240870078
9.24678069962 1.57938828092 -0.0348350464111 0.152757144647 0.189382045582 -0.715449656779 -0.51008272962 0.413090698083 -1.03225996594 1.15349096869 0.454177461892
9.29332911398 1.57770772128 -0.0390914165653 0.154721622857 0.189766089856 -0.711387626667 -0.513789715799 0.413267101132 -1.03659513431 1.1493459821 0.4600937729
9.3448547383 1.57604167142 -0.0433566619233 0.156693815124 0.190155262854 -0.70742115194 -0.517544710758 0.413438555435 -1.04101988819 1.14532022012 0.465981376355
9.40280271274 1.57426577901 -0.0476175164796 0.158643927613 0.190532767096 -0.70359842076 -0.521331758176 0.413590365237 -1.0455174451 1.14145115579 0.471807931615
9.45386460084 1.57250808925 -0.0518866428714 0.160600594135 0.190914297471 -0.699882692028 -0.525159765093 0.413738036469 -1.05009393495 1.13770071933 0.477587437634
9.50893440166 1.57077029679 -0.0561637733505 0.162563232981 0.191299255878 -0.69627915674 -0.529025165009 0.413881955599 -1.05474390732 1.13406806336 0.483311293511
9.55818431252 1.56905403783 -0.0604485981444 0.16453122658 0.191687024103 -0.692792696602 -0.532924221724 0.414022536788 -1.05946156273 1.13055177975 0.488970976926
9.60329264852 1.56736087497 -0.064740766995 0.166503926159 0.192076968984 -0.689427836533 -0.536853055802 0.414160221527 -1.06424079322 1.12714989583 0.494558121538
9.65077879133 1.56569228234 -0.0690398915536 0.168480657002 0.192468447874 -0.686188700427 -0.540807674161 0.414295477695 -1.06907522911 1.12385987937 0.500064595156
9.7033127396 1.56404963184 -0.073345548488 0.170460724167 0.192860814292 -0.683078971672 -0.544784002031 0.414428798061 -1.07395829059 1.12067865266 0.50548257645
9.76288318076 1.56231089219 -0.0776401515545 0.172411177559 0.193236301663 -0.680149510032 -0.548761319979 0.414546456141 -1.07886592869 1.11764039615 0.510771911042
9.81539764326 1.56060052983 -0.0819401420448 0.174363428498 0.193611424139 -0.677355158755 -0.552751576524 0.414663346727 -1.08380761328 1.11470223902 0.515957544419
9.87060137894 1.55891952046 -0.0862450213189 0.176316764264 0.193985563298 -0.674698039843 -0.556750690626 0.414780018445 -1.08877652613 1.11185962694 0.521033095665
9.93475632442 1.55726869942 -0.0905542748882 0.178270477227 0.194358118765 -0.672179747886 -0.56075463842 0.414897033145 -1.0937658767 1.10910760913 0.525992749415
10.0153451983 1.55564875766 -0.0948673775037 0.180223870544 0.194728512629 -0.669801347443 -0.564759484552 0.41501496228 -1.09876895816 1.10644089002 0.530831297173
10.0796068496 1.5540602397 -0.0991837984901 0.182176263646 0.195096193457 -0.667563377636 -0.568761411694 0.415134382906 -1.1037792011 1.10385388507 0.535544169168
10.1458584511 1.55250354369 -0.103503007022 0.184126997241 0.195460639689 -0.665465864082 -0.572756747245 0.415255873553 -1.10879022309 1.10134077934 0.540127455597
10.2295056832 1.55085805166 -0.1078033086 0.186040246693 0.195803347818 -0.663558891287 -0.576721435307 0.415366500304 -1.11377303434 1.09893222954 0.544538060699
10.2954912183 1.54924466182 -0.112105171174 0.187950515709 0.196141930047 -0.66179029786 -0.580672344509 0.415480431775 -1.11874378236 1.09658436294 0.548813024543
10.3517790582 1.54766333927 -0.116408101847 0.189857241109 0.196475974617 -0.660158669654 -0.584606408586 0.415598218393 -1.12369696865 1.09429106575 0.552950521741
10.4017385481 1.54611392431 -0.120711626093 0.191759895116 0.196805106828 -0.658662193624 -0.588520776214 0.41572039562 -1.12862742427 1.0920462315 0.556949362781
10.4474199903 1.54459614123 -0.125015290753 0.193657986791 0.197128989062 -0.657298694716 -0.59241281865 0.415847480957 -1.13353032843 1.08984381105 0.56080896758
10.4900250372 1.54310960772 -0.129318666715 0.195551063204 0.197447320582 -0.656065674203 -0.596280134219 0.415979970976 -1.13840122167 1.08767785845 0.564529333341
10.5301544702 1.54165384474 -0.133621351064 0.197438709999 0.197759836863 -0.654960349012 -0.600120549511 0.416118338768 -1.14323601316 1.08554257185 0.56811099733
10.5677287131 1.54010933103 -0.137897914883 0.199282484931 0.198047402634 -0.654030836223 -0.603908030583 0.416250073578 -1.14800323084 1.08346708476 0.571510559411
10.6034663507 1.53859419265 -0.142172927934 0.201120073343 0.198328802153 -0.653221792012 -0.60766477749 0.416388595935 -1.15272679776 1.08141020981 0.574774177899
10.6377945977 1.53710771936 -0.146446083541 0.202951181706 0.198603875506 -0.652529821153 -0.611389318392 0.416534288744 -1.15740379283 1.07936683047 0.577903791638
10.6707668887 1.53564914688 -0.15071710452 0.204775552462 0.198872492853 -0.651951400935 -0.615080384762 0.416687505398 -1.16203163991 1.07733208325 0.580901695336
10.7027516153 1.53421766665 -0.154985742629 0.206592962138 0.199134552162 -0.651482914123 -0.618736901444 0.416848569822 -1.16660809409 1.07530137096 0.583770495111
10.7337767473 1.53281243474 -0.159251777983 0.208403219667 0.199389977195 -0.651120679154 -0.622357975739 0.417017776441 -1.17113122591 1.07327037177 0.586513065227
10.763869703 1.53143258013 -0.16351501819 0.210206164558 0.199638715469 -0.650860977682 -0.62594288579 0.417195390463 -1.17559940403 1.07123504416 0.589132506593
10.7928606813 1.52995978777 -0.16774659218 0.211960843485 0.19986094494 -0.650750051496 -0.629464116625 0.417368973278 -1.17997968015 1.06922467745 0.591585439086
10.8212589999 1.52851034164 -0.171974976347 0.213707966497 0.200076534446 -0.650733135079 -0.632948219613 0.417551395168 -1.18430239878 1.06720196493 0.593922484569
10.8490760419 1.5270833381 -0.176200061742 0.215447457168 0.200285491627 -0.6508065723 -0.636394933743 0.41774283033 -1.18856675538 1.06516376195 0.596147194269
10.8763231257 1.52567787341 -0.180421761382 0.217179261599 0.200487839952 -0.650966754756 -0.639804116912 0.417943427253 -1.19277216134 1.06310718882 0.59826319979
10.9030114895 1.52429304869 -0.184640008489 0.218903346106 0.200683616688 -0.651210135695 -0.643175734765 0.418153310427 -1.19691822551 1.06102962231 0.600274186159
10.9291522768 1.52292797399 -0.188854754999 0.220619695345 0.200872871253 -0.651533241545 -0.646509849768 0.4183725817 -1.20100473605 1.05892868556 0.602183867194
10.9547565159 1.52158177188 -0.193065970052 0.222328310546 0.201055663711 -0.6519326814 -0.649806610884 0.418601321683 -1.20503164302 1.05680223717 0.603995963724
10.9801439556 1.52013747586 -0.197241527352 0.223985764772 0.201211389225 -0.652452841989 -0.653037077466 0.41882690401 -1.20896466041 1.05468037037 0.605666973928
11.0047635466 1.51871009902 -0.201413490903 0.225635553825 0.201360894526 -0.653041776788 -0.65623084534 0.419061992507 -1.21283846251 1.0525288401 0.607248407743
11.0291184837 1.51729882695 -0.205581878171 0.227277720675 0.20150426277 -0.653696426308 -0.659388273879 0.419306607211 -1.21665341141 1.05034618397 0.608743873983
11.0532117604 1.51590286666 -0.209746717926 0.22891231864 0.201641582834 -0.654413833766 -0.662509771276 0.419560752594 -1.22040996624 1.04813112194 0.610156924064
11.0777686063 1.51452144791 -0.21390804884 0.230539409842 0.201772948143 -0.655191147103 -0.665595788299 0.419824419472 -1.22410867207 1.045882545 0.611491043238
11.1025503906 1.51315382415 -0.218065918369 0.232159064014 0.201898455767 -0.65602561974 -0.668646811733 0.420097586246 -1.22775014825 1.04359950295 0.612749642183
11.1275594871 1.51179927303 -0.222220381684 0.233771357436 0.20201820567 -0.656914610502 -0.671663358504 0.420380220026 -1.23133507794 1.04128119277 0.613936050202
11.1528339548 1.51034224409 -0.226336200189 0.23533043956 0.202110745974 -0.657900362926 -0.674615115904 0.420659300931 -1.23482789033 1.03895869977 0.61500681483
11.178595814 1.50889668159 -0.230448725923 0.236882375395 0.202197831777 -0.658934687412 -0.67753370653 0.420947644401 -1.2382658889 1.03659940614 0.616012398855
11.2048549299 1.50746194772 -0.23455803473 0.238427255687 0.202279566157 -0.660015295641 -0.68041970648 0.421245187138 -1.24164990065 1.03420291367 0.616955825648
11.2316214054 1.50603742876 -0.238664206532 0.239965174446 0.20235605291 -0.661139996912 -0.683273703146 0.421551858998 -1.24498078183 1.03176892691 0.617840023995
11.2589055801 1.50462253491 -0.242767324542 0.24149622802 0.202427395882 -0.662306695784 -0.68609629219 0.421867584252 -1.24825941216 1.02929724443 0.618667827489
11.2867180348 1.50321669987 -0.246867474628 0.243020514551 0.202493698653 -0.663513389312 -0.68888807463 0.422192282255 -1.25148668937 1.02678775049 0.619441974009
11.3150695913 1.50181938039 -0.250964744801 0.244538133459 0.202555064194 -0.664758164262 -0.6916496544 0.42252586833 -1.25466352448 1.0242404073 0.620165106122
11.3437008831 1.50031647995 -0.255020912332 0.246000891616 0.202589169377 -0.666080744583 -0.694349494474 0.42285474684 -1.2577532458 1.02168744572 0.620794199099
11.3731801263 1.49882086065 -0.259074384052 0.247457246982 0.202618637751 -0.667436955579 -0.697020580171 0.423192189299 -1.26079466269 1.01909658728 0.621377836239
11.403533117 1.49733205445 -0.263125253005 0.248907299821 0.202643567137 -0.668825172 -0.699663504778 0.423538100426 -1.26378869762 1.01646800091 0.621918344396
11.4347864631 1.49584961339 -0.267173612709 0.250351150222 0.202664053954 -0.670243844112 -0.702278856882 0.42389238359 -1.26673627122 1.01380190516 0.622417961916
11.4672894123 1.49437310894 -0.271219556593 0.251788897771 0.20268019313 -0.671691494509 -0.704867219219 0.424254940944 -1.26963829996 1.01109856348 0.622878840288
11.5010926959 1.49290213143 -0.275263177869 0.253220641215 0.202692077818 -0.673166715297 -0.707429167758 0.424625674277 -1.27249569411 1.00835827917 0.623303046727
11.5362491295 1.49143628931 -0.279304569275 0.254646478295 0.202699799355 -0.674668165122 -0.709965270823 0.425004485278 -1.27530935595 1.00558139102 0.623692566323
11.5727436852 1.48986298999 -0.283302640144 0.256015976777 0.2026801676 -0.676232735625 -0.71244296787 0.425377038522 -1.2780417821 1.00280148762 0.624005181723
11.6075056019 1.48829390272 -0.287298679932 0.257379839662 0.202656646675 -0.677820252489 -0.714896185844 0.425757300724 -1.28073258599 0.999985671326 0.62428732309
11.6408948971 1.48672869448 -0.291292779136 0.25873815989 0.202629320289 -0.679429587409 -0.717325457255 0.426145173833 -1.28338262796 0.997134369884 0.62454071229
11.6729664828 1.48516704729 -0.295285027154 0.260091028959 0.202598270249 -0.681059665837 -0.719731304794 0.426540560915 -1.28599275511 0.99424803093 0.624767000519
11.7040811002 1.48360865754 -0.29927551205 0.261438536752 0.202563576401 -0.68270946449 -0.722114241163 0.426943366319 -1.28856380087 0.991327119537 0.624967770709
11.7342679551 1.48205323551 -0.303264320542 0.262780771407 0.202525316527 -0.684378009066 -0.724474768859 0.427353496078 -1.29109658424 0.988372115497 0.625144540147
11.7635553311 1.48050050469 -0.307251537859 0.264117819337 0.202483566453 -0.686064371885 -0.726813380059 0.427770857808 -1.29359190952 0.985383511323 0.625298762614
11.7922222083 1.47883945115 -0.31119330735 0.265397124617 0.202414291027 -0.687802401303 -0.729096701621 0.42818023378 -1.29601172931 0.982396494113 0.625389318167
11.8197607068 1.47718040317 -0.315133673321 0.26667150284 0.202341768118 -0.68955582074 -0.731359319895 0.4285964684 -1.29839601048 0.979376878228 0.625460455428
11.8467475207 1.47552312746 -0.319072716012 0.267941033873 0.202266065872 -0.691323854132 -0.733601686234 0.429019474758 -1.30074549979 0.976325181699 0.625513426175
11.8731942302 1.47386740139 -0.32301051407 0.269205795855 0.202187250634 -0.693105762429 -0.735824241755 0.429449168002 -1.30306092849 0.973241927356 0.625549429331
11.8991121457 1.47221301263 -0.326947144516 0.270465865055 0.202105386837 -0.694900841886 -0.738027417451 0.429885465619 -1.3053430123 0.970127641426 0.625569613225
11.9245123274 1.47055975866 -0.330882682746 0.271721315869 0.20202053702 -0.696708422401 -0.740211634271 0.430328287507 -1.3075924515 0.966982852314 0.625575077603
11.9494055829 1.46890744634 -0.334817202496 0.272972220868 0.201932761916 -0.698527865882 -0.742377303275 0.430777555875 -1.309809931 0.963808089686 0.625566875436
11.9744922757 1.46714673744 -0.338704168478 0.274164021021 0.201817214339 -0.700389856171 -0.74449043888 0.431217052316 -1.31195712979 0.960640369238 0.62550517348
11.9990792717 1.46538645981 -0.342590282211 0.275351519801 0.201698955649 -0.702261892121 -0.746586079661 0.431662636283 -1.31407405859 0.957443760051 0.625432108314
12.0231769418 1.4636264515 -0.346475611739 0.276534783277 0.201578039839 -0.704143442134 -0.748664598717 0.432114237283 -1.31616134523 0.954218785899 0.625348583059
12.047031613 1.46186655807 -0.350360223559 0.277713875846 0.201454519309 -0.70603399985 -0.750726360096 0.432571787238 -1.31821960311 0.950965968106 0.625255462492
12.070882277 1.46010663228 -0.354244182605 0.278888860178 0.201328444833 -0.707933082972 -0.752771718988 0.433035220575 -1.32024943144 0.947685824986 0.625153574665
12.0949677916 1.45834653374 -0.358127552295 0.280059797223 0.201199865559 -0.709840232163 -0.754801021875 0.433504474298 -1.32225141539 0.944378871213 0.625043712484
12.1192908573 1.45658612867 -0.362010394536 0.281226746259 0.201068829085 -0.711755009938 -0.756814606737 0.433979487885 -1.32422612644 0.941045617487 0.624926635035
12.1437854373 1.45471786737 -0.365843569735 0.282333267171 0.200909715979 -0.713704881584 -0.75877805839 0.434442948454 -1.32613521125 0.937725104801 0.624763902236
12.1687698445 1.45284891687 -0.369676359284 0.283436030522 0.200748336346 -0.715661000372 -0.760726701345 0.434911832181 -1.32801849407 0.934379346918 0.624595643039
12.194254248 1.45097916577 -0.373508819585 0.284535089793 0.200584732196 -0.717623003603 -0.762660840882 0.43538608605 -1.32987649553 0.931008834529 0.624422506801
12.2202490283 1.44910850789 -0.377341005707 0.285630496995 0.200418944199 -0.719590545782 -0.764580774751 0.435865659431 -1.33170972388 0.927614052853 0.624245115318
12.2467647789 1.44723684206 -0.381172971389 0.286722302646 0.200251011668 -0.721563297837 -0.766486793374 0.436350504131 -1.33351867527 0.924195481436 0.624064063995
12.2738123091 1.44536407192 -0.385004769041 0.287810555824 0.200080972632 -0.723540946346 -0.768379180046 0.43684057425 -1.33530383416 0.920753594091 0.623879922796
12.3014026551 1.4434901057 -0.388836449837 0.288895304153 0.199908863789 -0.725523192863 -0.770258211031 0.437335826345 -1.33706567333 0.917288858506 0.623693237468
12.3294447441 1.44150930485 -0.39261633361 0.289918347819 0.199708337437 -0.727534277609 -0.772089206582 0.437817782757 -1.33876601795 0.913842495639 0.623467007196
12.3583365423 1.43952701829 -0.396396218028 0.290938106103 0.199505913653 -0.72954889259 -0.773907634605 0.438304609096 -1.3404443226 0.910374257077 0.623239466954
12.3881041593 1.43754317036 -0.400176149291 0.291954621674 0.19930162461 -0.73156679219 -0.775713744039 0.438796268973 -1.3421010167 0.90688458525 0.62301108239
12.4187745105 1.435557689 -0.403956172494 0.292967935983 0.1990955014 -0.733587742559 -0.777507777753 0.439292728143 -1.34373651955 0.903373916284 0.62278229929
12.4506913499 1.43357050567 -0.407736331633 0.293978089258 0.198887574039 -0.735611521088 -0.77928997272 0.439793954471 -1.34535124054 0.899842680021 0.622553544344
12.4839057114 1.43158155519 -0.411516669671 0.294985120495 0.198677871443 -0.737637915938 -0.781060560094 0.440299918031 -1.34694557933 0.896291299816 0.622325226036
12.5188163794 1.42959077555 -0.415297228514 0.295989067543 0.19846642153 -0.739666725524 -0.782819765443 0.440810590877 -1.3485199262 0.892720192777 0.622097735153
12.5548890616 1.42749456695 -0.419023842954 0.296930090582 0.198226194831 -0.741718991628 -0.784532793286 0.441306281538 -1.35003646791 0.889172872241 0.62183551454
12.5893045049 1.42539630762 -0.42275077276 0.297868241146 0.197984379443 -0.74377283375 -0.786235127605 0.441806394039 -1.3515341362 0.885606694641 0.621575018416
12.6220527184 1.4232959472 -0.4264780555 0.298803552902 0.197740999606 -0.745828087959 -0.787926971329 0.442310906896 -1.35301328492 0.88202205084 0.621316579141
12.6535263981 1.42119343784 -0.430205727855 0.299736058532 0.197496078709 -0.74788459841 -0.789608522543 0.442819800441 -1.35447425977 0.878419325585 0.62106051462
12.6837754369 1.41908873413 -0.433933825663 0.300665789696 0.197249639239 -0.749942217023 -0.791279974555 0.443333056931 -1.35591739831 0.8747988974 0.620807129004
12.7131384828 1.41698179303 -0.437662383926 0.301592777075 0.197001702825 -0.752000803132 -0.792941516033 0.443850660444 -1.35734303027 0.871161138713 0.620556713139
12.7416417464 1.41487257372 -0.44139143685 0.302517050381 0.196752290243 -0.75406022318 -0.794593331093 0.444372596893 -1.35875147769 0.867506415844 0.620309545109
12.7697161594 1.41265964416 -0.445064383632 0.303377247202 0.196473738246 -0.756138370339 -0.796200643151 0.444877930497 -1.36010544794 0.863880608429 0.620031487598
12.7969691216 1.41044426481 -0.448737898312 0.304234936837 0.196193858806 -0.758216682947 -0.797798836131 0.44538733279 -1.3614432182 0.860238599528 0.619757323356
12.8236894435 1.40822640323 -0.452412011297 0.305090145541 0.195912669797 -0.760295054479 -0.799388075497 0.445900795255 -1.36276508022 0.856580730598 0.619487287513
12.8498877469 1.4060060288 -0.45608675231 0.305942898768 0.195630188403 -0.762373384003 -0.80096852282 0.446418310931 -1.36407131913 0.852907337494 0.61922160464
12.8755744328 1.40378311256 -0.459762150432 0.306793221137 0.195346431068 -0.764451575966 -0.802540335803 0.446939874518 -1.36536221345 0.849218750395 0.618960489279
12.9007596863 1.40155762721 -0.463438234086 0.307641136492 0.195061413566 -0.76652953995 -0.804103668438 0.447465482208 -1.36663803543 0.845515294028 0.618704146155
12.9254534811 1.39932954701 -0.467115031098 0.308486667875 0.194775150958 -0.768607190475 -0.805658671001 0.447995131796 -1.36789905095 0.841797287569 0.61845277069
12.9502443548 1.39699973591 -0.470733550466 0.309267044833 0.194459394608 -0.770699338531 -0.807170707594 0.448506629296 -1.36910862578 0.838113016396 0.61817360372
12.9745519009 1.39466719519 -0.474352836763 0.310045242192 0.194142534957 -0.77279063366 -0.808674955249 0.449021926004 -1.37030426761 0.834414853854 0.617899860687
12.9983857038 1.3923319052 -0.477972914496 0.310821280134 0.193824584784 -0.77488100993 -0.810171548831 0.449541024427 -1.37148621719 0.830703096484 0.617631705265
13.0217551494 1.38999384751 -0.48159380769 0.311595178158 0.193505556256 -0.776970405304 -0.811660619975 0.450063928507 -1.37265470973 0.826978035721 0.617369293492
13.0446694327 1.38765300489 -0.48521553985 0.312366955127 0.193185460991 -0.779058761461 -0.813142297249 0.450590643442 -1.37380997524 0.82323995818 0.617112773842
13.0678183665 1.38530936123 -0.48883813401 0.313136629245 0.192864310024 -0.781146023659 -0.814616706137 0.451121175781 -1.37495223846 0.819489145571 0.616862287636
13.0912044998 1.38296290154 -0.492461612735 0.313904218098 0.192542113841 -0.78323214058 -0.816083969145 0.45165553332 -1.37608171907 0.815725874863 0.616617969195
13.1148953068 1.3805172729 -0.49602434375 0.314606596215 0.192191095293 -0.785328658538 -0.817513714926 0.452168706008 -1.37716896791 0.81200705513 0.616346370658
13.1385941644 1.3780683615 -0.499588285568 0.315306130838 0.191838141886 -0.787423842225 -0.818932726206 0.452687030993 -1.37823769168 0.808269997201 0.61608323774
13.1627757316 1.37561651477 -0.503153165422 0.316003803497 0.191484294358 -0.789517406287 -0.820345201072 0.453208969906 -1.37929463815 0.804521332924 0.615826699033
13.1874499871 1.37316172378 -0.506719004387 0.316699624616 0.191129555906 -0.791609313373 -0.821751234488 0.453734535755 -1.38033997733 0.800761282559 0.615576858432
13.2126270969 1.3707039796 -0.51028582141 0.317393608304 0.190773934236 -0.793699531703 -0.82315093096 0.454263742636 -1.38137389907 0.796990094317 0.615333815482
13.2383174448 1.36824327409 -0.513853635084 0.318085768133 0.190417436575 -0.795788031947 -0.824544392397 0.454796605693 -1.38239658878 0.793208012049 0.615097664307
13.2645316224 1.36577959985 -0.517422463661 0.318776117164 0.190060069694 -0.797874787148 -0.825931718241 0.455333141113 -1.3834082277 0.789415275506 0.614868493801
13.2908011944 1.36321912245 -0.520928365157 0.31940010687 0.18967333628 -0.799968532533 -0.827281961306 0.455847436054 -1.38437874673 0.785669718754 0.614614315851
13.3176093576 1.36065519829 -0.524435649687 0.320021651696 0.189284946991 -0.802060356692 -0.828622884905 0.456366627727 -1.38533315382 0.78190841773 0.614369479042
13.3452380824 1.35808821184 -0.527943981611 0.320641605596 0.188895833625 -0.80415006081 -0.829958215884 0.456889306194 -1.38627740226 0.778137190516 0.614131899974
13.3737126226 1.35551816011 -0.531453378053 0.321259975468 0.188505996696 -0.806237626985 -0.831288031419 0.457415491831 -1.38721163259 0.774356228755 0.613901645904
13.4030589966 1.35294504002 -0.53496385422 0.321876771466 0.188115440723 -0.808323042296 -0.832612415826 0.457945206019 -1.38813600094 0.77056574693 0.613678779767
13.4336064729 1.35036884899 -0.538475425069 0.322492003305 0.187724169832 -0.810406295496 -0.833931451266 0.458478470986 -1.38905065977 0.766765955834 0.613463360395
13.4654043421 1.34778958496 -0.541988105309 0.323105680296 0.187332187774 -0.812487376963 -0.835245217843 0.459015309794 -1.38995575809 0.762957062769 0.613255442651
13.4980080699 1.34511615041 -0.545435597745 0.323652200556 0.186910608933 -0.814572199844 -0.83652339687 0.459528462291 -1.39082245413 0.759199469171 0.613023809999
13.5292295224 1.3424391599 -0.548884601849 0.324196639718 0.186487621711 -0.816654702982 -0.83779346389 0.460046325957 -1.39167509827 0.755428247556 0.612802047958
13.5592424983 1.33975902246 -0.552334729346 0.324739740172 0.186064062547 -0.818734738141 -0.839058743785 0.460567600788 -1.3925189677 0.751648525966 0.612587947866
13.5880938841 1.33707573924 -0.555785994098 0.325281505916 0.185639929824 -0.820812301205 -0.840319298664 0.461092313129 -1.39335417805 0.747860471026 0.612381549397
13.6161060817 1.33438931117 -0.559238408247 0.325821943814 0.185215225478 -0.822887392528 -0.841575195921 0.461620490266 -1.39418085724 0.744064268199 0.612182888119
13.6433035912 1.33169973951 -0.56269198376 0.326361060382 0.184789951122 -0.82496001359 -0.842826501147 0.462152160142 -1.39499913018 0.740260099832 0.611991996454
13.6697101925 1.32900702584 -0.566146732434 0.326898861804 0.18436410806 -0.827030166959 -0.844073278192 0.462687351359 -1.39580911883 0.73644814532 0.61180890377
13.6961221221 1.32622285958 -0.569534092296 0.327368667886 0.18390833123 -0.829101055715 -0.845285398891 0.463197700671 -1.39658246902 0.732690557175 0.61160348972
13.7217694092 1.32343506486 -0.572923054725 0.327836729142 0.183451369293 -0.831169365415 -0.846490446273 0.46371263381 -1.39734354077 0.728921142859 0.611408218821
13.746671007 1.32064406724 -0.576313187282 0.32830369001 0.182993974723 -0.833234973111 -0.847691398944 0.464230945223 -1.39809703014 0.725144440639 0.611220820087
13.7710904516 1.31784987063 -0.57970450112 0.328769552058 0.182536144192 -0.835297884368 -0.848888306078 0.464752665986 -1.39884303147 0.721360595328 0.611041312252
13.795037143 1.31505247867 -0.583097005856 0.329234319388 0.182077877523 -0.837358108782 -0.850081220708 0.465277828047 -1.39958164881 0.717569767403 0.610869710262
13.8185202967 1.3122518952 -0.586490710994 0.329697995819 0.181619174271 -0.839415656676 -0.851270194326 0.465806463856 -1.40031298367 0.713772114721 0.610706026617
13.8415489457 1.30944812423 -0.589885625927 0.330160584902 0.18116003374 -0.84147053908 -0.852455276948 0.466338606354 -1.40103713508 0.709967792649 0.610550271437
13.8647891982 1.30655574515 -0.593210974284 0.330554436754 0.180670664552 -0.843523335614 -0.853606647489 0.466844814334 -1.40172637464 0.706220719168 0.610373398298
13.8875829034 1.30365968906 -0.596537983525 0.330946856864 0.180180313576 -0.845573397432 -0.854751840511 0.467355526694 -1.40240486618 0.702463348751 0.610206747609
13.9099354842 1.30076039321 -0.599866183952 0.331338403747 0.179689659389 -0.847620609528 -0.855893534857 0.467869619567 -1.4030768042 0.698699714696 0.610048031864
13.9318555318 1.29785786332 -0.603195584461 0.33172907692 0.179198697281 -0.849664984103 -0.857031768527 0.468387127661 -1.4037422647 0.694929942899 0.609897253848
13.9540028082 1.29495210477 -0.606526192586 0.332118878143 0.17870742534 -0.851706537017 -0.858166582262 0.468908086496 -1.40440133139 0.691154172382 0.609754412928
13.9763797206 1.29204312301 -0.60985801579 0.332507808944 0.178215841434 -0.853745284568 -0.859298015482 0.469432531946 -1.4050540858 0.687372539969 0.609619506545
13.9992147824 1.28913092361 -0.613191061472 0.332895870639 0.177723943222 -0.855781243477 -0.860426106333 0.469960500243 -1.40570060734 0.683585180384 0.609492530258
14.0220076128 1.28613307561 -0.616452390283 0.333214547043 0.17720156314 -0.857812463332 -0.861521442409 0.470461504875 -1.40631390873 0.679857767505 0.609345479873
14.0452706347 1.28313151637 -0.61971540992 0.333532085044 0.176678388128 -0.859840870063 -0.862611374777 0.47096697314 -1.40691778491 0.676121350615 0.609208585959
14.0690098936 1.2801266925 -0.622979619139 0.333848967876 0.176155031725 -0.861866344992 -0.863698321695 0.47147585247 -1.40751599586 0.672379529886 0.60907957763
14.0932351899 1.27711861081 -0.626245024953 0.334165193307 0.175631488101 -0.863888904685 -0.864782311458 0.471988180239 -1.40810860175 0.668632414868 0.608958445512
14.1179565133 1.27410727767 -0.629511633162 0.334480761093 0.175107753916 -0.865908569043 -0.865863374223 0.472503994568 -1.40869566882 0.664880126194 0.608845177202
14.1431840628 1.27109269949 -0.632779449534 0.334795670804 0.174583825649 -0.867925358193 -0.866941539008 0.473023333816 -1.40927726144 0.661122782654 0.608739758753
14.1691856879 1.26807488273 -0.636048479803 0.335109921839 0.17405969961 -0.869939292481 -0.868016833725 0.47354623657 -1.40985344219 0.657360501278 0.608642174707
14.1953701128 1.26497448168 -0.639243674824 0.335354230048 0.173504879217 -0.87194598955 -0.869060343268 0.474041209706 -1.41039806091 0.653660683255 0.608525425633
14.2223622691 1.26187034235 -0.642440565696 0.335597676193 0.172949437164 -0.873949852512 -0.870099118028 0.474540636278 -1.41093439867 0.649952949238 0.608418658229
14.2501824749 1.25876292012 -0.645638624436 0.335840677642 0.172393929708 -0.875950751584 -0.871135348934 0.4750435267 -1.41146583788 0.646240527257 0.608319641952
14.2791429138 1.25565222235 -0.648837856472 0.336083230661 0.171838350114 -0.877948705983 -0.872169055812 0.47554992016 -1.41199242492 0.642523512777 0.608228358176
14.3092903574 1.25253825591 -0.652038266156 0.336325333279 0.171282693866 -0.879943737981 -0.873200259667 0.476059856542 -1.41251421099 0.638802010696 0.608144785618
14.3406734924 1.24942102766 -0.655239857832 0.336566983378 0.170726956302 -0.881935869924 -0.874228980517 0.476573375857 -1.4130312457 0.635076124369 0.608068901744
14.3736697052 1.24630054447 -0.658442635836 0.336808178703 0.170171132616 -0.883925124225 -0.875255237405 0.477090518237 -1.41354357706 0.631345955671 0.608000682789
14.4077615487 1.24310063709 -0.661569496781 0.336978960536 0.169584441441 -0.885904787622 -0.876250689673 0.477578827325 -1.4140259714 0.627680589264 0.607914093483
14.440116623 1.23989696611 -0.664698036542 0.337149141821 0.16899729063 -0.887881638337 -0.877241985383 0.478071603033 -1.41450107461 0.624008217118 0.607837230173
14.4709330646 1.23668999658 -0.667827704511 0.337319082411 0.168410185952 -0.88985553109 -0.878231116534 0.478567912215 -1.4149719401 0.620331746997 0.607767919345
14.5005774489 1.233479736 -0.670958504772 0.337488777267 0.167823119938 -0.891826486456 -0.879218095547 0.479067795142 -1.41543860229 0.616651262264 0.607706135361
14.5290942616 1.23026619138 -0.674090440455 0.337658222924 0.167236087107 -0.893794527821 -0.88020293549 0.479571292725 -1.41590109936 0.612966854371 0.60765185028
14.5565263049 1.22704936969 -0.677223514701 0.337827415798 0.166649081856 -0.89575967853 -0.881185648565 0.480078445909 -1.41635946811 0.609278613479 0.607605035125
14.5831786418 1.22382927785 -0.680357730659 0.337996352198 0.166062098467 -0.897721961887 -0.88216624612 0.480589295669 -1.41681374399 0.605586628509 0.607565659905
14.6096590987 1.2205330095 -0.68341398909 0.338094487419 0.165444112084 -0.8996724364 -0.88311702885 0.48107046933 -1.41723967473 0.60196161166 0.607508611718
14.6353903286 1.21723295004 -0.686471889618 0.338192270518 0.164825818772 -0.901620150591 -0.884064154468 0.481556139908 -1.41765916994 0.598330345061 0.607460974576
14.6606398878 1.213929576 -0.689530862594 0.338290011245 0.164207679738 -0.903564941532 -0.885009440421 0.482045425688 -1.41807499583 0.594695460427 0.607420643395
14.6861674749 1.21062289479 -0.692590910952 0.338387703425 0.163589686927 -0.905506830171 -0.885952892649 0.482538367391 -1.41848717635 0.591057030749 0.607387587269
14.7124948216 1.20731291331 -0.695652036781 0.338485342286 0.162971834061 -0.907445840058 -0.886894517327 0.483035006321 -1.41889573842 0.587415136009 0.607361773308
14.7396469043 1.20399963838 -0.698714242191 0.338582922968 0.162354114768 -0.909381994618 -0.887834319865 0.483535383743 -1.41930070776 0.583769855111 0.607343167756
14.7676494717 1.20068307673 -0.701777529313 0.338680440526 0.161736522584 -0.911315317155 -0.88877230492 0.48403954087 -1.41970210887 0.580121265916 0.607331736004
14.7959837762 1.19729366642 -0.704760864647 0.338706848171 0.161087827596 -0.913234741215 -0.889681472293 0.484513238173 -1.4200767232 0.576541642818 0.607303245901
14.8255018301 1.19390043242 -0.707745787654 0.338733140404 0.160438970643 -0.91515147945 -0.890587413357 0.484991474384 -1.42044564065 0.572956392083 0.607283809422
14.856556075 1.19050386534 -0.710731712834 0.338759583468 0.159790373541 -0.917065350754 -0.891491792027 0.485473415505 -1.42081137615 0.569367907114 0.607271397334
14.889226358 1.18710397233 -0.713718642128 0.338786170188 0.159142027765 -0.918976375705 -0.892394608572 0.485959102161 -1.42117394454 0.565776252046 0.607265974824
14.9239403792 1.18370075999 -0.716706576721 0.338812894653 0.15849392639 -0.920884577299 -0.893295863176 0.48644857552 -1.42153336297 0.562181497094 0.607267505382
14.9611947393 1.18029423484 -0.719695517832 0.338839750883 0.157846062416 -0.92278997835 -0.894195555349 0.486941876639 -1.42188964752 0.558583711571 0.607275951765
15.001575028 1.1768844033 -0.722685466703 0.338866732832 0.157198428772 -0.924692601492 -0.895093683933 0.487439046456 -1.42224281325 0.554982963923 0.607291275997
15.0452895984 1.17340512433 -0.725593520635 0.33882237099 0.156519626112 -0.926579358347 -0.895963997369 0.487905029752 -1.42257071656 0.551453018263 0.607290086223
15.0849285549 1.16992198202 -0.728503091766 0.338778119821 0.1558408 -0.928463519236 -0.896831455377 0.488375601013 -1.42289355942 0.547917950916 0.607297563338
15.1258079556 1.1664354842 -0.73141358165 0.338734207938 0.155162337357 -0.93034488552 -0.89769758651 0.488849971313 -1.42321363659 0.54437994925 0.607311758377
15.1705600968 1.16294563764 -0.734324991353 0.338690627293 0.15448422929 -0.932223476845 -0.898562386085 0.489328180735 -1.42353095495 0.540839069853 0.607332633687
15.2205364651 1.15945244856 -0.73723732127 0.338647370969 0.15380646835 -0.93409931512 -0.899425849092 0.489810269859 -1.42384552319 0.537295374643 0.60736015018
15.2789619865 1.15595592309 -0.740150571831 0.338604432001 0.153129047032 -0.935972422031 -0.900287969919 0.490296279094 -1.42415734904 0.533748924787 0.607394268129
15.3290337343 1.15245606723 -0.743064743492 0.338561803379 0.152451957775 -0.937842819039 -0.901148742364 0.490786248679 -1.42446643934 0.530199780724 0.607434947174
15.3840264623 1.14889023231 -0.745895133068 0.338447667828 0.151743664689 -0.939695497998 -0.901982705638 0.491244359847 -1.42475175717 0.526723118616 0.607459597143
15.4321382728 1.14532048608 -0.74872695472 0.338333859278 0.15103548126 -0.941545680995 -0.902814132015 0.491707111195 -1.42503256154 0.523241740054 0.6074925083
15.47841659 1.14174735704 -0.751559599744 0.338220573967 0.150327763429 -0.94339315333 -0.903644430427 0.492173757122 -1.42531095397 0.519757653987 0.607531814094
15.5303009661 1.13817085153 -0.754393068428 0.338107803071 0.149620502019 -0.945237933309 -0.904473591882 0.492644336792 -1.42558693445 0.516270910601 0.607577474879
15.5780715986 1.13459097534 -0.757227360459 0.337995538791 0.148913689161 -0.947080041355 -0.905301606871 0.493118889827 -1.42586050431 0.512781564785 0.607629449798
15.6324901373 1.13100773415 -0.760062475558 0.337883773298 0.148207316946 -0.948919497644 -0.906128465355 0.493597455633 -1.42613166409 0.509289670802 0.607687697433
15.6980577272 1.12742113356 -0.762898413475 0.337772498726 0.147501377428 -0.9507563221 -0.906954156768 0.494080073391 -1.42640041351 0.505795282307 0.607752175809
15.7561833483 1.12377208363 -0.765648743029 0.33758962074 0.146764228413 -0.952573687548 -0.90775404656 0.494530213319 -1.42664684556 0.502374906253 0.607801060126
15.8063216497 1.12011906539 -0.768400406067 0.337407277022 0.146027317614 -0.954388663173 -0.908551672254 0.494985045567 -1.42688923284 0.498950131746 0.607857789125
15.8513804571 1.11646263165 -0.771152786174 0.337225636127 0.145290973384 -0.956201020261 -0.909348336819 0.49544386682 -1.42712950704 0.495522812972 0.607920579111
15.8960347406 1.11280278829 -0.77390588293 0.337044688551 0.144555186337 -0.958010775477 -0.910144027524 0.495906715025 -1.42736766214 0.492092994707 0.607989389112
15.9459004495 1.1091395407 -0.776659695378 0.336864425717 0.143819948277 -0.959817947476 -0.910938730988 0.496373628547 -1.42760369317 0.488660725901 0.608064177141
16.0029784897 1.10547289414 -0.779414222594 0.336684839032 0.14308525098 -0.961622554646 -0.911732433356 0.496844645495 -1.42783759441 0.485226054986 0.608144900709
16.0529366649 1.10180285374 -0.782169463676 0.336505919881 0.142351086195 -0.963424615114 -0.912525120306 0.497319803717 -1.42806935946 0.481789029883 0.608231516832
16.1059873035 1.09807394972 -0.784837335771 0.336255363452 0.141585733111 -0.96520558158 -0.91329301298 0.497761914827 -1.42828022713 0.478427404886 0.608302932366
16.1533827866 1.0943410111 -0.787506430307 0.336005540052 0.140820742929 -0.966984267432 -0.914058874452 0.498208767696 -1.4284874502 0.475061623994 0.608381771714
16.1965916777 1.0906046187 -0.790176125594 0.335756594757 0.14005641937 -0.968760432364 -0.914823913571 0.498659700819 -1.42869281086 0.471693406911 0.608466333205
16.2366853519 1.08686477801 -0.792846420563 0.335508517463 0.139292752901 -0.970534091187 -0.91558811439 0.499114750688 -1.4288962979 0.468322793856 0.608556575074
16.2741158768 1.08312149402 -0.795517313661 0.335261298913 0.138529735072 -0.972305260587 -0.916351460208 0.499573954177 -1.4290979009 0.464949828786 0.608652454702
16.3094095147 1.07937477157 -0.798188803359 0.33501492984 0.137767357419 -0.974073956982 -0.917113933901 0.500037347871 -1.42929760879 0.461574555222 0.60875392902
16.3433570885 1.07562461543 -0.800860888152 0.33476940097 0.137005611464 -0.975840196516 -0.917875517931 0.500504968067 -1.42949540989 0.458197016261 0.608860954508
16.3786571659 1.07181923235 -0.803443913682 0.334452259636 0.136212722994 -0.977583808498 -0.91861331317 0.500939019673 -1.42967369838 0.454896129016 0.608953138712
16.4124623933 1.06800973918 -0.806028039028 0.334136042028 0.135420318787 -0.979325249823 -0.919349275337 0.5013778577 -1.42984868251 0.451591263331 0.609052326588
16.4449783761 1.06419674847 -0.808612639604 0.333820873519 0.134628680489 -0.981064271229 -0.92008452945 0.501820862398 -1.43002201264 0.448284021799 0.609156896713
16.4762542188 1.06038026537 -0.811197713735 0.33350674348 0.133837798474 -0.982800885533 -0.920819056809 0.502268068624 -1.43019367311 0.444974440831 0.609266806947
16.5066379838 1.0565602945 -0.813783259301 0.333193642054 0.133047664107 -0.98453510733 -0.921552837888 0.502719511585 -1.43036364886 0.441662560194 0.609382014436
16.5361550572 1.05273684039 -0.816369274206 0.332881559385 0.132258268746 -0.986266950941 -0.922285852786 0.503175226172 -1.43053192423 0.438348419293 0.609502475909
16.5648301064 1.04890990746 -0.818955756372 0.332570485621 0.13146960375 -0.987996430412 -0.923018081228 0.503635246966 -1.43069848303 0.435032057178 0.60962814769
16.5936036359 1.04503143048 -0.821451563919 0.332187879045 0.130649864356 -0.989701845951 -0.923727522963 0.50406122323 -1.43084687869 0.431793469181 0.60973930986
16.6232810929 1.04114875913 -0.823948337836 0.33180637919 0.129830727683 -0.99140519979 -0.924435299548 0.504492024208 -1.43099225793 0.428551024144 0.60985706028
16.6538857354 1.03726254129 -0.826445452983 0.331426095115 0.129012455527 -0.993106236462 -0.925142461089 0.50492707216 -1.43113615465 0.425306222455 0.60997985532
16.6857620709 1.03337278183 -0.828942907108 0.331047015733 0.128195038214 -0.994804966707 -0.925848986553 0.505366400177 -1.43127854939 0.422059097349 0.610107652793
16.7189628803 1.0294794851 -0.831440697552 0.330669130667 0.127378466979 -0.99650140295 -0.926554854032 0.505810041671 -1.43141942311 0.4188096851 0.610240409917
16.7535431274 1.02558265536 -0.833938821674 0.330292429545 0.126562733062 -0.998195557349 -0.927260041284 0.506258029721 -1.43155875629 0.415558021677 0.610378083524
16.7899202263 1.02168229678 -0.836437276844 0.329916902009 0.125747827709 -0.99988744179 -0.927964525734 0.506710397075 -1.43169652888 0.412304142753 0.61052063007
16.8290086788 1.01773411876 -0.838843521393 0.329469972429 0.124901936192 -1.00155391901 -0.928647220736 0.507128287313 -1.43181745264 0.409129037975 0.610648976819
16.8707947499 1.01378165393 -0.841250588716 0.329024325157 0.124056763282 -1.0032184412 -0.929328392336 0.507551033029 -1.43193560235 0.40595014945 0.610783504242
16.909961289 1.00982558893 -0.843657855445 0.328580055985 0.123212552851 -1.00488074946 -0.930009023461 0.50797809895 -1.43205240879 0.402768888128 0.610922743556
16.9468914723 1.0058659284 -0.846065318773 0.328137153435 0.122369295219 -1.00654085241 -0.930689091122 0.508409516315 -1.43216784929 0.399585284619 0.611066652786
16.982061146 1.00190267654 -0.848472975521 0.327695606674 0.121526981541 -1.00819876027 -0.931368571429 0.508845316658 -1.43228190148 0.396399372295 0.61121518946
17.0158891002 0.997935837429 -0.850880822518 0.327255404889 0.120685602983 -1.00985448301 -0.932047440188 0.509285531168 -1.43239454255 0.393211184273 0.61136831075
17.0500861977 0.993965415071 -0.853288856601 0.32681653728 0.119845150729 -1.01150803035 -0.932725672911 0.509730190685 -1.43250574923 0.390020753422 0.611525973473
17.0858536134 0.989950935331 -0.855603227683 0.326306445917 0.118973818499 -1.01313491632 -0.933383107307 0.510139981776 -1.43260138641 0.386909981162 0.611669729448
17.1201252411 0.985932068942 -0.857918268396 0.325797805284 0.118103318436 -1.01475995075 -0.934039137456 0.510554650793 -1.43269445229 0.383795457306 0.611819268778
17.1530895777 0.981909544527 -0.860233359466 0.325290700654 0.117233878164 -1.01638287398 -0.934694685801 0.510973705498 -1.43278628615 0.380678514311 0.611973194248
17.1847964308 0.97788336663 -0.862548497547 0.324785120211 0.116365488029 -1.0180036925 -0.935349727736 0.511397175235 -1.43287686264 0.377559180629 0.612131464301
17.2155986833 0.973853539357 -0.864863678952 0.324281052736 0.115498139149 -1.01962241437 -0.936004237741 0.511825089616 -1.4329661566 0.374437487235 0.612294036959
17.2476806259 0.969820066724 -0.867178899996 0.323778487032 0.114631822658 -1.02123904736 -0.936658190024 0.512257477893 -1.43305414246 0.371313464892 0.612460869914
17.281095364 0.965782952661 -0.869494156994 0.323277411925 0.113766529718 -1.02285359899 -0.937311558531 0.512694368964 -1.43314079429 0.36818714415 0.612631920521
17.316213649 0.961705576617 -0.871714386327 0.322705335425 0.11287047885 -1.02444032052 -0.937945112483 0.513096039608 -1.43321312126 0.365141257566 0.612789345151
17.3531639912 0.957623707597 -0.873935123151 0.322134871115 0.111975371563 -1.0260252901 -0.938577361916 0.513502601829 -1.43328304537 0.362091616505 0.6129521679
17.3924232645 0.953538119198 -0.876155754607 0.321566096223 0.111081420687 -1.02760824997 -0.939209174585 0.513913607054 -1.43335182445 0.359039484302 0.613119059642
17.4341356662 0.949448815958 -0.878376276831 0.320998998654 0.110188616627 -1.02918920453 -0.939840524571 0.514329082713 -1.43341943096 0.355984887653 0.61328997939
17.4793716678 0.945355802006 -0.880596685633 0.32043356686 0.109296950498 -1.03076815967 -0.940471385041 0.514749056477 -1.43348583742 0.352927855566 0.613464885804
17.5211597299 0.94125908139 -0.882816976823 0.319869789321 0.108406413441 -1.032345121 -0.941101728918 0.515173555659 -1.43355101603 0.349868416867 0.61364373723
17.5605615547 0.937158658074 -0.885037146207 0.319307654543 0.107516996624 -1.03392009392 -0.941731528886 0.515602607204 -1.43361493861 0.346806600206 0.613826491697
17.5982034562 0.93302179755 -0.887161014886 0.318674781493 0.106596957769 -1.03546614966 -0.942342489608 0.515996123773 -1.43366574665 0.343825890968 0.613995892609
17.6342304435 0.928880332224 -0.889285220421 0.318043675308 0.105677971886 -1.03701054874 -0.942952228917 0.516394536568 -1.43371429059 0.340841394691 0.614170319841
17.6688832976 0.924735083388 -0.891409158711 0.317414407404 0.104760238281 -1.03855303778 -0.943561564885 0.516797441293 -1.43376175563 0.337854313619 0.614348508759
17.7022143672 0.92058605568 -0.893532825377 0.316786965456 0.103843747443 -1.04009361915 -0.944170470557 0.517204863474 -1.4338081124 0.334864673026 0.614530419066
17.7342740102 0.916433253359 -0.895656215741 0.316161337645 0.102928490517 -1.04163229659 -0.944778918067 0.517616828857 -1.43385333157 0.331872500314 0.614716010163
17.7666836481 0.912276680606 -0.897779325114 0.315537512183 0.102014458677 -1.04316907363 -0.945386879333 0.518033362826 -1.43389738349 0.328877822734 0.614905241154
17.8004398071 0.908116341532 -0.899902148801 0.314915477311 0.101101643133 -1.04470395359 -0.945994326055 0.518454490394 -1.4339402382 0.325880667382 0.615098070843
17.8358417399 0.903923415533 -0.901927494072 0.314223004882 0.100158353341 -1.04620890736 -0.946583899329 0.518839804152 -1.43397115475 0.322965196838 0.615277814466
17.8730914229 0.89972576845 -0.903952997545 0.313532447363 0.0992162239679 -1.04771229517 -0.947172320154 0.519230009785 -1.43399992046 0.320045881702 0.615462227007
17.9122771182 0.895524271707 -0.905978066225 0.312843872371 0.0982754419072 -1.04921387036 -0.947760361238 0.519624747838 -1.43402765547 0.317123869994 0.615650104689
17.9539115879 0.891318930148 -0.908002695233 0.312157267402 0.0973359977523 -1.0507136333 -0.948347994835 0.520024041965 -1.43405432897 0.314199185853 0.615841407989
17.9988014346 0.887109748266 -0.910026879406 0.311472620417 0.096397882704 -1.0522115857 -0.948935192297 0.52042791602 -1.43407991014 0.31127185538 0.616036097128
18.0405119036 0.882896730487 -0.912050613569 0.310789919412 0.0954610879989 -1.05370772905 -0.949521924783 0.520836393495 -1.43410436787 0.308341904546 0.616234132041
18.0798407857 0.87867988117 -0.914073892532 0.310109152415 0.0945256049113 -1.05520206463 -0.950108163257 0.521249497508 -1.43412767079 0.305409359192 0.616435472379
18.1172373204 0.874434316945 -0.915998614184 0.309358283154 0.093559805414 -1.05666553958 -0.95067748361 0.521626542958 -1.43414017845 0.3025589864 0.616623992169
18.1527692439 0.870183911965 -0.91792330782 0.308609470358 0.0925952718872 -1.05812753447 -0.951245708514 0.52200846711 -1.43415062666 0.299704690563 0.616816838501
18.186946192 0.865929589929 -0.919847393907 0.307862779665 0.0916321797793 -1.05958781157 -0.951813569044 0.522394955828 -1.43416007707 0.296847571366 0.617012864843
