liuchen18/hilsys_new/sim_sys/data/fwx_planned_trajectory.txt
this is the FWX joint values,the following info is time,x,y,theta,joint1,joint2,joint3,joint4,joint5,joint6,joint7
0.0 1.84502564755 0.424716912773 -0.394322075478 -0.0139031180158 1.1776260622 0.660109827044 -0.240140794096 1.00715519784 -1.31812907638 -0.206614485779
0.0954614646682 1.84097282591 0.425014413523 -0.394334686069 -0.0148133756647 1.17750167954 0.660296700697 -0.240394641577 1.00736742866 -1.31744979597 -0.206642767823
0.169910624306 1.83692048311 0.425312461709 -0.394348909534 -0.0157247976546 1.17737708456 0.660483986109 -0.24064909868 1.00757994361 -1.31676777163 -0.206671317111
0.23339424255 1.8328686643 0.425611206746 -0.39436505885 -0.0166375926088 1.17725232389 0.660671595522 -0.240904127108 1.00779274418 -1.31608346766 -0.206700428644
0.289725988042 1.82881733021 0.425910500503 -0.394382813533 -0.0175515515225 1.17712736524 0.660859639936 -0.24115970926 1.00800583954 -1.31539638821 -0.206729649153
0.341225603189 1.82476652659 0.42621049292 -0.394402498175 -0.018466894114 1.1770022409 0.661048009044 -0.241415865093 1.0082192212 -1.3147070172 -0.206759439946
0.397726077896 1.8199060185 0.426571206553 -0.394428047346 -0.0195667067737 1.17685183518 0.661274576943 -0.241723926443 1.00847563538 -1.31387644219 -0.206795332821
0.449893380932 1.81504643617 0.426932736798 -0.394456151929 -0.0206683808176 1.17670118819 0.661501692462 -0.242032787788 1.008732467 -1.31304217455 -0.206831713262
0.498061586192 1.81018760285 0.427295171507 -0.394486851513 -0.0217719548569 1.17655023047 0.661729280213 -0.242342665235 1.00898968404 -1.31220429336 -0.206869169862
0.543884877001 1.80532952233 0.427658507797 -0.394520069115 -0.0228773611406 1.17639906145 0.661957497255 -0.242653156636 1.00924735704 -1.31136265106 -0.206906555819
0.587477346738 1.80047220192 0.428022751312 -0.394555886187 -0.023984683643 1.17624758451 0.662186192112 -0.242964656895 1.00950541843 -1.31051737031 -0.20694499945
0.629363794406 1.79561546798 0.428387981801 -0.39459422663 -0.025093849846 1.17609587469 0.662415516536 -0.243276795841 1.0097639379 -1.30966833028 -0.206983417296
0.669607884864 1.79075969469 0.428754032093 -0.394635138324 -0.0262049231232 1.17594392529 0.662645393359 -0.243589739606 1.01002287791 -1.30881554224 -0.207022344895
0.708662152586 1.78590469857 0.429120994084 -0.394678665076 -0.0273179455645 1.1757916614 0.662875739141 -0.243903726148 1.01028220314 -1.30795909365 -0.207062430178
0.74656174178 1.78105048343 0.429488864707 -0.394724722263 -0.0284328419422 1.17563919203 0.663106727367 -0.244218311033 1.01054199101 -1.30709882095 -0.207102408164
0.783340733151 1.77619705681 0.429857649553 -0.394773397849 -0.0295497027433 1.17548641241 0.663338192297 -0.244533925752 1.01080216799 -1.30623486071 -0.207143509443
0.81903367089 1.77134422693 0.430227437672 -0.394824610578 -0.0306684492426 1.17533340244 0.663570298059 -0.244850170725 1.01106280906 -1.30536708181 -0.20718456527
0.854016134375 1.76649239349 0.430598048153 -0.39487841034 -0.031789148803 1.17518015475 0.663802960944 -0.245167225194 1.01132387368 -1.30449549917 -0.207226153537
0.888303607322 1.76164136601 0.430969576935 -0.394934842166 -0.0329118440775 1.17502659275 0.664036095363 -0.245485333955 1.01158532596 -1.3036202036 -0.207268938461
0.921909868604 1.75679114849 0.431342021122 -0.394993819852 -0.0340364581379 1.17487282748 0.664269879444 -0.245804040359 1.01184724475 -1.30274102567 -0.207311622997
0.954848400679 1.75194174857 0.431715385949 -0.395055432818 -0.0351630831629 1.17471875235 0.664504143045 -0.246123787386 1.01210955517 -1.30185810742 -0.207355468128
0.987133794419 1.7470929674 0.432089765049 -0.395119598929 -0.036291638576 1.17456444826 0.664739054616 -0.246444165389 1.01237233362 -1.30097131291 -0.207399276899
1.01877629505 1.74224521935 0.432464968397 -0.395186367768 -0.0374221933146 1.17440990852 0.664974527961 -0.246765357401 1.01263553854 -1.30008065864 -0.207443641282
1.04948290123 1.73739830677 0.432841096148 -0.39525578558 -0.0385547905345 1.17425505488 0.665210475427 -0.247087614984 1.01289913353 -1.29918623879 -0.207489241356
1.07988021393 1.73255223387 0.433218145598 -0.395327764673 -0.0396893516793 1.17410000032 0.665447079634 -0.247410469485 1.01316319877 -1.29828787802 -0.207534748851
1.10997130151 1.72770700836 0.433596121593 -0.39540239591 -0.0408259706291 1.17394463641 0.665684166002 -0.247734375624 1.01342765802 -1.29738572405 -0.20758145564
1.13976051321 1.72286242415 0.433975122566 -0.395479596234 -0.0419645648316 1.17378904515 0.665921907529 -0.248058913004 1.01369258917 -1.29647963577 -0.20762813472
1.16924826401 1.71801891067 0.434354948954 -0.395559414861 -0.0431052048848 1.17363322053 0.666160215401 -0.248384268728 1.01395794961 -1.29556963143 -0.207675393063
1.19843883847 1.7131762629 0.434735705316 -0.395641899325 -0.0442479344606 1.17347708259 0.666398999831 -0.248710701456 1.01422370243 -1.29465580877 -0.20772392733
1.22733520436 1.70833448524 0.435117389149 -0.395726960379 -0.0453926732976 1.17332074628 0.666638448087 -0.249037729939 1.01448992912 -1.29373798621 -0.207772376578
1.25594028092 1.70349358551 0.435500004886 -0.395814690323 -0.0465395169875 1.17316410137 0.666878381115 -0.249365820904 1.01475655219 -1.29281631736 -0.207822064115
1.28425825033 1.69865335019 0.435883655984 -0.395905005285 -0.0476883810228 1.17300723086 0.667118976383 -0.249694543289 1.01502365087 -1.29189065587 -0.207871733244
1.31228941798 1.69381422412 0.4362681329 -0.395997953978 -0.0488393376773 1.1728501295 0.667360142477 -0.250024088163 1.01529118154 -1.2909610218 -0.207922005762
1.34003790854 1.68897599473 0.436653544789 -0.396093585238 -0.0499924310969 1.17269271563 0.66760178752 -0.250354721334 1.01555910687 -1.29002751647 -0.207973594821
1.36750654248 1.68413866664 0.43703988937 -0.396191808315 -0.0511475793453 1.17253510612 0.667844103359 -0.250685948925 1.01582750952 -1.289089952 -0.208025106977
1.39469809711 1.67930224773 0.437427170628 -0.396292716931 -0.052304879733 1.17237718895 0.668086906438 -0.251018249936 1.01609631081 -1.28814848807 -0.208077897479
1.42161660012 1.67446651691 0.437815497279 -0.396396226409 -0.0534642457155 1.17221904811 0.668330378826 -0.251351182171 1.01636559132 -1.28720297283 -0.208130678741
1.4482622509 1.6696319348 0.438204649342 -0.396502384863 -0.0546257513099 1.17206067916 0.668574426424 -0.251684940835 1.01663530639 -1.28625342827 -0.208184087985
1.47463901785 1.66479828105 0.438594740767 -0.396611242485 -0.0557894411261 1.17190199874 0.668818955238 -0.252019799123 1.01690541832 -1.28529995948 -0.208238855282
1.50074958667 1.65996556056 0.43898576951 -0.396722707006 -0.0569552315159 1.17174312561 0.669064161762 -0.252355250124 1.0171760109 -1.28434237196 -0.20829355382
1.52659659997 1.65513378125 0.439377739081 -0.396836873517 -0.0581232214823 1.17158394604 0.669309857981 -0.252691785208 1.01744700432 -1.28338083168 -0.2083495708
1.55218392912 1.65030271425 0.439770763697 -0.396953656685 -0.0592933224934 1.17142454486 0.66955623042 -0.25302895129 1.01771848039 -1.2824151812 -0.208405588585
1.57726091182 1.64547283676 0.440164613158 -0.39707312997 -0.0604656358626 1.17126488617 0.669803128562 -0.253367087654 1.01799037083 -1.2814454955 -0.208462653454
1.60233291113 1.64064391895 0.440559403778 -0.397195244292 -0.0616401081733 1.17110500978 0.67005066399 -0.253705934239 1.01826272503 -1.28047168656 -0.208519991604
1.62739988753 1.63581596845 0.440955138069 -0.397320073698 -0.0628168181966 1.17094482807 0.670298690965 -0.254045873687 1.01853548185 -1.2794938823 -0.208578681593
1.65246181407 1.63098899059 0.441351814491 -0.397447531652 -0.0639956875904 1.17078445279 0.670547396086 -0.254386423644 1.01880871985 -1.27851189494 -0.208637369905
1.67751991055 1.62616275046 0.441749556264 -0.397577666821 -0.065176757502 1.17062380242 0.670796691071 -0.254727846511 1.01908240465 -1.27752582706 -0.208696751019
1.70257161701 1.62133774126 0.442148120789 -0.397710516186 -0.0663600963746 1.1704628862 0.671046495954 -0.255070295216 1.01935649801 -1.27653568655 -0.208757349823
1.72761816582 1.61651372527 0.442547630222 -0.397846040011 -0.0675456586653 1.17030173242 0.6712969056 -0.255413554759 1.01963104206 -1.27554140115 -0.208818517875
1.75265952286 1.61169070933 0.442948085308 -0.397984249535 -0.0687334617711 1.17014033139 0.67154790387 -0.255757670283 1.01990603019 -1.27454297584 -0.208880384829
1.77769565218 1.6068687002 0.443349486584 -0.398125147876 -0.0699235151511 1.16997868356 0.671799491495 -0.256102642966 1.02018146284 -1.27354039941 -0.208942956785
1.80272782031 1.60204745378 0.443751961302 -0.398268712329 -0.0711157887694 1.16981679616 0.672051730782 -0.256448344984 1.02045736872 -1.2725336313 -0.209005829753
1.82775337925 1.5972274804 0.444155255321 -0.398414996895 -0.0723103705645 1.16965465713 0.672304501545 -0.256795031082 1.02073369305 -1.27152271755 -0.209069819123
1.85277360628 1.59240853401 0.444559496524 -0.398563952509 -0.073507204346 1.16949230636 0.672557920674 -0.257142428998 1.02101048646 -1.27050756372 -0.20913411567
1.87778846189 1.58759062232 0.444964686498 -0.3987156552 -0.0747063714783 1.16932965379 0.672811835626 -0.257490941145 1.02128768653 -1.26948830802 -0.209199848285
1.90279791374 1.58277375125 0.445370824217 -0.398870015646 -0.075907790388 1.16916681455 0.67306644165 -0.25784005956 1.02156537337 -1.26846474941 -0.209265599084
1.92780326965 1.57795766907 0.44577804401 -0.39902708545 -0.0771115028657 1.16900370373 0.673321646661 -0.258190061463 1.02184351225 -1.26743699807 -0.209332095216
1.95280179182 1.57314290318 0.446186078935 -0.399186899138 -0.0783175808054 1.16884033308 0.673577366049 -0.258541105552 1.02212206329 -1.26640506514 -0.209399886932
1.97779480064 1.56832919927 0.44659506315 -0.399349417217 -0.0795259759807 1.16867673081 0.673833699543 -0.258892966074 1.02240106983 -1.26536887276 -0.209468293696
2.00278225659 1.56351656444 0.44700499702 -0.399514651183 -0.0807367062517 1.16851288688 0.674090629892 -0.259245691129 1.02268052496 -1.26432842736 -0.20953745321
2.02776412734 1.55870500576 0.447415880767 -0.399682603908 -0.0819497809847 1.168348802 0.674348158049 -0.259599281076 1.02296042916 -1.26328371747 -0.20960736971
2.05274176562 1.55389426216 0.447827853932 -0.399853253732 -0.0831651682159 1.16818448238 0.674606349276 -0.259953603029 1.02324081194 -1.26223469964 -0.209677621706
2.07771234021 1.54908487886 0.448240636758 -0.400026652371 -0.0843829600368 1.1680199181 0.674865077055 -0.260308922425 1.0235216167 -1.26118142598 -0.209749062567
2.10267721822 1.5442765929 0.448654369768 -0.400202750944 -0.0856030972285 1.16785514908 0.675124463894 -0.26066495368 1.0238028952 -1.26012379492 -0.209820844697
2.12763635832 1.53946941198 0.4490690535 -0.400381627351 -0.0868256637286 1.16769008296 0.675384350447 -0.261022119812 1.02408458409 -1.25906195562 -0.209894148684
2.15258972638 1.5346633427 0.449484687521 -0.400563189676 -0.0880505748298 1.16752483795 0.675644940329 -0.261379886844 1.02436676447 -1.2579956933 -0.209967492434
2.17753872185 1.5298581157 0.449901418254 -0.400747492593 -0.0892778727733 1.16735932576 0.675906137843 -0.2617385472 1.02464940156 -1.25692512601 -0.210041635657
2.20248042009 1.52505429408 0.450318952164 -0.400934567504 -0.0905076330624 1.16719356108 0.676167853703 -0.262098265125 1.02493245399 -1.25585026847 -0.21011715399
2.22741623311 1.5202516062 0.450737436521 -0.401124375564 -0.0917398047613 1.16702757167 0.676430192303 -0.262458804392 1.02521596602 -1.25477103704 -0.210193335676
2.25234611961 1.51545005942 0.451156871258 -0.40131692829 -0.0929744059735 1.1668613474 0.676693135693 -0.262820215046 1.02549993062 -1.25368743935 -0.210270323544
2.27727004544 1.5106496611 0.45157725625 -0.401512228579 -0.0942114462508 1.16669488889 0.676956684391 -0.263182498322 1.02578434806 -1.25259946431 -0.210348124701
2.30218945316 1.5058501325 0.451998744445 -0.401710255853 -0.0954508913138 1.16652820147 0.67722090719 -0.263545514721 1.02606924874 -1.25150706483 -0.21042629568
2.32710132831 1.50105205517 0.452421028107 -0.401911058877 -0.0966928376262 1.16636127771 0.67748567111 -0.263909540663 1.02635457445 -1.25041029969 -0.210505729036
2.35200712244 1.49625514858 0.452844261456 -0.402114613705 -0.0979372472849 1.1661941271 0.677751051367 -0.264274417705 1.02664035744 -1.2493091143 -0.210585927461
2.3769068014 1.49145942021 0.453268444206 -0.402320927096 -0.0991841337641 1.16602674537 0.678017040014 -0.264640169573 1.02692659473 -1.24820350635 -0.210666960652
2.40180032209 1.48666487757 0.453693576045 -0.402530001706 -0.100433506454 1.1658591334 0.678283637885 -0.265006796529 1.02721328667 -1.24709346446 -0.210748833261
2.42668918275 1.4818712328 0.454119817027 -0.402741822587 -0.101685334861 1.16569128975 0.678550904368 -0.265374184765 1.02750045957 -1.24597895081 -0.210831170835
2.45157026473 1.47707908616 0.454546844524 -0.402956431958 -0.10293971292 1.16552321439 0.678818713918 -0.2657425884 1.02778805878 -1.24486001699 -0.210914808781
2.47644507166 1.47228814798 0.454974819981 -0.403173806572 -0.104196601507 1.16535491625 0.679087143472 -0.266111845566 1.02807611683 -1.24373660636 -0.210999238544
2.50131356402 1.46749842587 0.455403742893 -0.403393953054 -0.105456014066 1.1651863912 0.679356185072 -0.266481979985 1.02836463076 -1.24260871679 -0.211084529858
2.52617570409 1.46270992747 0.455833612749 -0.403616874113 -0.106717960128 1.16501763998 0.679625839182 -0.266852992738 1.02865360077 -1.24147633727 -0.21117068987
2.55103303323 1.45792235562 0.456264597041 -0.403842555599 -0.107982408018 1.16484866051 0.679896166771 -0.26722476727 1.02894305351 -1.24033942838 -0.211257334348
2.57588233577 1.45313632967 0.456696357575 -0.404071037722 -0.109249453922 1.16467945436 0.680167039219 -0.267597562667 1.0292329337 -1.23919804502 -0.211345317317
2.60072516386 1.44835155061 0.457129063341 -0.404302297993 -0.110519057431 1.16451002989 0.680438535251 -0.267971213419 1.02952327411 -1.23805212844 -0.211434118372
2.62556147798 1.44356802618 0.457562713601 -0.404536343051 -0.11179123211 1.16434038287 0.680710646543 -0.268345744198 1.02981407171 -1.23690167702 -0.211523809893
2.65039123859 1.43878576418 0.457997307636 -0.40477317548 -0.113065987452 1.16417051413 0.680983373566 -0.268721155898 1.03010532667 -1.23574667977 -0.211614398744
2.67521603558 1.43400445793 0.4584330207 -0.405012782086 -0.114343290632 1.16400042086 0.681256778717 -0.269097329607 1.03039706588 -1.23458709576 -0.211705491946
2.70003255446 1.42922474625 0.458869498348 -0.405255200841 -0.115623240128 1.16383010629 0.681530730319 -0.269474529326 1.0306892335 -1.23342298335 -0.211797962101
2.7248423959 1.42444632059 0.459306917447 -0.405500410161 -0.116905794257 1.16365957812 0.681805308779 -0.269852586158 1.0309818625 -1.23225428167 -0.211891277636
2.74964551856 1.41966918883 0.459745277013 -0.405748416621 -0.118190966629 1.16348883212 0.682080505548 -0.27023152534 1.03127494979 -1.23108098952 -0.211985512503
2.77444188292 1.4148933589 0.460184576109 -0.405999222583 -0.119478766607 1.16331786931 0.682356321288 -0.270611347068 1.03156849558 -1.22990309574 -0.212080671888
2.79923313096 1.41011851447 0.460624998087 -0.406252816089 -0.12076916036 1.16314668585 0.682632819419 -0.270991931165 1.03186252684 -1.22872055825 -0.212176357004
2.8240158422 1.40534531411 0.461066171543 -0.406509232539 -0.122062248603 1.16297528693 0.682909865451 -0.271373545894 1.03215698734 -1.22753343877 -0.212273457344
2.8487916694 1.40057343962 0.461508281561 -0.40676845137 -0.123357988357 1.16280367946 0.683187541417 -0.271756019055 1.03245191015 -1.22634167428 -0.212371430383
2.87356057123 1.39580289899 0.461951326898 -0.407030479144 -0.124656393335 1.16263185916 0.683465838411 -0.272139376834 1.03274729209 -1.22514526419 -0.212470352675
2.89832250638 1.39103370029 0.46239530639 -0.407295318048 -0.125957472813 1.16245982717 0.683744757156 -0.272523619055 1.03304313338 -1.22394419728 -0.212570228636
2.92307916711 1.38626551732 0.462840411835 -0.407562957245 -0.127261191701 1.16228757883 0.684024362575 -0.272908622983 1.03333946116 -1.22273842981 -0.212670650059
2.94782703056 1.3814990288 0.463286254138 -0.40783342946 -0.128567653141 1.16211512124 0.684304517056 -0.273294661967 1.03363621882 -1.22152802727 -0.212772525698
2.97256779798 1.37673390665 0.463733026952 -0.408106715248 -0.129876812808 1.16194246049 0.684585304282 -0.273681560405 1.03393343945 -1.22031292445 -0.212875301785
2.99730143165 1.37197015898 0.464180728768 -0.408382821011 -0.131188684372 1.16176959239 0.684866715275 -0.274069344645 1.03423111993 -1.21909312102 -0.212979055315
3.02202788485 1.36720779401 0.464629358176 -0.408661748898 -0.132503277168 1.16159651806 0.685148750491 -0.274458015038 1.03452926034 -1.21786860613 -0.213083792383
3.04674890555 1.36244647552 0.465079115785 -0.408943489317 -0.133820554818 1.1614232319 0.685431476312 -0.274847446372 1.03482788796 -1.21663933432 -0.213189095534
3.07146086129 1.35768690265 0.465529594048 -0.409228072029 -0.135140622911 1.16124974312 0.685714752098 -0.275237916863 1.03512694588 -1.21540537495 -0.213295892291
3.09616551082 1.35292873732 0.465980995557 -0.409515478759 -0.136463435672 1.16107605697 0.685998663299 -0.275629247109 1.03542646725 -1.21416666036 -0.213403616541
3.12086280742 1.34817198776 0.466433318518 -0.4098057159 -0.137789006888 1.1609021692 0.686283200505 -0.276021464635 1.03572644883 -1.21292319096 -0.213512348458
3.14555271158 1.34341666228 0.466886561271 -0.41009878536 -0.139117345745 1.1607280811 0.686568364325 -0.276414569132 1.03602689074 -1.21167495574 -0.213622092598
3.17023701976 1.33866241452 0.467340933607 -0.410394678994 -0.14044841463 1.160553786 0.686854222395 -0.276808433474 1.03632782027 -1.21042190777 -0.213732423737
3.1949119953 1.33390996435 0.467796008743 -0.410693423279 -0.141782321576 1.16037929539 0.687140631176 -0.277203340398 1.03662918037 -1.20916412022 -0.213844287309
3.21957944547 1.32915896352 0.468251998583 -0.410995001401 -0.143119019494 1.16020461344 0.68742767749 -0.277599107735 1.03693100402 -1.2079015234 -0.213957107658
3.24423932713 1.32440942035 0.468708901045 -0.411299419465 -0.144458522005 1.16002973612 0.687715352086 -0.277995762551 1.03723328811 -1.20663411778 -0.214070963686
3.26889159718 1.31966134329 0.469166714199 -0.411606679353 -0.145800838373 1.15985466465 0.688003655211 -0.278393305307 1.03753603258 -1.20536189283 -0.21418586228
3.29353810777 1.31491437562 0.469625657409 -0.411916774366 -0.147145929576 1.15967939135 0.688292656018 -0.278791606187 1.03783926481 -1.20408479972 -0.214301368291
3.31817501088 1.31016925828 0.470085283843 -0.412229727471 -0.148493906209 1.15950393009 0.688582207969 -0.279190952779 1.03814292764 -1.20280291579 -0.214418446058
3.34280416763 1.30542563268 0.470545815116 -0.412545523314 -0.149844719692 1.15932828403 0.688872399525 -0.279591159318 1.03844705392 -1.20151616886 -0.214536508128
3.36742553672 1.30068350723 0.471007248834 -0.412864167907 -0.151198383687 1.15915244912 0.689163221113 -0.279992253764 1.03875164051 -1.20022456007 -0.214655635768
3.39203907143 1.2959428905 0.471469582795 -0.413185662932 -0.152554907357 1.15897642668 0.689454672988 -0.280394236295 1.03905668732 -1.19892807895 -0.214775835353
3.4166466814 1.29120341529 0.471933046327 -0.413510003358 -0.153914250333 1.15880020788 0.689746825581 -0.280796975058 1.03936222164 -1.197626675 -0.21489666352
3.44124440544 1.28646584384 0.472397171715 -0.413837208331 -0.155276525804 1.15862380911 0.690039529424 -0.28120076233 1.03966818639 -1.19632042978 -0.215019103157
3.46583416037 1.28172980712 0.47286219069 -0.414167264095 -0.156641683665 1.15844723242 0.690332874573 -0.281605408794 1.03997461416 -1.19500926863 -0.215142555135
3.49041590486 1.2769953136 0.473328100535 -0.414500176514 -0.158009737565 1.15827047383 0.690626851233 -0.282010943035 1.04028150184 -1.19369319324 -0.215267102331
3.51498959043 1.27226237197 0.473794898765 -0.414835947028 -0.159380696528 1.1580935348 0.690921459722 -0.282417364778 1.0405888493 -1.19237219314 -0.215392750159
3.53955718059 1.2675306044 0.47426282508 -0.415174572463 -0.160754518845 1.15791640519 0.691216771616 -0.282824540477 1.0408966837 -1.19104621627 -0.21551904792
3.56411460457 1.26280079471 0.474731390026 -0.41551606778 -0.162131320304 1.15773910412 0.691512634662 -0.283232766737 1.04120494812 -1.18971534844 -0.21564699615
3.58866383488 1.25807256325 0.47520083586 -0.415860421045 -0.163511049321 1.15756163239 0.69180914029 -0.283641851221 1.04151367482 -1.18837951262 -0.215775985483
3.61320482661 1.25334591858 0.475671159534 -0.416207637878 -0.164893719432 1.15738398616 0.692106278676 -0.284051822608 1.04182286073 -1.18703871089 -0.215906098955
3.63773753485 1.24862086949 0.476142358259 -0.416557719597 -0.166279339651 1.15720616688 0.692404049887 -0.284462681047 1.04213250563 -1.18569293315 -0.21603734337
3.66226397522 1.24389702739 0.476614682544 -0.416910664871 -0.167667866728 1.1570281632 0.692702526967 -0.284874290336 1.04244263654 -1.18434212534 -0.216169258056
3.68677996558 1.23917519791 0.477087620298 -0.417266484262 -0.169059419217 1.15684999702 0.693001554672 -0.285286952061 1.04275319681 -1.18298637792 -0.21630286303
3.71128753411 1.23445499068 0.477561424745 -0.417625167672 -0.170453943866 1.15667166797 0.693301226094 -0.285700469951 1.04306421834 -1.1816256111 -0.216437536245
3.73578663411 1.22973641432 0.478036092484 -0.417986720592 -0.171851454234 1.15649317217 0.693601531053 -0.286114873714 1.04337569804 -1.18025982772 -0.216573363371
3.76027722247 1.2250194777 0.478511620416 -0.418351144102 -0.173251959202 1.1563145112 0.693902469607 -0.286530163217 1.04368763565 -1.17888901781 -0.216710350711
3.78476136872 1.22030378134 0.47898827029 -0.418718438954 -0.17465541403 1.15613567232 0.694204116033 -0.286946200229 1.04400005793 -1.17751312548 -0.216848029262
3.80923477929 1.21559015295 0.479465506469 -0.419088610902 -0.176061940022 1.15595668047 0.694506312298 -0.287363290827 1.04431290868 -1.17613224584 -0.216987437255
3.83369953631 1.21087819126 0.479943593581 -0.419461651947 -0.177471482332 1.15577753384 0.694809152856 -0.287781235538 1.04462621926 -1.17474629656 -0.217127941939
3.85815559485 1.20616790497 0.480422527866 -0.419837567309 -0.178884054389 1.15559822872 0.695112627484 -0.288200064225 1.04493998668 -1.17335528091 -0.217269629264
3.88260290821 1.20145930303 0.480902305907 -0.420216357815 -0.180299664934 1.15541876681 0.695416736222 -0.288619776479 1.04525421061 -1.17195918906 -0.217412505053
3.90704360699 1.19675197495 0.481383201131 -0.420598026545 -0.181718267786 1.1552391338 0.695721554327 -0.289040232719 1.04556891744 -1.17055796355 -0.217556093715
3.93147327908 1.19204677067 0.481864653419 -0.42098257407 -0.183139987035 1.15505935782 0.696026921083 -0.289461743296 1.04588405157 -1.16915170417 -0.217701451182
3.95589406407 1.18734327799 0.482346939267 -0.421369994572 -0.184564766108 1.15487943568 0.696332932462 -0.289884104967 1.04619964379 -1.16774032579 -0.21784793251
3.98030591704 1.18264150563 0.482830054535 -0.421760293073 -0.185992618391 1.15469936372 0.69663957797 -0.290307348417 1.04651569112 -1.16632383241 -0.21799562567
4.00470879308 1.17794146261 0.48331399547 -0.422153470183 -0.187423552522 1.1545191437 0.696946857513 -0.290731473288 1.04683219317 -1.16490221449 -0.218144536858
4.0291048767 1.17324272734 0.483799047654 -0.422549531303 -0.188857520656 1.15433875985 0.697254847698 -0.291156337513 1.04714917597 -1.16347541246 -0.218294180858
4.0534896426 1.16854617218 0.48428462552 -0.422948471506 -0.190294649782 1.15415824362 0.69756338505 -0.291582256045 1.04746658464 -1.16204353113 -0.218445632214
4.07786528606 1.16385137386 0.484771017898 -0.423350287349 -0.191734881583 1.15397759031 0.697872566955 -0.292009022027 1.04778444928 -1.16060648254 -0.218598234241
4.10223176217 1.15915834112 0.485258220249 -0.423754983686 -0.193178229439 1.15379679625 0.698182382537 -0.292436667334 1.04810276692 -1.15916427161 -0.218752077833
4.12658902601 1.15446708306 0.485746228478 -0.424162560815 -0.194624701785 1.15361586336 0.698492831751 -0.292865191089 1.04842153713 -1.15771688889 -0.218907168078
4.15093932137 1.14977716688 0.486235340795 -0.424573026685 -0.196074249131 1.15343477426 0.698803992379 -0.293294449188 1.04874078548 -1.1562642728 -0.219063011285
4.1752780026 1.14508948751 0.486724945196 -0.424986370465 -0.197527001396 1.15325356393 0.699115698301 -0.293724760967 1.04906045797 -1.15480653327 -0.219220700048
4.19960732605 1.14040361052 0.487215343322 -0.425402591326 -0.19898289854 1.15307222599 0.699428048118 -0.294155916408 1.04938058387 -1.15334357966 -0.219379567165
4.22392724682 1.13571954469 0.487706530235 -0.425821693781 -0.200441953758 1.15289075694 0.699741030945 -0.294587947485 1.04970116035 -1.15187541735 -0.219539703569
4.24823771639 1.13103729914 0.488198501482 -0.426243677881 -0.201904175356 1.15270915878 0.700054646591 -0.295020853357 1.05002218684 -1.15040203722 -0.219701114691
4.27254103962 1.12635642981 0.488691568377 -0.42666855434 -0.203369512191 1.15252741238 0.70036897387 -0.295454488236 1.05034368837 -1.14892337583 -0.219863299245
4.29683245411 1.12167785429 0.489185091477 -0.427096305989 -0.204838097137 1.15234555647 0.70068384417 -0.295889175536 1.05066561202 -1.14743954823 -0.2200273671
4.32111427189 1.11700112696 0.489679385728 -0.427526934765 -0.206309868349 1.15216358292 0.700999357333 -0.29632470183 1.05098798614 -1.14595046094 -0.220192639932
4.34538644805 1.11232625657 0.490174445771 -0.427960444897 -0.207784838903 1.15198148835 0.701315502279 -0.29676109976 1.05131080794 -1.14445612008 -0.220359210166
4.36964893588 1.10765325231 0.490670266788 -0.428396836151 -0.209263016939 1.15179927484 0.701632278724 -0.297198368364 1.05163407681 -1.14295651682 -0.220527083143
4.39390409953 1.10298165874 0.491167173698 -0.428836122136 -0.210744349554 1.15161692151 0.7019497666 -0.297636359824 1.05195781714 -1.14145158563 -0.220695749068
4.41814705622 1.09831241624 0.491664498583 -0.429278278965 -0.21222897268 1.15143447095 0.702267794779 -0.298075401845 1.05228197724 -1.13994144697 -0.220866335638
4.44238017907 1.09364506792 0.4921625702 -0.429723311532 -0.213716822607 1.1512519132 0.702586464309 -0.298515277536 1.05260658442 -1.13842600443 -0.221038153322
4.46660342136 1.08897962249 0.492661382759 -0.430171223737 -0.215207912258 1.15106924503 0.702905763968 -0.298956020071 1.052931636 -1.13690526485 -0.221211295629
4.49081673461 1.08431608917 0.493160931058 -0.430622015075 -0.216702249619 1.15088646859 0.703225693303 -0.299397628575 1.05325713126 -1.13537921978 -0.221385768359
4.51502254583 1.07965400115 0.493661554136 -0.431075702234 -0.218199779976 1.15070356113 0.703546333333 -0.299839953191 1.05358309387 -1.13384780157 -0.221561053153
4.53921585007 1.07499432159 0.494162554544 -0.431532254163 -0.219700642356 1.15052056933 0.703867510534 -0.300283325746 1.05390947358 -1.13231113617 -0.221738295089
4.56339908154 1.0703365823 0.494664275365 -0.43199167893 -0.221204771163 1.1503374813 0.704189327049 -0.300727526023 1.05423629652 -1.13076912425 -0.221916793845
4.58757219353 1.06568079197 0.495166710358 -0.432453980117 -0.222712179177 1.15015429389 0.704511771446 -0.301172587972 1.05456356012 -1.1292217735 -0.222096644596
4.61173513934 1.06102695982 0.495669853948 -0.43291915682 -0.224222874097 1.14997100946 0.704834843373 -0.301618509931 1.05489126359 -1.12766907549 -0.222277851354
4.63589039987 1.0563746076 0.496174059789 -0.433387229115 -0.225736799467 1.14978760319 0.705158624612 -0.302065140929 1.05521942975 -1.12611096079 -0.222459889556
4.66003285881 1.05172472131 0.496678599839 -0.433858158291 -0.227254097418 1.1496041261 0.705482939448 -0.302512816459 1.05554801 -1.12454756084 -0.222643920447
4.68416500246 1.04707682144 0.497183832031 -0.434331955806 -0.228774700424 1.14942056422 0.705807891037 -0.302961313037 1.05587702916 -1.12297877336 -0.222829233154
4.7082867895 1.04243091659 0.497689749662 -0.434808624893 -0.230298621097 1.14923691454 0.706133467763 -0.303410665342 1.05620648477 -1.12140460687 -0.223015924337
4.73239816963 1.037787016 0.49819634676 -0.43528816431 -0.23182586692 1.14905317952 0.706459669179 -0.303860871511 1.05653637594 -1.11982505328 -0.223203997717
4.75650168664 1.03314462998 0.498703992145 -0.435770597617 -0.233356379521 1.1488693323 0.706786578048 -0.30431177865 1.05686672459 -1.11824004093 -0.223392920447
4.78059210024 1.02850476731 0.499211926073 -0.436255878037 -0.23489030426 1.14868542837 0.707114016411 -0.304763726335 1.05719748396 -1.11664970713 -0.223583870958
4.80467196322 1.02386693717 0.499720521872 -0.436744020609 -0.236427571599 1.14850145162 0.707442088443 -0.305216487551 1.05752867741 -1.11505394647 -0.223776127234
4.82874122706 1.01923114808 0.500229772372 -0.437235028154 -0.237968193922 1.14831739923 0.707770782441 -0.305670097411 1.05786030264 -1.1134527682 -0.223969786627
4.85279984686 1.01459740923 0.500739671174 -0.437728899173 -0.239512178591 1.14813327364 0.708100097612 -0.306124554675 1.05819235863 -1.11184616495 -0.224164854638
4.87685042389 1.00996521952 0.501250602812 -0.438225660872 -0.241059465206 1.14794904594 0.708430117778 -0.306579704125 1.0585248663 -1.11023406261 -0.224360789122
4.90088760111 1.00533561045 0.501761774736 -0.438725257907 -0.242610202391 1.14776477628 0.708760662889 -0.307035889163 1.05885778093 -1.10861660444 -0.224558784982
4.92491398697 1.00070807989 0.502273576205 -0.439227709166 -0.244164318601 1.14758044627 0.709091837949 -0.307492879638 1.05919112429 -1.10699368199 -0.224758110147
4.94941224982 0.996082636259 0.502785999561 -0.439733017082 -0.245721826022 1.14739605322 0.709423631062 -0.307950711483 1.05952489424 -1.10536530547 -0.224958863578
4.97389941232 0.99145928871 0.503299038002 -0.440241179719 -0.247282731692 1.14721159975 0.709756041497 -0.308409382697 1.05985908966 -1.10373146759 -0.225161049057
4.99837818535 0.986837524731 0.503813092295 -0.440752228284 -0.248846973285 1.14702705464 0.710089153738 -0.308868736914 1.06019373033 -1.10209209231 -0.225364118123
5.02284298907 0.982218398436 0.504327335969 -0.441266098318 -0.25041470269 1.14684248298 0.710422785872 -0.309329120891 1.06052877381 -1.10044732875 -0.225569280856
5.04729654334 0.97760139642 0.504842174762 -0.441782812821 -0.251985846338 1.14665786394 0.710757043589 -0.309790301547 1.06086424014 -1.09879706553 -0.225775795767
5.07173879966 0.972986526976 0.50535760053 -0.442302373751 -0.253560416127 1.14647319504 0.711091914965 -0.310252315127 1.06120012734 -1.09714131355 -0.225983762089
5.0961697149 0.968373799199 0.505873606034 -0.442824778835 -0.255138418888 1.14628847897 0.711427399022 -0.310715159876 1.06153643418 -1.09548006615 -0.226193184402
5.12059206101 0.963762689223 0.506390608852 -0.443350063414 -0.256719790206 1.14610368219 0.711763581095 -0.311178677487 1.06187317918 -1.09381324488 -0.22640350595
5.14500013782 0.959154273603 0.506907747442 -0.443878153427 -0.258304685325 1.1459188749 0.712100277452 -0.311643218239 1.06221032245 -1.09214100503 -0.226615952308
5.16939672085 0.954548027732 0.507425444589 -0.44440907622 -0.259893028589 1.14573403373 0.712437594408 -0.312108546048 1.06254788211 -1.09046323215 -0.226829772492
5.1937817688 0.94994395975 0.507943691647 -0.444942833278 -0.261484831617 1.14554915642 0.712775519955 -0.312574697677 1.06288585637 -1.088779938 -0.227045066471
5.21815523494 0.945342078671 0.508462480938 -0.445479421931 -0.263080100974 1.14536424574 0.713114052971 -0.313041671277 1.06322424388 -1.08709111638 -0.227261838753
5.24251995411 0.94074184935 0.508982247407 -0.446018881926 -0.26467877014 1.14517926571 0.713453279478 -0.313509306958 1.06356306181 -1.08539668656 -0.227479525211
5.26687010216 0.936144370564 0.50950209329 -0.446561129065 -0.266280997763 1.14499429184 0.713793014067 -0.313977958396 1.06390227303 -1.0836968101 -0.227699366457
5.2912085229 0.931549106601 0.510022458997 -0.447106195263 -0.26788670602 1.14480929818 0.714133363671 -0.3144473862 1.06424189359 -1.08199136933 -0.227920601409
5.31553516783 0.926956065413 0.510543335358 -0.447654081539 -0.26949590627 1.14462428259 0.714474316109 -0.314917628034 1.06458192191 -1.08028037705 -0.228143331643
5.33984999562 0.922365255917 0.511064714258 -0.448204784796 -0.271108604773 1.14443924799 0.714815870154 -0.315388681758 1.06492235652 -1.07856382744 -0.228367561099
5.36415589498 0.91777613178 0.51158704857 -0.448758349444 -0.272724732873 1.14425415583 0.715158112404 -0.315860386117 1.0652632131 -1.07684163754 -0.228592718851
5.38844693221 0.913189813743 0.512109403154 -0.449314680575 -0.274344452644 1.14406908719 0.715500855982 -0.316333097832 1.06560445754 -1.07511397524 -0.228820059519
5.4127260032 0.908605755089 0.512632236609 -0.44987381498 -0.275967684103 1.14388401332 0.715844208213 -0.316806574672 1.06594610366 -1.07338071976 -0.229048813218
5.43699306662 0.904023963572 0.513155539249 -0.450435753123 -0.277594438247 1.14369893233 0.716188156935 -0.317280854541 1.0662881501 -1.07164188467 -0.229279081442
5.46149062706 0.899444447971 0.513679302493 -0.451000491536 -0.279224721112 1.14351384719 0.716532700599 -0.317755935807 1.06663059528 -1.06989746495 -0.229510869498
5.48597899319 0.894866650903 0.514203997733 -0.451568079485 -0.280858461775 1.14332871675 0.716877926471 -0.318231655268 1.06697345323 -1.06814737507 -0.22974359829
5.51045205526 0.890291714745 0.514728651282 -0.452138410805 -0.282495825805 1.14314362783 0.717223646308 -0.318708372753 1.06731669317 -1.06639178945 -0.229978536408
5.53491279538 0.885719081916 0.515253740503 -0.452711527443 -0.284136731029 1.14295854878 0.717569967701 -0.319185843306 1.06766032649 -1.06463058422 -0.230214905603
5.55936117584 0.881148759931 0.51577925518 -0.45328742931 -0.2857811881 1.14277347794 0.717916878427 -0.319664105399 1.06800435206 -1.06286377389 -0.230452808021
5.58379714633 0.876580757447 0.516305186296 -0.453866112425 -0.287429202643 1.14258841844 0.718264376971 -0.320143156549 1.06834876819 -1.06109135363 -0.230692247028
5.60822375006 0.872014506138 0.516832024295 -0.454447631317 -0.289080701611 1.14240332628 0.718612550773 -0.320622833237 1.06869358715 -1.05931323606 -0.230932639354
5.63263476049 0.867451169653 0.517358755788 -0.455031867923 -0.290735854039 1.14221829432 0.718961210546 -0.321103497659 1.06903878173 -1.05752960193 -0.231175265548
5.65703321903 0.86289017972 0.517885877493 -0.455618869608 -0.292394575497 1.14203328788 0.71931046409 -0.321584901953 1.06938436072 -1.05574032419 -0.231419338747
5.68190924217 0.858331543577 0.518413378642 -0.456208635742 -0.294056876318 1.1418483055 0.719660299023 -0.32206708559 1.06973032328 -1.05394541849 -0.231664962699
5.70702100619 0.853775269723 0.518941249773 -0.456801161848 -0.295722761744 1.14166335047 0.72001071377 -0.322550045555 1.07007666755 -1.05214488037 -0.231912139595
5.73237396157 0.849220779094 0.51947000098 -0.457396507898 -0.29739215644 1.14147837589 0.720361796095 -0.323033617188 1.07042340393 -1.05033862015 -0.232160280064
5.75796376086 0.844669256156 0.519998577991 -0.457994543379 -0.299065233009 1.14129348082 0.720713355722 -0.323518165379 1.07077050905 -1.04852682526 -0.232410677161
5.78379589226 0.840120122145 0.520527497461 -0.458595321371 -0.30074190473 1.14110862747 0.721065500515 -0.324003439467 1.07111798895 -1.04670936545 -0.23266253586
5.80987260494 0.835573384009 0.521056748088 -0.459198840608 -0.302422181505 1.14092381463 0.721418218151 -0.324489479148 1.07146584303 -1.04488625719 -0.232915959585
5.83619615705 0.831029050035 0.521586319923 -0.459805096192 -0.304106068301 1.14073904563 0.721771506702 -0.324976281985 1.07181406932 -1.04305749692 -0.233170951978
5.86277232962 0.82648653064 0.522116743311 -0.460414153777 -0.305793487391 1.14055427065 0.722125454291 -0.325463681762 1.07216267618 -1.04122299243 -0.233426916661
5.88959642309 0.821947030616 0.522646921933 -0.461025869766 -0.307484614956 1.14036959519 0.722479869897 -0.32595204566 1.07251164437 -1.03938293781 -0.233685157966
5.91667425083 0.817409960918 0.52317739295 -0.46164030329 -0.309179362002 1.14018497814 0.722834861208 -0.326441120735 1.07286097699 -1.0375371998 -0.233944874125
5.94400816798 0.81287532817 0.523708144518 -0.462257452431 -0.310877737986 1.14000041858 0.723190415938 -0.326930947025 1.07321067373 -1.03568579579 -0.234206168454
5.97160054051 0.808343140436 0.52423916622 -0.462877311801 -0.312579747515 1.13981591991 0.723546531959 -0.32742152207 1.07356073247 -1.03382872283 -0.234469044587
5.99945748895 0.803812797846 0.524771009214 -0.463499953054 -0.314285310466 1.13963142926 0.723903297554 -0.327912678566 1.0739111594 -1.03196588637 -0.234732900346
6.02757394369 0.79928552494 0.525302533965 -0.464125218896 -0.315994606656 1.13944705875 0.724260521112 -0.32840478601 1.07426193974 -1.03009748731 -0.234999051076
6.05595606659 0.794760722677 0.525834298753 -0.464753174758 -0.3177075447 1.13926276393 0.724618310185 -0.328897588486 1.07461307339 -1.02822338907 -0.235266686909
6.08460631702 0.790238397305 0.526366291163 -0.465383818092 -0.319424133657 1.13907854409 0.724976652385 -0.329391127026 1.07496456037 -1.02634361023 -0.235535912473
6.11352717229 0.785718556642 0.526898500315 -0.466017142992 -0.321144377733 1.13889440274 0.725335545421 -0.329885398968 1.07531639845 -1.02445814845 -0.235806730954
6.14272511944 0.7812005908 0.527431498756 -0.466653227401 -0.322868194371 1.13871028383 0.725695077627 -0.330380236034 1.07566859144 -1.02256690678 -0.236078534755
6.17219469183 0.776685743442 0.527964102591 -0.467291899674 -0.324595767028 1.13852630636 0.726055057065 -0.330876009622 1.07602112935 -1.02067009296 -0.236352648928
6.20223989055 0.772173405803 0.52849689177 -0.467933231909 -0.326327001972 1.13834242233 0.726415590846 -0.331372461599 1.07637400871 -1.01876756737 -0.236628257497
6.23287191117 0.767663583737 0.529029853335 -0.468577220847 -0.32806190776 1.13815863131 0.726776666659 -0.3318696333 1.07672722988 -1.01685934948 -0.236905464721
6.26410215404 0.763156284799 0.529562975945 -0.469223860047 -0.329800488178 1.13797493695 0.727138282057 -0.332367521803 1.07708079045 -1.01494543754 -0.237184273189
6.29594667056 0.758650889363 0.530096854085 -0.469873234071 -0.331542658243 1.13779127984 0.727500525197 -0.332865958466 1.0774346918 -1.0130257325 -0.237464071402
6.32840843746 0.754148659524 0.530630258375 -0.470525156254 -0.333288605049 1.13760778613 0.727863204103 -0.333365316104 1.07778892897 -1.01110044882 -0.237746192629
6.36150394808 0.749648977125 0.531163791017 -0.471179705669 -0.335038232468 1.13742440413 0.728226425335 -0.333865334263 1.07814349494 -1.00916944375 -0.238029814824
6.39524552616 0.745151847568 0.53169743848 -0.471836878366 -0.336791548604 1.13724113368 0.728590176524 -0.334366055257 1.07849839044 -1.00723273803 -0.238315043326
6.4296457146 0.74065727813 0.532231188984 -0.472496667325 -0.338548556758 1.13705797855 0.728954455153 -0.334867475475 1.07885361289 -1.00529033031 -0.238601879129
6.46507303627 0.73616463979 0.53276565952 -0.473159164018 -0.340309169459 1.13687487593 0.729319349132 -0.335369425845 1.07920916103 -1.00334211931 -0.238889706813
6.50154775348 0.731675212295 0.533299574092 -0.473824166117 -0.342073577496 1.13669195927 0.729684666612 -0.335872280685 1.0795650353 -1.00138832646 -0.239179867649
6.53910606317 0.727188368469 0.533833557735 -0.474491759981 -0.343841682284 1.13650917313 0.730050513511 -0.33637577698 1.07992122491 -0.999428805735 -0.239471533273
6.57855745166 0.722704113223 0.534367596347 -0.475161940939 -0.345613491447 1.13632651759 0.730416877424 -0.336879958051 1.08027773096 -0.997463579153 -0.239764810052
6.61958696302 0.718222453514 0.534901677696 -0.475834701403 -0.347389007822 1.13614399653 0.730783755677 -0.337384819927 1.08063455071 -0.995492645945 -0.240059698133
6.66269055583 0.713742751303 0.535436441842 -0.476510140053 -0.3491681414 1.13596154365 0.731151235841 -0.33789019311 1.08099168011 -0.993515902587 -0.240355578316
6.70795995751 0.709266303156 0.535970565083 -0.477188038212 -0.350951086651 1.13577929993 0.731519126499 -0.338396452915 1.08134912533 -0.991533577352 -0.240653798295
6.7559862332 0.704792473245 0.536504695821 -0.477868489902 -0.352737742585 1.13559720598 0.731887532611 -0.338903334574 1.08170687159 -0.989545521313 -0.240953525513
6.80744671598 0.700321265984 0.537038819413 -0.478551489657 -0.354528116239 1.13541526221 0.732256441919 -0.339410881615 1.08206492038 -0.987551757394 -0.241254865471
6.86313827744 0.695852687965 0.537572923166 -0.479237029335 -0.356322210013 1.13523347257 0.732625851494 -0.339919090177 1.08242326881 -0.985552285662 -0.241557818489
6.92462911317 0.691386092546 0.538107670761 -0.479925215123 -0.358119931297 1.13505176717 0.732995848498 -0.340427790187 1.08278190987 -0.983547000227 -0.241861761436
6.9952591016 0.686922792193 0.538641689719 -0.480615811321 -0.359921478272 1.13487029474 0.733366242174 -0.340937357845 1.08314085577 -0.981536136295 -0.242168047686
7.08034182881 0.68246214286 0.539175652352 -0.481308919952 -0.361726747512 1.13468899182 0.73373713637 -0.341447526654 1.08350008755 -0.979519542032 -0.242475840866
7.20005663911 0.678004148425 0.539709543487 -0.482004534734 -0.36353574545 1.13450785914 0.734108518977 -0.341958340422 1.08385960711 -0.977497241314 -0.242785245696
7.36690602543 0.673548815088 0.540243349974 -0.482702646949 -0.365348474021 1.13432690074 0.734480386832 -0.342469795283 1.0842194114 -0.975469235006 -0.243096262375
7.50594354016 0.671952448153 0.543940917989 -0.481294088608 -0.362166047794 1.13321120931 0.735208932899 -0.343823381789 1.08435447146 -0.97492608495 -0.243179557988
7.59144095395 0.670359792638 0.547626940795 -0.479877628246 -0.358978595793 1.13209359695 0.735939464493 -0.345176096064 1.08449101784 -0.974397954342 -0.243264758179
7.65962289836 0.668770977229 0.551301408063 -0.478453288089 -0.355786108432 1.13097397915 0.736671925012 -0.346527859271 1.08462897316 -0.973884748842 -0.243351825179
7.71816656434 0.667186130642 0.55496431203 -0.47702109198 -0.352588576713 1.12985228011 0.73740625709 -0.347878593621 1.08476825912 -0.973386372172 -0.2434407169
7.7704749095 0.66560538137 0.558615647196 -0.475581064775 -0.349385991897 1.12872843189 0.738142402089 -0.349228223364 1.08490879587 -0.97290272546 -0.243531389057
7.81830660127 0.663896329567 0.562267294443 -0.474152853744 -0.34623304607 1.12759717402 0.738891808533 -0.35059193734 1.08506199889 -0.972374089502 -0.24363344088
7.86277960386 0.662191387663 0.565907443371 -0.472716814137 -0.343074930286 1.12646348617 0.739643037389 -0.351954565098 1.08521645318 -0.971860358994 -0.24373731025
7.90454282133 0.660490682568 0.569536091913 -0.471272971303 -0.339911634704 1.12532731866 0.740396028342 -0.35331603366 1.0853720775 -0.971361436427 -0.243842943859
7.9441531573 0.658794341111 0.573153240275 -0.469821351943 -0.336743150018 1.12418862869 0.741150720694 -0.354676271466 1.08552879012 -0.97087722252 -0.243950286079
7.98172123256 0.65710249001 0.576758890894 -0.468361984067 -0.333569467453 1.12304738001 0.741907053424 -0.356035208448 1.08568650893 -0.970407616241 -0.244059279325
8.01778411597 0.655282575486 0.580360616395 -0.466913358169 -0.330446239376 1.12189850652 0.74267686535 -0.35740811772 1.08585743246 -0.969893544961 -0.244180090646
8.05232993649 0.653467160831 0.583950920051 -0.465456990078 -0.327317697081 1.12074683528 0.743448320219 -0.358779750637 1.08602935644 -0.969394251244 -0.24430256647
8.08575314895 0.651656371094 0.587529807134 -0.463992907909 -0.324183830705 1.11959234446 0.744221356461 -0.360150040351 1.08620219867 -0.968909636062 -0.24442664395
8.11808997364 0.649850331219 0.591097285011 -0.462521141044 -0.321044630953 1.11843501766 0.744995912513 -0.36151892143 1.08637587699 -0.968439598887 -0.244552259042
8.14937548649 0.648049166151 0.594653363269 -0.461041720448 -0.317900089296 1.11727484384 0.745771927318 -0.362886329239 1.08655030974 -0.967984038133 -0.24467934556
8.18090263802 0.64612017668 0.59820142684 -0.459572006984 -0.314806775141 1.11610686863 0.746561623716 -0.364267561197 1.08673845376 -0.96748450299 -0.244818529688
8.211404954 0.644196068456 0.601738170649 -0.458094649118 -0.311708003205 1.11493583906 0.74735277828 -0.365647350689 1.08692734479 -0.966999612085 -0.244959183665
8.24121065184 0.642276964609 0.605263606441 -0.456609677227 -0.308603763654 1.11376175496 0.748145329622 -0.367025637144 1.08711690141 -0.966529265803 -0.24510124016
8.27004708951 0.640362988383 0.608777748212 -0.455117123524 -0.305494047619 1.11258462073 0.748939217512 -0.368402360118 1.08730704349 -0.966073364015 -0.245244629214
8.29936873393 0.638454262779 0.612280611747 -0.453617021114 -0.302378846647 1.11140444459 0.749734381609 -0.369777461024 1.08749769072 -0.965631804902 -0.24538928158
8.32917648333 0.636418084581 0.615771382631 -0.452125607762 -0.299315624645 1.11021634229 0.750543404265 -0.371166225817 1.08770253135 -0.965146745455 -0.245546260963
8.35948585017 0.634387160502 0.619250958294 -0.450626657891 -0.29624680259 1.1090250158 0.751353702051 -0.372553405151 1.08790787118 -0.964676196264 -0.245704491545
8.39061331019 0.632361611996 0.622719356577 -0.449120204407 -0.293172371101 1.10783048176 0.752165215656 -0.373938943226 1.08811363166 -0.96422005858 -0.245863902742
8.42258079282 0.630341560434 0.626176597214 -0.447606281484 -0.290092321472 1.10663276009 0.752977886382 -0.375322785186 1.08831973488 -0.963778232599 -0.246024423605
8.45541083289 0.628327126998 0.629622701713 -0.446084924322 -0.287006645536 1.10543187375 0.753791655818 -0.376704877551 1.08852610319 -0.963350617171 -0.246185983727
8.48941374068 0.626185744908 0.633052650371 -0.44457125502 -0.283973678485 1.10422297981 0.75461943997 -0.378100462576 1.08874712775 -0.96287996131 -0.246360059231
8.52468330413 0.624049981615 0.636471548328 -0.4430501662 -0.280934970874 1.10301075815 0.755448322921 -0.379494339901 1.08896841484 -0.962423684453 -0.246535155069
8.56126657443 0.621919956856 0.639879418888 -0.441521692798 -0.277890513685 1.10179523788 0.756278247781 -0.38088645836 1.08918988906 -0.961981688852 -0.246711200402
8.5995918266 0.619795790235 0.643276287118 -0.439985870876 -0.274840298522 1.10057645056 0.757109158221 -0.382276767772 1.08941147559 -0.961553875643 -0.246888124684
8.63974190275 0.617677601232 0.646662179882 -0.438442737696 -0.271784317665 1.09935443015 0.757940998601 -0.383665218761 1.08963310031 -0.961140144945 -0.24706585742
8.68221635977 0.615433099049 0.650027871785 -0.436906308251 -0.268781754011 1.0981243566 0.758786992544 -0.385066980541 1.08986982853 -0.960683821302 -0.247256259516
8.72199778011 0.613194572392 0.653382675387 -0.435362584293 -0.265773311199 1.09689090129 0.759633918445 -0.386466930797 1.09010659654 -0.960241749935 -0.24744744767
8.75972590767 0.610962139279 0.656726618997 -0.433811602448 -0.262758980527 1.09565410233 0.760481722026 -0.387865022606 1.09034333225 -0.959813834183 -0.247639352615
8.79550666911 0.608735917633 0.660059732701 -0.432253400602 -0.25973875402 1.09441399983 0.761330349861 -0.389261209552 1.0905799644 -0.959399976496 -0.247831904968
8.82977988173 0.606516025159 0.66338204822 -0.430688017594 -0.256712624255 1.0931706356 0.762179748929 -0.390655446311 1.09081642211 -0.959000078071 -0.248025036317
8.86380319913 0.604170585993 0.666680139769 -0.429128371836 -0.253740598525 1.09191920252 0.763043426219 -0.392062800553 1.09106841807 -0.958558023364 -0.248230960274
8.89639276643 0.601831471309 0.669967521587 -0.427561563463 -0.250762556908 1.09066436956 0.763907879418 -0.393468255647 1.09132024611 -0.95813009949 -0.248437438889
8.92792114854 0.599498797465 0.673244226723 -0.425987630721 -0.247778491089 1.0894061813 0.764773057172 -0.394871768096 1.09157183763 -0.957716211084 -0.248644404959
8.95842290042 0.597172680631 0.676510289864 -0.424406612894 -0.244788393371 1.08814468378 0.765638908698 -0.396273295163 1.09182312457 -0.957316261665 -0.248851791938
8.98793146684 0.594853236731 0.679765747269 -0.422818550158 -0.241792256593 1.08687992432 0.766505383577 -0.397672795144 1.09207403912 -0.956930153463 -0.249059534437
9.0177722047 0.592409142931 0.682992983294 -0.421235276146 -0.238850889143 1.08560710496 0.767386249239 -0.399085207297 1.09234091605 -0.956502315668 -0.249280165247
9.04664095176 0.589971714972 0.686209703064 -0.419644977527 -0.235903370945 1.08433089302 0.768267746239 -0.400495646384 1.09260743263 -0.956088492925 -0.249501125689
9.0748486812 0.587541067463 0.689415943994 -0.418047693748 -0.232949693918 1.08305133745 0.769149825753 -0.401904072319 1.09287352323 -0.955688590829 -0.249722352055
9.10241056954 0.585117314869 0.69261174521 -0.416443465474 -0.22998985072 1.08176848835 0.770032439833 -0.403310445236 1.09313912303 -0.955302514102 -0.249943780581
9.12988277305 0.582700571363 0.695797147355 -0.414832334216 -0.227023834526 1.08048239681 0.77091554083 -0.404714726255 1.09340416741 -0.954930166137 -0.250165348788
9.15762397177 0.580160204068 0.698950360076 -0.41322506098 -0.224113231066 1.07918827469 0.77181313395 -0.406131702433 1.09368558812 -0.954516505259 -0.250399877367
9.18583024967 0.57762683637 0.702093263792 -0.41161090626 -0.221196343651 1.07789078451 0.77271122493 -0.407546643683 1.09396647044 -0.954116748913 -0.250634520023
9.21450947884 0.575100581193 0.705225900218 -0.409989910817 -0.218273164569 1.07658997808 0.773609767761 -0.408959512346 1.09424675188 -0.953730803874 -0.25086921591
9.24396127882 0.572581551226 0.708348312669 -0.408362116445 -0.215343686749 1.07528590809 0.774508717027 -0.410370271223 1.09452637044 -0.953358575828 -0.251103904709
9.2742065748 0.570069858777 0.711460545864 -0.40672756558 -0.212407903531 1.073978628 0.775408027317 -0.411778884408 1.09480526397 -0.952999968894 -0.25133852802
9.30500663479 0.567435697056 0.714536655035 -0.405095960379 -0.209528154608 1.07266336378 0.77632192136 -0.413199962952 1.09510093871 -0.952600456273 -0.251586160939
9.3366358919 0.564808861153 0.717602675542 -0.40345762149 -0.206641990212 1.07134476704 0.777236190806 -0.414618954421 1.09539591082 -0.952214742832 -0.251833702282
9.36944161504 0.562189462168 0.72065865309 -0.401812590561 -0.203749402803 1.07002289125 0.778150791833 -0.416035823838 1.09569012016 -0.951842736027 -0.252081095274
9.40346772235 0.559577610985 0.723704635059 -0.400160910446 -0.200850385594 1.06869779061 0.779065681469 -0.417450536208 1.09598350734 -0.951484342437 -0.252328282952
9.43911272147 0.556973418102 0.726740670269 -0.398502624735 -0.197944932278 1.06736951999 0.779980816881 -0.418863057512 1.09627601297 -0.951139467188 -0.252575209834
9.47624778083 0.554248037645 0.729736684181 -0.396846390663 -0.195096112727 1.06603332613 0.78091061845 -0.42028780158 1.09658569557 -0.950754083816 -0.252835174878
9.51130719043 0.551530301541 0.73272284211 -0.395183574561 -0.192240747638 1.06469384156 0.781840682996 -0.421710415019 1.09689452356 -0.950382398644 -0.253094853962
9.54455546869 0.548820319074 0.735699193731 -0.393514219062 -0.189378829754 1.06335112061 0.782770969009 -0.423130864778 1.09720243918 -0.950024319922 -0.253354193638
9.57640169185 0.546118199223 0.738665790309 -0.391838367861 -0.186510352486 1.06200521817 0.783701435589 -0.424549118012 1.09750938516 -0.949679754831 -0.253613140713
9.60690519708 0.543424050577 0.741622684593 -0.390156065501 -0.183635309804 1.06065618973 0.784632042131 -0.425965142526 1.09781530434 -0.949348609237 -0.25387164297
9.63756008488 0.540610121976 0.74453570173 -0.388474939466 -0.180817478263 1.0592993113 0.785577388908 -0.42739313358 1.09813878757 -0.948977343586 -0.254143191631
9.66721524449 0.537804148415 0.74743910735 -0.386787386306 -0.177992972432 1.05793918677 0.786522895373 -0.4288189579 1.09846127502 -0.948619678844 -0.254414271623
9.69736688905 0.535006237338 0.750332955088 -0.385093449743 -0.17516178543 1.05657587068 0.787468522408 -0.430242583693 1.09878271135 -0.948275524124 -0.254684832096
9.72863977816 0.532216495756 0.75321730001 -0.38339317426 -0.172323910881 1.05520941808 0.788414231044 -0.431663979939 1.09910304113 -0.947944787113 -0.254954823414
9.76107589337 0.529435030209 0.75609219859 -0.381686605063 -0.169479342899 1.05383988452 0.789359982401 -0.433083116485 1.09942220886 -0.947627374028 -0.255224197285
9.79444957734 0.526535316756 0.758919409555 -0.379980355638 -0.166692541178 1.05246258482 0.790320540064 -0.434513949557 1.09975931871 -0.9472702192 -0.255506606654
9.82942576398 0.52364386113 0.76173726509 -0.378267837297 -0.16389893795 1.05108208387 0.791281163219 -0.435942585003 1.10009530203 -0.946926571676 -0.2557883743
9.8664463024 0.520760768705 0.764545822445 -0.376549094267 -0.161098526406 1.04969843596 0.792241814195 -0.437368993182 1.10043010474 -0.946596340693 -0.25606945366
9.90602075042 0.517886144461 0.767345140442 -0.374824171836 -0.158291300425 1.04831169585 0.793202455891 -0.438793144513 1.10076367313 -0.946279434408 -0.25634979823
9.94874641049 0.515020092919 0.770135279398 -0.373093116201 -0.155477254493 1.04692191879 0.79416305155 -0.440215009804 1.10109595368 -0.945975759714 -0.256629362092
9.99484449909 0.512037448269 0.772873969533 -0.371361542468 -0.152721507485 1.04552446875 0.795138511653 -0.441648287945 1.10144654497 -0.945632711432 -0.25692193279
10.0366112772 0.509063355961 0.775603571359 -0.369623860468 -0.149958832962 1.04412386061 0.796113950676 -0.443079342839 1.10179588738 -0.945303079403 -0.257213699593
10.0795183908 0.506097919286 0.778324145797 -0.367880115146 -0.147189224346 1.04272014815 0.797089332614 -0.44450814623 1.10214392826 -0.944986773184 -0.25750461911
10.1267745532 0.503141241083 0.781035755322 -0.36613035248 -0.144412675735 1.04131338557 0.79806462197 -0.445934669934 1.1024906153 -0.944683701202 -0.257794648033
10.1803952974 0.500193423662 0.783738463856 -0.364374619287 -0.141629181802 1.03990362752 0.79903978348 -0.447358886265 1.1028358962 -0.944393770546 -0.258083743791
10.2435641088 0.497130789066 0.786386015844 -0.362617549412 -0.138904497229 1.03848629775 0.800029860686 -0.448794216653 1.10319984748 -0.944064824669 -0.258385798657
10.2974789322 0.494076992802 0.789024757396 -0.360854534077 -0.136172760354 1.03706585006 0.801019837218 -0.450227302506 1.10356243492 -0.94374920609 -0.258686897563
10.3534186787 0.491032136011 0.791654753103 -0.359085619019 -0.133433964899 1.03564233746 0.802009678745 -0.451658116538 1.10392360726 -0.943446824696 -0.258986999703
10.4199043343 0.487996319271 0.794276068979 -0.357310850783 -0.130688105142 1.03421581341 0.802999351108 -0.453086632003 1.1042833132 -0.943157588995 -0.259286065068
10.4755100769 0.484969642595 0.796888772507 -0.355530276812 -0.127935175976 1.03278633182 0.803988820448 -0.454512822483 1.10464150154 -0.942881406215 -0.259584054105
10.5412358501 0.481812029868 0.799422582382 -0.353703874412 -0.125215422912 1.03133891903 0.805016316593 -0.45597259689 1.10502540612 -0.942504512231 -0.259898678751
10.596817989 0.478663794946 0.801947600748 -0.351871615697 -0.122488402309 1.02988843196 0.806043647426 -0.457430080023 1.10540778281 -0.942141050615 -0.260212141624
10.6571418799 0.47552504074 0.804463898634 -0.35003354867 -0.119754108299 1.02843492389 0.807070779347 -0.458885244775 1.10578858042 -0.941790928396 -0.260524403856
10.7097061438 0.472395869464 0.806971548454 -0.348189721993 -0.117012535493 1.02697844861 0.808097678672 -0.46033806497 1.10616774746 -0.94145405097 -0.260835427969
10.7636955474 0.469276382689 0.809470624171 -0.346340185303 -0.114263679169 1.02551906041 0.809124312062 -0.461788514664 1.10654523256 -0.94113032244 -0.261145176774
10.8281464012 0.466063583405 0.811927705965 -0.344531473476 -0.11160057169 1.02406279573 0.81014267886 -0.463226699853 1.10693535674 -0.940830505801 -0.261463886236
10.8830393144 0.462860175285 0.814376569774 -0.342717150474 -0.10893016646 1.02260348388 0.811160803035 -0.464662605201 1.10732390323 -0.940543836487 -0.261781360509
10.9408095455 0.459666254725 0.816817287289 -0.340897263303 -0.106252457718 1.02114117601 0.812178652811 -0.466096205644 1.10771082252 -0.940270224365 -0.262097564451
10.9917043507 0.456481917455 0.819249931606 -0.339071859785 -0.103567440278 1.0196759238 0.813196196568 -0.467527476588 1.10809606509 -0.940009577924 -0.262412463544
11.0404646056 0.45330725846 0.821674577115 -0.337240988369 -0.100875109424 1.0182077795 0.81421340259 -0.468956394384 1.10847958105 -0.939761804084 -0.262726024584
11.0962190217 0.450023846785 0.82403334128 -0.335406518361 -0.0982430191711 1.01673242444 0.815245586589 -0.47039540196 1.10888277329 -0.939476181066 -0.26305228377
11.146003584 0.446750084252 0.826384197026 -0.333566605454 -0.0956035105294 1.01525404872 0.81627746613 -0.471832116712 1.10928428992 -0.939203619916 -0.263377180836
11.191388121 0.443486064685 0.828727219346 -0.331721297046 -0.0929565778917 1.01377270259 0.817309010285 -0.473266514989 1.10968408183 -0.938944030233 -0.263700683829
11.2376988084 0.440231881206 0.831062484658 -0.329870641417 -0.0903022162741 1.01228843679 0.818340188372 -0.474698573438 1.11008209996 -0.938697320322 -0.264022761123
11.2801942068 0.436987626213 0.833390070808 -0.328014687753 -0.087640421334 1.01080130257 0.819370969984 -0.476128268953 1.11047829531 -0.938463397206 -0.264343381337
11.3211317554 0.433636856751 0.835648321633 -0.326154394222 -0.0850392883582 1.00930708291 0.820416752787 -0.477567694686 1.11089448505 -0.938191941395 -0.264676583752
11.3636057076 0.430295984496 0.837898983241 -0.324288827132 -0.0824306176302 1.00780986396 0.821462173836 -0.479004816968 1.11130890498 -0.937933462313 -0.265008304902
11.4090073847 0.426965100631 0.840142133949 -0.322418034422 -0.0798144038134 1.00630969496 0.822507203186 -0.480439613103 1.1117215065 -0.937687869412 -0.265338515269
11.4585122826 0.423644295569 0.842377853452 -0.320542064858 -0.0771906421689 1.00480662569 0.823551811059 -0.481872060819 1.11213224095 -0.937455070791 -0.265667185812
11.5134594292 0.420333658972 0.844606222913 -0.31866096822 -0.0745593286696 1.00330070643 0.82459596808 -0.483302137811 1.11254105989 -0.937234973377 -0.265994287295
11.5641973834 0.416918856135 0.846761875162 -0.316774809248 -0.0719890760142 1.00178783158 0.825655143415 -0.484741569626 1.11297017998 -0.93697764808 -0.266333838323
11.6106047745 0.41351418834 0.848910266838 -0.314883547055 -0.0694111676521 1.00027197343 0.826713903972 -0.48617868906 1.11339743929 -0.936733214505 -0.26667179566
11.6537598108 0.410119744031 0.851051479557 -0.312987230194 -0.0668255985836 0.998753180195 0.827772220811 -0.487613474125 1.11382278971 -0.936501581977 -0.267008131786
11.694290315 0.40673561077 0.853185596158 -0.311085907796 -0.0642323642731 0.997231500803 0.828830064833 -0.489045903861 1.11424618274 -0.936282658235 -0.267342820491
11.7323545698 0.403361875329 0.855312700959 -0.309179630062 -0.0616314609359 0.995706984646 0.829887407405 -0.49047595713 1.11466757017 -0.936076349901 -0.267675835128
11.7696632574 0.39988642937 0.857363782312 -0.30726758628 -0.0590919949037 0.994175646716 0.83095977949 -0.491914973651 1.11510955372 -0.935833106597 -0.268021150001
11.8054092752 0.396421345719 0.859407940959 -0.305350610543 -0.0565447567483 0.992641336026 0.832031687785 -0.493351670001 1.11554958827 -0.935602669943 -0.268364764523
11.8406946601 0.3929667099 0.861445261592 -0.303428751732 -0.0539897416681 0.991104099939 0.833103103917 -0.494786025563 1.11598762572 -0.935384948821 -0.268706654039
11.8773008245 0.389522606559 0.86347583023 -0.301502059542 -0.0514269454693 0.989563986452 0.834173999662 -0.496218020157 1.11642361794 -0.935179850766 -0.269046794314
11.9156556806 0.386089119478 0.865499734305 -0.29957058466 -0.0488563646751 0.988021044059 0.835244347155 -0.497647633592 1.11685751694 -0.934987282123 -0.269385160896
11.9571311047 0.38255648242 0.867444387742 -0.297632658562 -0.0463475752441 0.986471417288 0.836329729431 -0.499085802495 1.11731229457 -0.93475805918 -0.269735662193
12.0010262605 0.379034423942 0.869382465136 -0.295689972279 -0.0438308987348 0.984918823016 0.837414602215 -0.500521645 1.11776503681 -0.934541557223 -0.270084362674
12.0484145492 0.375523026592 0.871314054305 -0.293742575255 -0.0413063307066 0.983363307654 0.838498937953 -0.501955141228 1.11821569586 -0.934337684888 -0.27043123955
12.1003992328 0.372022371979 0.873239244362 -0.291790517734 -0.0387738673249 0.981804918275 0.83958270921 -0.503386271775 1.1186642238 -0.934146349447 -0.270776270481
12.1474964729 0.368532540712 0.875158125609 -0.289833850586 -0.0362335052706 0.980243702758 0.84066588846 -0.504815018169 1.11911057247 -0.93396745667 -0.271119434185
12.1925448108 0.364946222085 0.876994611465 -0.287870065537 -0.0337552663589 0.978675943356 0.84176410202 -0.50625189557 1.11957806932 -0.93375217782 -0.271474550698
12.2345238841 0.361370687031 0.878824876609 -0.285901692749 -0.0312690271492 0.977105216267 0.842861763789 -0.507686440862 1.12004344618 -0.933549533755 -0.271827770447
12.2739499227 0.35780601495 0.880649011777 -0.283928781999 -0.0287747834507 0.97553156716 0.843958846685 -0.509118635497 1.12050665514 -0.933359432618 -0.272179073247
12.3113473052 0.354252284282 0.882467109038 -0.281951383982 -0.0262725317585 0.973955042299 0.845055323893 -0.51054846108 1.12096764836 -0.933181781306 -0.272528438884
12.3471740238 0.350709572421 0.884279261649 -0.279969550064 -0.023762269117 0.972375688761 0.846151168567 -0.511975900033 1.12142637779 -0.933016485265 -0.272875848003
12.3825136385 0.347073135001 0.886005959759 -0.277979949793 -0.0213144391666 0.970789934591 0.847262041296 -0.513411028811 1.12190651135 -0.932815058591 -0.273235012017
12.4170523505 0.343447674428 0.887726800653 -0.275985934432 -0.0188584973289 0.969201207444 0.84837232263 -0.514843820995 1.1223844412 -0.932626179424 -0.273592188603
12.4528838997 0.339833266897 0.889441878028 -0.273987554328 -0.0163944398265 0.967609552099 0.849481986205 -0.516274258727 1.12286011956 -0.932449755598 -0.273947359215
12.490055553 0.336229987539 0.891151286764 -0.271984860528 -0.0139222634501 0.966015014149 0.850591005658 -0.517702324895 1.1233334985 -0.932285693523 -0.274300506039
12.5290018767 0.33263791041 0.892855122943 -0.269977904837 -0.0114419655989 0.964417639959 0.851699354706 -0.51912800297 1.12380452999 -0.93213389825 -0.274651611772
12.5709703203 0.328954965754 0.894470534345 -0.267962552459 -0.00902438791015 0.962814010703 0.85282271991 -0.520560912497 1.12429720735 -0.93194621477 -0.275014258233
12.6153856977 0.325283179212 0.896080460016 -0.265942958002 -0.00659858863953 0.961207397926 0.853945456901 -0.521991481245 1.12478759809 -0.93177099047 -0.275374830412
12.66285934 0.321622623581 0.897684996331 -0.263919172054 -0.00416456425643 0.95959784588 0.855067539596 -0.523419692961 1.12527565417 -0.931608132582 -0.275733312527
12.714566903 0.317973370643 0.899284241053 -0.261891246315 -0.00172231204453 0.957985399242 0.856188942394 -0.524845530997 1.12576132782 -0.931457547247 -0.276089687987
12.7617464606 0.314335490972 0.900878292912 -0.25985923288 0.000728170301025 0.956370103865 0.857309639368 -0.52626898029 1.12624457084 -0.931319138987 -0.276443942001
12.8067975058 0.310609694963 0.902381041588 -0.257818210329 0.00311566697118 0.954748700925 0.858445334967 -0.527699185216 1.12674968662 -0.931145071622 -0.276809506364
12.849125181 0.306895225936 0.903878683557 -0.255773118791 0.00551149301496 0.953124298911 0.859580367885 -0.529127045786 1.12725243309 -0.930983373711 -0.277172913588
12.88927495 0.303192153214 0.905371317853 -0.253724009234 0.00791565161254 0.951496941479 0.860714712448 -0.530552547 1.12775276207 -0.930833951979 -0.27753415009
12.9273578089 0.299500545052 0.906859044855 -0.251670933725 0.0103281451271 0.949866672723 0.861848343449 -0.531975673478 1.12825062564 -0.930696712054 -0.277893201483
12.9653217079 0.295820468466 0.908341965921 -0.249613944803 0.0127489754585 0.948233537891 0.862981235454 -0.533396411239 1.12874597555 -0.930571558031 -0.278250054882
13.0061423876 0.292055516753 0.909730800273 -0.247547352139 0.0151065763477 0.946594444413 0.86412910306 -0.534823410712 1.12926340963 -0.930410960455 -0.27861797152
13.0493421972 0.288302048106 0.911114914005 -0.245476863369 0.0174726124976 0.944952331627 0.865276275454 -0.536248063276 1.12977839144 -0.930262640877 -0.278983652462
13.0955157355 0.284560128346 0.912494408905 -0.243402530198 0.0198470865105 0.943307242227 0.866422727729 -0.537670354196 1.13029087293 -0.930126505745 -0.279347084957
13.145359881 0.28082982205 0.913869387748 -0.241324404866 0.0222300004849 0.941659220023 0.867568434825 -0.539090269957 1.13080080583 -0.930002460031 -0.279708257501
13.2001892677 0.277111192587 0.915239954443 -0.239242540422 0.0246213558523 0.940008309615 0.86871337184 -0.540507797487 1.13130814186 -0.929890407431 -0.280067158809
13.2512311691 0.273310815921 0.916513748475 -0.237150494969 0.0269492597233 0.938351590746 0.869873255687 -0.541931074986 1.13183775709 -0.92974311279 -0.28043686019
13.2979825757 0.269522065388 0.917783214896 -0.235054726424 0.029285702472 0.93669182723 0.87103241402 -0.54335200268 1.13236483684 -0.929608003066 -0.28080424962
13.3414539333 0.265745003084 0.919048457843 -0.232955286721 0.0316306863912 0.935029061457 0.872190822105 -0.544770567592 1.13288933273 -0.929484984064 -0.281169317023
13.3822785311 0.261979689878 0.920309582558 -0.230852228598 0.033984213105 0.933363336624 0.87334845536 -0.546186757184 1.13341119641 -0.929373960317 -0.281532052534
13.4209999178 0.25822618534 0.92156669528 -0.228745605435 0.0363462836584 0.931694696964 0.874505289188 -0.547600559858 1.13393037941 -0.929274834986 -0.281892447115
13.46172933 0.254394144957 0.92272444982 -0.226628241351 0.0386447020632 0.930020399596 0.875677035559 -0.54901958188 1.13447201965 -0.929140654893 -0.282263361467
13.5048317874 0.250573860337 0.923878276038 -0.224507326827 0.0409517608089 0.928343027719 0.876848027719 -0.550436251932 1.13501104029 -0.929018564534 -0.282631891063
13.5509005469 0.246765389806 0.925028280439 -0.222382914274 0.0432674617147 0.926662623162 0.878018241343 -0.551850558123 1.1355473928 -0.928908469224 -0.282998027558
13.6006309171 0.242968790388 0.926174570534 -0.220255056796 0.0455918059847 0.92497922873 0.879187652157 -0.553262489327 1.13608102863 -0.928810272953 -0.283361763202
13.6553757442 0.239184117805 0.927317254879 -0.21812380829 0.0479247941457 0.923292888074 0.880356236033 -0.554672034901 1.13661189922 -0.928723878448 -0.283723090473
13.7058455063 0.235324200642 0.928358098317 -0.215981275651 0.0501939509544 0.921601041189 0.881539692168 -0.556086251162 1.137165387 -0.928602601611 -0.284094641346
13.7523929802 0.23147615517 0.929395418683 -0.213835364981 0.0524718471787 0.919906085225 0.882722367042 -0.557498113343 1.13771616998 -0.928493317145 -0.28446373702
13.7956740923 0.227640035833 0.930429324707 -0.211686129133 0.0547584841631 0.918208061539 0.883904236677 -0.558907610793 1.13826419945 -0.928395929832 -0.284830370998
13.836319536 0.223815895703 0.931459926015 -0.209533621536 0.0570538626932 0.916507012675 0.885085277038 -0.560314733987 1.13880942661 -0.928310343099 -0.285194537788
13.8780648302 0.220003786547 0.932487333331 -0.207377896572 0.0593579827749 0.914802981773 0.886265464401 -0.561719473379 1.13935180279 -0.9282364592 -0.285556231491
13.9232138239 0.216119800579 0.933410522514 -0.2052103611 0.0615981133209 0.913093595864 0.887460478063 -0.563128315164 1.13991693735 -0.928127850363 -0.285927834975
13.9714704313 0.212247788195 0.934330599325 -0.20303961958 0.0638470799103 0.911381061809 0.888654684789 -0.564534801072 1.14047928047 -0.928031134069 -0.286296915265
14.0240840782 0.208387799851 0.935247674559 -0.20086572526 0.0661048834162 0.909665420619 0.889848060875 -0.565938921885 1.14103878319 -0.927946214541 -0.28666346787
14.0821409961 0.204539884624 0.936161859948 -0.198688732111 0.068371524062 0.907946714282 0.891040582708 -0.567340669079 1.14159539659 -0.927872994729 -0.287027488748
14.1359280981 0.200704090169 0.937073268095 -0.196508694744 0.0706470014568 0.906224985896 0.892232226704 -0.568740035057 1.14214907171 -0.927811376296 -0.28738897458
14.1900826883 0.196799859557 0.93787818865 -0.194316336902 0.0728583520323 0.90449805325 0.893438645091 -0.570142915567 1.14272562668 -0.927715174748 -0.28776003894
14.250461145 0.192907690105 0.938680412526 -0.192120944531 0.0750786326877 0.9027679289 0.894644232116 -0.571543438545 1.14329930177 -0.927630763243 -0.28812851411
14.3203406034 0.189027628213 0.939480052509 -0.189922571384 0.0773078437456 0.901034653378 0.895848964419 -0.572941595949 1.14387004785 -0.927558045471 -0.288494397224
14.407964877 0.185159718807 0.940277222139 -0.187721271701 0.0795459849968 0.899298268615 0.897052818542 -0.574337381153 1.14443781574 -0.927496923796 -0.288857686691
14.5514046428 0.181304005414 0.941072035935 -0.185517100623 0.0817930554638 0.897558817212 0.898255771293 -0.575730787646 1.14500255635 -0.927447299401 -0.289218380657
14.6403402428 0.177383365733 0.941758202615 -0.183300115147 0.0839758825541 0.895814311529 0.899473440355 -0.577127101097 1.14559027744 -0.927363217623 -0.289588304371
14.710442213 0.173474860188 0.942442092798 -0.181080266112 0.0861677310588 0.894066566174 0.900690254699 -0.578521055535 1.14617502815 -0.927290820465 -0.289955574691
14.7806146423 0.169578531026 0.943123821099 -0.178857607743 0.088368600744 0.892315621281 0.901906191261 -0.579912644246 1.1467567591 -0.927230011056 -0.290320190481
14.8683173548 0.165694418987 0.943803502847 -0.176632194768 0.0905784908275 0.890561518394 0.903121226904 -0.581301861898 1.14733542095 -0.927180691239 -0.290682151819
15.0108534708 0.161822563313 0.944481254158 -0.174404082566 0.092797399887 0.888804300194 0.904335338559 -0.582688704062 1.14791096438 -0.927142761626 -0.291041459411
15.0996116935 0.157889356716 0.945048310855 -0.172162677792 0.0949519695119 0.887042176502 0.905564102089 -0.584077825511 1.14850956706 -0.927070483751 -0.291409629998
15.1698605245 0.153968342436 0.945613515384 -0.169918580107 0.0971156488926 0.88527676021 0.906791988697 -0.585464585659 1.14910510645 -0.927009781943 -0.291775083391
15.2402572656 0.150059558381 0.946176983791 -0.167671843794 0.099288437452 0.883508091919 0.908018975255 -0.586848980548 1.14969753291 -0.926960558677 -0.292137821758
15.3281145835 0.146163041036 0.946738833081 -0.165422524134 0.101470333778 0.881736212689 0.909245038976 -0.588231005999 1.15028679688 -0.926922715276 -0.292497846614
15.4697364202 0.142278825373 0.947299181037 -0.163170677119 0.103661335772 0.879961164582 0.910470157193 -0.589610658525 1.15087284888 -0.92689615185 -0.292855159852
15.5585527243 0.13833689587 0.947746900884 -0.160905074829 0.10578792252 0.878181358074 0.911709856297 -0.590991942074 1.1514820159 -0.926835332095 -0.293220950747
15.6289034615 0.134407201691 0.948193196191 -0.15863694938 0.107923704535 0.876398202082 0.912948656836 -0.592370862882 1.1520880239 -0.926785976312 -0.2935839627
15.6994558301 0.130489776438 0.948638184556 -0.156366355577 0.110068680617 0.874611736834 0.91418653598 -0.593747418335 1.15269082302 -0.926747986431 -0.293944199482
15.7874204149 0.126584652226 0.949081984412 -0.154093349094 0.112222848792 0.872822003245 0.915423471142 -0.595121605999 1.15329036349 -0.926721263203 -0.294301664655
15.9277938551 0.122691859617 0.949524714893 -0.151817986281 0.114386206409 0.871029043322 0.916659439841 -0.596493424245 1.15388659565 -0.92670570619 -0.294656362278
16.0157629723 0.118745048151 0.949852999655 -0.149528420758 0.116485092909 0.869231469682 0.917909911699 -0.597866203904 1.15450597435 -0.92665596696 -0.295019132652
16.0854735974 0.114810499677 0.950180290422 -0.14723650117 0.118593257062 0.867430485174 0.919159463991 -0.599236619289 1.15512209514 -0.926617575834 -0.295379063016
16.1457163564 0.110888243435 0.950506706225 -0.144942282916 0.120710696987 0.865626129498 0.920408074204 -0.600604668962 1.15573490791 -0.926590434164 -0.295736158502
16.2113960252 0.106978307067 0.950832366686 -0.142645821941 0.122837410194 0.863818443755 0.921655719855 -0.601970352735 1.15634436272 -0.926574442137 -0.296090425204
16.2908443324 0.103080716678 0.95115739219 -0.140347175047 0.124973393408 0.86200746972 0.922902378698 -0.603333670606 1.15695040971 -0.926569498767 -0.296441869011
16.4033094884 0.0991328563938 0.951366271887 -0.138033892884 0.127044869361 0.860192023908 0.924163455861 -0.60469725878 1.1575796092 -0.926530428741 -0.296800960749
16.485372758 0.0951972712117 0.951574590476 -0.135718425059 0.129125702088 0.85837310127 0.925423592936 -0.606058480999 1.15820544831 -0.926502586823 -0.297157151729
16.5526665076 0.0912739858894 0.951782468131 -0.133400827357 0.131215889119 0.856550741488 0.926682767568 -0.607417337792 1.15882787676 -0.926485873781 -0.297510449247
16.6190203783 0.0873630236329 0.951990025745 -0.1310811564 0.133315427207 0.854724984943 0.927940957621 -0.608773829935 1.15944684429 -0.926480189211 -0.297860860467
16.6987306062 0.0834644059691 0.95219738465 -0.128759469232 0.135424312547 0.852895873721 0.929198140939 -0.610127959863 1.16006230094 -0.92648543159 -0.298208393921
16.8111798636 0.0795193173764 0.952287016679 -0.126422728715 0.137468673984 0.85106242957 0.930469650234 -0.611481647323 1.16070088908 -0.926456583557 -0.298563130088
16.8927684716 0.0755865002501 0.952376522264 -0.124083970263 0.139522467881 0.84922543789 0.931740199253 -0.612832966821 1.16133601039 -0.926438839127 -0.298914904559
16.9595837009 0.0716659748456 0.952466022657 -0.121743250215 0.141585691067 0.847384937955 0.93300976588 -0.614181920362 1.16196761426 -0.926432098444 -0.299263726206
17.0279001394 0.0677577597516 0.952555639569 -0.119400625417 0.143658339764 0.845540970556 0.934278328041 -0.615528511325 1.16259565036 -0.926436260557 -0.299609604955
17.1126127377 0.0638618719558 0.95264549533 -0.117056153518 0.145740409418 0.843693577239 0.935545863867 -0.616872743439 1.16322006844 -0.926451223357 -0.299952550688
17.2422652789 0.0599233582177 0.952616163607 -0.11469622443 0.147757957708 0.841841986025 0.936827625476 -0.618215797969 1.16386756853 -0.926432111813 -0.300302232391
17.3273400657 0.0559970963906 0.952587141293 -0.112334444471 0.149785010536 0.83998677161 0.938108406793 -0.619556482031 1.16451149075 -0.926423974409 -0.300648890746
17.3956537286 0.0520831021016 0.952558550388 -0.10997087029 0.151821564146 0.838127973527 0.939388185792 -0.620894800055 1.16515178439 -0.926426710713 -0.300992537132
17.4544715133 0.0481813893636 0.952530513463 -0.107605559315 0.153867614012 0.836265632109 0.940666940641 -0.622230756894 1.16578839881 -0.926440219148 -0.301333182971
17.5069614144 0.0442919704883 0.952503153479 -0.105238569491 0.15592315498 0.834399789178 0.941944649585 -0.623564358724 1.16642128368 -0.92646439708 -0.301670840645
17.5554330423 0.0403638126572 0.952355267181 -0.102855732656 0.157914195956 0.832529878707 0.94323647587 -0.62489602473 1.16707717085 -0.926454495582 -0.302014744704
17.6005028048 0.0364478710592 0.95220812662 -0.100471211212 0.159914809855 0.830656264604 0.944527301766 -0.626225317669 1.16772936416 -0.926455433373 -0.302355563086
17.6467932336 0.0325441566942 0.95206185448 -0.0980850623101 0.161924992206 0.828778986188 0.945817105422 -0.627552243832 1.16837781261 -0.926467109385 -0.302693309013
17.6962672718 0.0286526788976 0.951916573895 -0.0956973437702 0.163944737822 0.826898083857 0.947105865141 -0.628876810301 1.16902246542 -0.926489421454 -0.303027996122
17.7504600511 0.0247734453261 0.951772408423 -0.0933081140761 0.165974040791 0.825013599084 0.948393559375 -0.630199024961 1.16966327199 -0.92652226633 -0.303359638469
17.8127114429 0.0208593976337 0.951506500553 -0.0909026610347 0.167938883785 0.823125172423 0.949695253666 -0.631518522744 1.17032696935 -0.92652100457 -0.303697014459
17.8671157505 0.0169575142758 0.951241774677 -0.0884956890157 0.16991336413 0.821232956282 0.950995927273 -0.632835644107 1.17098685113 -0.926530441274 -0.304031240658
17.9165673473 0.0130678015355 0.950978353886 -0.086087255523 0.171897476699 0.819336990228 0.952295558451 -0.634150397829 1.17164286624 -0.92655047479 -0.304362332692
17.9625473705 0.00919026407111 0.950716361784 -0.083677418921 0.173891215536 0.817437314316 0.953594125677 -0.635462792802 1.17229496356 -0.926581002291 -0.304690305918
18.0079291643 0.00532490480541 0.95045592225 -0.0812662380957 0.175894574029 0.815533970075 0.954891607545 -0.636772839202 1.17294309237 -0.926621919948 -0.305015176585
18.0569729873 0.00142869005331 0.950072648107 -0.0788384710326 0.177833530741 0.813626803437 0.956202962901 -0.638079363429 1.17361396647 -0.926628680374 -0.305345242778
18.1104449681 -0.00245542866336 0.949690991364 -0.0764093498299 0.179782185186 0.811715756342 0.957513276803 -0.639383507673 1.17428089709 -0.926645991959 -0.305672093346
18.1699161571 -0.00632744979015 0.949311075391 -0.0739789324456 0.181740531505 0.809800868355 0.958822527651 -0.640685282962 1.17494383294 -0.926673752422 -0.305995745987
18.2387446414 -0.0101873733826 0.948933024064 -0.0715472777812 0.183708562956 0.807882179212 0.960130694067 -0.641984700123 1.17560272259 -0.926711858235 -0.306316217845
18.3238536311 -0.0140352012763 0.948556961415 -0.0691144451597 0.185686272182 0.805959730423 0.961437754788 -0.643281771615 1.1762575151 -0.926760204972 -0.306633527274
18.4576989037 -0.0179098964013 0.948057096574 -0.0666646764847 0.187599655696 0.804033571997 0.962758552487 -0.644574491138 1.17693487139 -0.926774319218 -0.30695546756
18.5434044916 -0.0217725802642 0.947559283076 -0.0642137178636 0.189522793016 0.802103436386 0.964078287319 -0.645864826378 1.17760814927 -0.926798830133 -0.307274123588
18.612122921 -0.0256232560583 0.947063644399 -0.0617616277537 0.191455677508 0.800169363035 0.965396937819 -0.647152790567 1.17827729717 -0.926833634751 -0.307589515006
18.6710819023 -0.0294619285939 0.946570304474 -0.0593084655569 0.193398301638 0.798231391478 0.966714482729 -0.648438396709 1.17894226335 -0.926878628839 -0.307901660911
18.7237630783 -0.033288604488 0.946079387292 -0.0568542910454 0.195350657275 0.796289563192 0.968030900921 -0.649721659621 1.1796029967 -0.926933707342 -0.30821058175
18.7722192458 -0.0371381339393 0.94546382559 -0.0543828434099 0.197238780795 0.79434413059 0.969360908949 -0.650999715867 1.18028607404 -0.926954452031 -0.308523540716
18.8172753588 -0.040975753501 0.944850746925 -0.0519103693081 0.19913670974 0.792394618362 0.9706898318 -0.652275383074 1.18096493034 -0.926985431064 -0.308833143624
18.8595886174 -0.0448014710571 0.944240274849 -0.0494369279526 0.201044436532 0.790441064982 0.972017648146 -0.65354867587 1.18163951333 -0.927026540536 -0.309139411253
18.8997230823 -0.0486152962496 0.943632533036 -0.0469625790792 0.202961952911 0.788483510358 0.973344336821 -0.654819610162 1.18230977121 -0.927077675623 -0.309442365231
18.9377906875 -0.0524172404941 0.943027645244 -0.0444873829225 0.20488924994 0.786521995913 0.974669876827 -0.656088203189 1.18297565266 -0.927138730618 -0.309742028079
18.9745539832 -0.0562380034283 0.942297396326 -0.0419945890155 0.206752425602 0.784556974222 0.976008848149 -0.657350709472 1.18366361761 -0.927165322857 -0.310045106457
19.0097737505 -0.060046974416 0.941570059353 -0.039500931767 0.208625453456 0.782587763345 0.977346710847 -0.65861082027 1.18434720976 -0.927201978183 -0.310344751955
19.0438519983 -0.063844166141 0.940845757563 -0.0370064708649 0.210508325105 0.78061440171 0.978683443678 -0.659868552743 1.18502637656 -0.927248591938 -0.310640987448
19.0768255291 -0.0676295930687 0.940124614221 -0.0345112664644 0.21240103149 0.778636929364 0.980019025581 -0.66112392551 1.18570106602 -0.927305058634 -0.310933836811
19.1084140981 -0.0714032713523 0.939406752782 -0.0320153794783 0.214303562726 0.776655386908 0.98135343566 -0.662376957593 1.18637122616 -0.927371271643 -0.311223323981
19.1410871902 -0.0751917164933 0.938562939682 -0.0295015823326 0.216142100066 0.774670424914 0.982701106336 -0.663622996725 1.18706316583 -0.92740286354 -0.311515571943
19.1746467236 -0.0789685043177 0.937722463756 -0.0269870844826 0.21799053137 0.772681157263 0.984047643481 -0.664866632816 1.18775057106 -0.927444337553 -0.311804304898
19.2091165843 -0.0827336523542 0.936885447659 -0.0244719460045 0.219848847442 0.770687622694 0.985393025948 -0.666107885988 1.18843338919 -0.927495588351 -0.312089548079
19.2445213047 -0.0864871797905 0.936052014242 -0.021956227793 0.221717038224 0.768689860234 0.986737232738 -0.667346776562 1.18911156737 -0.927556509378 -0.312371326618
19.2812497454 -0.0902291076247 0.935222286253 -0.0194399911426 0.223595093013 0.766687910726 0.988080243058 -0.668583326529 1.18978505349 -0.927626993357 -0.312649666821
19.3195788186 -0.0939817377426 0.934266142363 -0.0169055440021 0.225409297589 0.764682618534 0.98943633012 -0.669811950177 1.19047996845 -0.927662666367 -0.312930078139
19.359739546 -0.0977228618881 0.93331375642 -0.0143705584141 0.227233432625 0.762672896729 0.990791256972 -0.671038161854 1.19117017623 -0.927708029734 -0.313206885814
19.4022401056 -0.10145250236 0.932365250433 -0.0118350950758 0.229067487966 0.760658783512 0.992145002519 -0.672261983953 1.19185562349 -0.927762977131 -0.313480116713
19.4472166856 -0.105170683176 0.931420746421 -0.00929921531907 0.230911452687 0.758640318002 0.993497545842 -0.673483439714 1.19253625713 -0.927827401232 -0.313749798172
19.4962556438 -0.108877430131 0.930480366298 -0.00676298095835 0.23276531516 0.756617540794 0.994848866231 -0.674702553732 1.19321202463 -0.927901193916 -0.314015958416
19.549984747 -0.11259080631 0.929413232346 -0.00420824768674 0.234555486805 0.754591485416 0.996213065309 -0.675912779991 1.19390882002 -0.927939951945 -0.314283462197
19.609999905 -0.116292844598 0.928350271828 -0.00165313793003 0.236355619829 0.752560868478 0.997576075377 -0.677120583843 1.19460072304 -0.927988196619 -0.314547265932
19.6800302555 -0.119983572043 0.927291605913 0.000902286941896 0.238165703063 0.750525727426 0.998937875352 -0.678325989909 1.1952876795 -0.928045820462 -0.314807397965
19.7717216715 -0.123663017465 0.926237355618 0.00345796508625 0.239985724636 0.748486101206 1.00029844437 -0.679529024217 1.19596963583 -0.928112715235 -0.315063887575
20.0 -0.127331211425 0.925187641836 0.00601383410394 0.241815671927 0.746442029904 1.00165776177 -0.680729713892 1.19664653885 -0.928188771814 -0.315316764717
