liuchen18/hilsys_new/sim_sys/data/fwx_planned_trajectory_cezheng.txt
this is the FWX joint values,the following info is time,x,y,theta,joint1,joint2,joint3,joint4,joint5,joint6,joint7
0.0 2.42665275469 0.150812975921 -0.17971782816 -0.0888854885399 1.12473108684 0.747959594246 0.0862072660773 0.626546167747 -1.11961701525 -0.410489704859
0.0887870932287 2.42247686637 0.151121729213 -0.180105007365 -0.0894497347968 1.12468473127 0.748342203427 0.0862641033988 0.626916959252 -1.11885309939 -0.410540759545
0.154352814246 2.41830162422 0.151431387078 -0.18049384731 -0.0900158843618 1.12463829093 0.748725541095 0.0863205769324 0.62728842686 -1.11808684461 -0.410592526111
0.209047020248 2.41412697601 0.151741731845 -0.180883918479 -0.090583599716 1.12459164784 0.749109645402 0.0863766733166 0.62766067309 -1.11731768193 -0.41064408716
0.257097417501 2.40995296693 0.152052944362 -0.181275600998 -0.0911531884519 1.12454489368 0.749494492765 0.0864323179742 0.628033611803 -1.1165460439 -0.410696439011
0.30059040763 2.40577957261 0.15236488424 -0.1816685782 -0.0917243934052 1.12449796188 0.749880098244 0.0864876632991 0.628407318669 -1.11577160691 -0.410748516754
0.340749233974 2.40160682451 0.152677693434 -0.182063174001 -0.0922974823492 1.12445091846 0.750266449977 0.0865425497154 0.628781720891 -1.11499468029 -0.410801395707
0.384443938176 2.39673917206 0.153043556811 -0.182525058101 -0.0929679728363 1.12439585467 0.750718086254 0.0866062370244 0.62921942767 -1.11408499973 -0.410862751726
0.42518970538 2.39187260321 0.15341041766 -0.182988971709 -0.0936409184643 1.12434056007 0.751170759765 0.0866691886117 0.629658121757 -1.1131716113 -0.410925055134
0.463567139838 2.3870069117 0.153778369715 -0.183454881464 -0.0943162675843 1.12428506893 0.751624463018 0.0867316317743 0.630097819877 -1.11225459686 -0.410987672823
0.500075335814 2.38214210207 0.15414741376 -0.183922796954 -0.0949940327277 1.12422937922 0.752079199782 0.0867935420376 0.630538523521 -1.11133393807 -0.41105066613
0.535152591195 2.37727818012 0.154517551139 -0.184392723695 -0.0956742220522 1.12417349057 0.752534972414 0.0868549159523 0.630980235065 -1.11040962408 -0.41111403734
0.568854953214 2.37241515162 0.154888783144 -0.184864667397 -0.0963568439391 1.12411740254 0.752991783338 0.0869157490358 0.631422956842 -1.10948164366 -0.411177791591
0.601237678313 2.36755281102 0.155261203398 -0.185338602401 -0.0970418546435 1.12406114469 0.753449628038 0.0869762336736 0.631866704746 -1.10855006372 -0.411241397194
0.632660755828 2.36269159621 0.155634622761 -0.18581460367 -0.0977293748501 1.12400465314 0.753908525266 0.087035935828 0.632311452491 -1.10761470387 -0.41130603329
0.663153960298 2.35783129405 0.156009141342 -0.186292633466 -0.0984193468257 1.12394796315 0.754368466091 0.0870951127892 0.632757218709 -1.10667565404 -0.411370986207
0.69274477931 2.35297190878 0.156384759505 -0.186772702827 -0.0991117847706 1.1238910722 0.754829454737 0.0871537319039 0.633204004457 -1.10573289327 -0.411436339619
0.72117557526 2.34811344635 0.156761478438 -0.18725481735 -0.0998066970092 1.12383397992 0.755291493555 0.087211789153 0.633651812061 -1.1047864105 -0.411502097131
0.749040843454 2.34325591273 0.157139299298 -0.187738982661 -0.100504091911 1.12377668594 0.755754584901 0.0872692803373 0.634100643836 -1.10383619463 -0.411568262815
0.776353090703 2.33839908435 0.157518325625 -0.188225172068 -0.101203922435 1.12371922038 0.756218724169 0.0873264115665 0.634550517083 -1.10288231563 -0.411634270244
0.803120727035 2.33354342616 0.157898351894 -0.188713461588 -0.101906314247 1.12366151959 0.756683930101 0.0873827272328 0.635001403139 -1.10192458979 -0.411701351162
0.829355808643 2.32868871661 0.158279484311 -0.18920381343 -0.102611208092 1.12360361805 0.757150193777 0.0874384927653 0.635453321603 -1.10096310714 -0.411768772763
0.855068907336 2.32383496004 0.158661723013 -0.189696238634 -0.103318618289 1.12354551335 0.757617519377 0.0874936747523 0.635906273417 -1.09999784677 -0.411836620243
0.88027037698 2.31898216256 0.159045069022 -0.190190742845 -0.104028553293 1.12348720511 0.758085909231 0.0875482687283 0.636360260854 -1.09902879749 -0.411904898167
0.905217361858 2.31413033033 0.159429523333 -0.190687331705 -0.104741021573 1.123428693 0.758555365662 0.0876022702076 0.636815286183 -1.09805594812 -0.411973611116
0.929913617106 2.30927923099 0.15981519573 -0.191185978555 -0.105455974655 1.12337000639 0.759025884094 0.087655892324 0.637271367551 -1.09707936877 -0.412042176274
0.954359226662 2.30442934759 0.160201867599 -0.191686759221 -0.106173541235 1.12331108331 0.75949748308 0.0877086648302 0.637728474451 -1.09609887567 -0.412111858639
0.978557879394 2.29958044992 0.1605896516 -0.192189635893 -0.106893660478 1.12325195739 0.759970153685 0.0877608616824 0.638186627466 -1.09511455885 -0.412181905476
1.00251205075 2.29473254239 0.160978547603 -0.19269461972 -0.107616346943 1.12319262627 0.760443900082 0.0878124480305 0.638645827385 -1.09412639727 -0.412252405346
1.0262241764 2.28988563132 0.161368556478 -0.193201716246 -0.108341609059 1.12313308964 0.760918724524 0.0878634197207 0.63910607646 -1.09313437988 -0.412323361659
1.04969667143 2.28503972303 0.161759679043 -0.193710931117 -0.109069455385 1.12307334719 0.761394629296 0.087913771986 0.639567376905 -1.09213849544 -0.412394779477
1.07293311425 2.2801945761 0.162152031664 -0.194222237903 -0.109799836128 1.12301342741 0.761871609883 0.0879637244559 0.640029747691 -1.09113881387 -0.412466061293
1.09593349602 2.2753506922 0.162545381881 -0.19473571203 -0.110532882995 1.12295327024 0.762349684641 0.0880127921149 0.640493156444 -1.09013515165 -0.412538505174
1.11870133628 2.27050783223 0.162939849187 -0.195251315704 -0.111268533506 1.12289290835 0.76282884459 0.0880612578898 0.640957624752 -1.0891275988 -0.41261133753
1.14123896614 2.26566600066 0.163335433174 -0.195769060139 -0.112006802417 1.12283233945 0.76330909388 0.0881090856194 0.641423153251 -1.08811613419 -0.412684649883
1.16354868286 2.26082520399 0.163732134524 -0.196288950878 -0.112747698244 1.12277156329 0.76379043472 0.0881562708589 0.641889744133 -1.08710074674 -0.412758446145
1.18563275721 2.25598544873 0.164129953878 -0.196810993496 -0.113491229557 1.12271057958 0.764272869325 0.0882028089256 0.642357399574 -1.0860814253 -0.412832730832
1.20749460707 2.25114648413 0.164529014563 -0.197335161825 -0.114237345178 1.12264941584 0.764756393217 0.088248926316 0.64282613938 -1.08505823951 -0.412906890971
1.22913413528 2.24630883104 0.164929069486 -0.197861530695 -0.114986179829 1.12258801416 0.76524102456 0.088294122994 0.643295929293 -1.08403100648 -0.412982257825
1.25055470229 2.24147224112 0.165330245321 -0.198390062578 -0.11573766955 1.12252640608 0.765726754363 0.0883386901174 0.643766791859 -1.08299981571 -0.413058039299
1.27175850229 2.236636719 0.165732541408 -0.198920768528 -0.116491829053 1.12246458946 0.766213586681 0.0883825913905 0.644238727614 -1.08196464643 -0.413134326598
1.29274770001 2.23180227129 0.166135958201 -0.199453654194 -0.117248667065 1.12240256404 0.766701523709 0.0884258213863 0.644711738651 -1.08092548733 -0.413211126008
1.31331872442 2.22696890471 0.166540496154 -0.199988725063 -0.118008192147 1.12234032961 0.767190567583 0.0884683755622 0.645185827103 -1.07988232735 -0.413288441344
1.33388625728 2.22213635892 0.16694628595 -0.200525955299 -0.118770351707 1.1222779126 0.767680713845 0.0885104874801 0.645661013614 -1.07883523579 -0.413365643875
1.35444799546 2.21730517443 0.167353065018 -0.201065418978 -0.11953528354 1.12221525743 0.76817198049 0.0885516415272 0.646137262014 -1.07778403058 -0.413444098993
1.37500503604 2.21247509351 0.167760967654 -0.201607078765 -0.120302922009 1.12215239449 0.768664358443 0.0885921382383 0.646614595849 -1.07672880087 -0.413522993278
1.39555736135 2.20764612082 0.168169992872 -0.202150945793 -0.121073282053 1.12208932169 0.76915785174 0.0886319396834 0.647093015478 -1.07566952582 -0.413602421689
1.41610494046 2.20281826317 0.168580140928 -0.202697025611 -0.121846372383 1.12202603885 0.769652462492 0.0886710405853 0.647572522945 -1.07460619424 -0.413682389762
1.43664774392 2.19799152746 0.168991412063 -0.203245323643 -0.122622201586 1.12196254579 0.770148192762 0.0887094363196 0.648053120321 -1.07353879512 -0.413762901206
1.45718692331 2.19316564347 0.169403944718 -0.203795814525 -0.123400715697 1.12189886775 0.77064503811 0.0887473673575 0.648534829069 -1.07246739721 -0.413843312232
1.47772009154 2.18834117193 0.169817459975 -0.204348571334 -0.124182055555 1.12183495177 0.771143016369 0.0887843023725 0.649017611104 -1.07139181962 -0.413925022102
1.49824838545 2.18351784541 0.170232100168 -0.204903557073 -0.124966153884 1.12177082686 0.771642118369 0.0888205511973 0.649501490956 -1.0703121509 -0.414007196647
1.51877178738 2.17869566865 0.170647863983 -0.205460782859 -0.125753025753 1.12170649109 0.772142348099 0.0888560747106 0.64998646882 -1.06922837034 -0.414089933305
1.53929026493 2.17387464863 0.171064751452 -0.206020254163 -0.126542679884 1.12164194432 0.772643707586 0.0888908675696 0.650472546673 -1.0681404668 -0.414173237442
1.55980378865 2.16905479243 0.171482762588 -0.206581976358 -0.127335124909 1.12157718642 0.773146198822 0.0889249249335 0.650959726512 -1.06704842932 -0.41425711301
1.58031355429 2.1642358197 0.171902044028 -0.207145924597 -0.128130305417 1.1215122413 0.773649817348 0.0889584946233 0.651448030628 -1.06595232602 -0.414340900249
1.60081708346 2.15941831188 0.172322299591 -0.207712170738 -0.128928365305 1.12144705889 0.774154580859 0.0889910292098 0.651937419011 -1.06485197754 -0.414426032691
1.62131555865 2.15460199164 0.172743680094 -0.208280678233 -0.12972923565 1.12138166671 0.774660480064 0.0890228480201 0.652427917162 -1.06374747166 -0.41451165525
1.64180895926 2.14978686371 0.173166183859 -0.208851458214 -0.130532931698 1.12131606296 0.775167518916 0.0890539103723 0.652919525091 -1.0626387877 -0.414597868786
1.66229725584 2.14497293531 0.173589810697 -0.209424516006 -0.131339462107 1.12125024755 0.775675699333 0.0890842112353 0.65341224472 -1.06152591473 -0.414684677462
1.6827804145 2.14016021366 0.174014560367 -0.209999856948 -0.132148835575 1.12118422041 0.776185023232 0.0891137453647 0.653906077954 -1.06040884178 -0.414772085963
1.70325967519 2.13534840803 0.174440588156 -0.210577456797 -0.132960995219 1.12111800401 0.776695486113 0.0891427681425 0.654401047903 -1.05928763625 -0.414859418284
1.72373247263 2.13053812108 0.174867579661 -0.211157385968 -0.133776088011 1.12105155141 0.777207105564 0.0891707155943 0.65489711263 -1.05816212059 -0.414948142728
1.74420003055 2.12572906531 0.175295694649 -0.211739608457 -0.134594043358 1.12098488853 0.777719872135 0.0891979168451 0.655394298598 -1.05703238169 -0.415037382866
1.76466232833 2.12092124548 0.175724931068 -0.212324135351 -0.135414876614 1.12091801368 0.778233789723 0.0892243299035 0.655892605636 -1.05589839902 -0.415127242238
1.78511933358 2.11611466899 0.176155288476 -0.212910971876 -0.136238596437 1.12085092686 0.778748860148 0.089249949652 0.656392035585 -1.05476016175 -0.415217724865
1.80557101538 2.11130934322 0.176586766372 -0.213500123293 -0.137065211543 1.12078362805 0.779265085237 0.0892747706419 0.656892590259 -1.05361765898 -0.415308835607
1.82601865783 2.10650496681 0.177019529157 -0.214091566095 -0.137894663586 1.12071613813 0.779782460427 0.0892990558222 0.657394293569 -1.0524709572 -0.415399882514
1.84645960141 2.10170216412 0.177453243212 -0.214685368963 -0.138727102585 1.1206484136 0.780301003223 0.0893222244953 0.657897101663 -1.05131988111 -0.415492368414
1.86689511551 2.09690063724 0.177888077737 -0.215281496588 -0.139562456289 1.12058047859 0.780820703987 0.0893446156616 0.658401041939 -1.05016451644 -0.415585395736
1.88732517952 2.09210039097 0.178324030288 -0.215879959965 -0.140400740125 1.1205123316 0.781341566548 0.0893661861079 0.658906114049 -1.0490048429 -0.415679070396
1.90774976102 2.08730143284 0.178761100142 -0.216480764259 -0.141241962793 1.12044397266 0.781863592637 0.0893869303272 0.659412319725 -1.0478408497 -0.415773397073
1.92816882763 2.08250377043 0.179199286528 -0.2170839146 -0.142086132973 1.12037540182 0.782386783964 0.0894068429099 0.659919660697 -1.04667252612 -0.415868380128
1.9485837091 2.07770709147 0.179638763464 -0.217689388307 -0.14293319082 1.12030663825 0.782911135872 0.0894261946724 0.660428161664 -1.04549993761 -0.415963311197
1.96899165315 2.07291204254 0.180079177068 -0.218297252069 -0.143783289399 1.12023764219 0.783436665822 0.0894443877472 0.660937776872 -1.04432291144 -0.416059728062
1.98939397333 2.06811831504 0.180520706472 -0.218907471412 -0.144636354822 1.12016843581 0.783963363954 0.0894617711226 0.661448534622 -1.043141532 -0.416156712141
2.00979064755 2.06332591381 0.180963348822 -0.219520057223 -0.145492402567 1.1200990178 0.784491234024 0.0894783003351 0.661960434381 -1.04195577928 -0.416254371736
2.03018164489 2.05853484653 0.181407103106 -0.220135014543 -0.146351441314 1.12002938825 0.785020277646 0.0894939697933 0.662473477783 -1.04076564264 -0.416352711349
2.05056693296 2.05374512096 0.181851968264 -0.220752348382 -0.147213479725 1.11995954727 0.785550496419 0.0895087739416 0.662987666453 -1.03957111146 -0.416451735324
2.07094788568 2.04895641368 0.182298128427 -0.221372037054 -0.148078456493 1.11988951218 0.786081885566 0.0895229913315 0.663503025842 -1.03837224997 -0.41655071958
2.09132165652 2.0441693939 0.182745208378 -0.221994144913 -0.14894652767 1.11981924727 0.786614462539 0.0895360068701 0.664019508331 -1.03716888846 -0.416651236199
2.11168960617 2.03938374216 0.1831933977 -0.222618638499 -0.149817617757 1.11974877258 0.787148217218 0.0895481795206 0.66453714308 -1.03596110973 -0.416752346071
2.13205171254 2.0345994633 0.183642693113 -0.223245528527 -0.150691742235 1.11967808699 0.787683153273 0.089559463771 0.665055929381 -1.03474889416 -0.416854159284
2.15240794175 2.02981656518 0.184093093308 -0.223874819893 -0.151568909734 1.11960719069 0.788219272187 0.0895698539988 0.665575868761 -1.03353223125 -0.416956680001
2.17275825993 2.02503505566 0.184544596894 -0.22450651754 -0.15244912897 1.11953608384 0.788756575457 0.0895793440523 0.666096962707 -1.03231111046 -0.417059913722
2.19310409405 2.0202546 0.184997398679 -0.225140600814 -0.153332337054 1.11946478176 0.789295058126 0.0895882209935 0.666619237431 -1.03108559472 -0.417163118959
2.21344249741 2.01547589049 0.185451100966 -0.225777131466 -0.154218693049 1.11939325309 0.789834737693 0.0895958518577 0.667142643462 -1.02985551773 -0.41726790297
2.23377487488 2.01069859656 0.185905904349 -0.226416077166 -0.155108119823 1.1193215156 0.790375603727 0.0896026059839 0.667667210794 -1.02862096053 -0.417373305529
2.25410120733 2.00592272306 0.186361805104 -0.22705744844 -0.156000632834 1.11924956839 0.790917659801 0.0896084367877 0.668192938539 -1.02738190388 -0.417479438504
2.2744214594 2.00114827795 0.18681880157 -0.227701250105 -0.156896240757 1.11917741169 0.79146090729 0.0896133380055 0.668719828072 -1.02613833738 -0.41758630731
2.2947355987 1.99637526929 0.187276892054 -0.228347486893 -0.157794952188 1.11910504576 0.792005347533 0.089617303794 0.669247880782 -1.02489025074 -0.417693916193
2.3150450993 1.99160335071 0.187736282562 -0.22899613943 -0.158696702782 1.11903248376 0.792550975388 0.089620629121 0.66977712357 -1.02363770531 -0.417801508241
2.33534691292 1.98683323801 0.188196551753 -0.229647266497 -0.159601654548 1.11895969901 0.793097808453 0.089622663016 0.670307505164 -1.02238053861 -0.417910725354
2.35564249597 1.98206458934 0.18865791182 -0.230300837008 -0.160509728665 1.11888670683 0.793645835908 0.0896237857479 0.670839056371 -1.02111882979 -0.418020585237
2.37593182781 1.97729740947 0.189120358531 -0.230956861373 -0.161420940671 1.11881350654 0.794195061264 0.0896239489015 0.67137177607 -1.01985255992 -0.418131203454
2.39621487312 1.97253170657 0.18958388991 -0.231615344186 -0.162335299115 1.11874009847 0.794745485729 0.0896231465116 0.671905665534 -1.01858171888 -0.41824258418
2.41649159803 1.9677674888 0.190048503917 -0.232276290021 -0.163252812544 1.11866648293 0.795297110499 0.0896213725386 0.672440726015 -1.01730629657 -0.418354731722
2.43676352666 1.96300439798 0.190514418333 -0.232939680925 -0.164173415144 1.11859267075 0.795849930201 0.0896189300432 0.672976985062 -1.01602635259 -0.418466873646
2.45702751061 1.9582431738 0.190981186972 -0.233605572308 -0.16509727178 1.11851864034 0.796403962576 0.0896151500358 0.673514389679 -1.01474172878 -0.41858068561
2.47728505487 1.95348346293 0.191449034188 -0.234273934593 -0.166024302056 1.11844440433 0.796959196394 0.0896104232776 0.674052971392 -1.01345250206 -0.418695164927
2.49753613736 1.94872527009 0.191917955248 -0.234944777951 -0.166954521463 1.1183699623 0.797515635064 0.0896047001322 0.674592728886 -1.01215865398 -0.418810429169
2.51778072419 1.94396860353 0.192387947813 -0.23561810682 -0.167887938506 1.11829531464 0.798073279646 0.089597974339 0.67513366328 -1.0108601746 -0.418926482813
2.53801877857 1.93921347162 0.192859009499 -0.236293925544 -0.168824561603 1.11822046178 0.798632131158 0.0895902400828 0.675675775707 -1.00955705412 -0.419043329111
2.55825187763 1.93445950412 0.193331370461 -0.236972217758 -0.169764323478 1.11814541204 0.799192183956 0.0895818085817 0.676219094317 -1.0082493502 -0.41916018035
2.57847676989 1.92970746498 0.193804558393 -0.237653035146 -0.170707391835 1.11807014923 0.799753456002 0.089571992325 0.676763564438 -1.0069369094 -0.419278746295
2.59869500893 1.92495698921 0.194278810456 -0.238336349749 -0.17165368463 1.11799468315 0.800315935562 0.0895611933078 0.677309218295 -1.00561980631 -0.41939800249
2.61890657267 1.92020808143 0.194754121362 -0.239022171549 -0.172603217374 1.11791901363 0.80087962597 0.0895493600775 0.677856054334 -1.00429802288 -0.419518069975
2.6391114287 1.91546075006 0.195230488416 -0.239710504739 -0.173555998428 1.11784314116 0.801444528098 0.0895364865947 0.678404073545 -1.0029715495 -0.419638952167
2.65930954022 1.9107150035 0.195707908832 -0.240401353523 -0.174512036199 1.11776706623 0.802010642817 0.0895225664461 0.678953276881 -1.00164037651 -0.419760653377
2.67950253298 1.90597045941 0.196186625794 -0.241094703198 -0.175471261836 1.11769079452 0.802577964124 0.0895079198687 0.679503693087 -1.00030455961 -0.419882368819
2.69968705238 1.90122790626 0.19666613957 -0.241790601332 -0.176433845835 1.11761431561 0.803146510282 0.0894918404373 0.680055265883 -0.998963950515 -0.420005842378
2.71986470062 1.89648696724 0.197146700736 -0.242489021842 -0.177399704602 1.11753763626 0.803716269011 0.0894747410938 0.680608028098 -0.997618621143 -0.42013002915
2.7400354615 1.89174764686 0.197628303461 -0.243189974404 -0.178368853539 1.11746075657 0.804287243529 0.0894565691731 0.681161977976 -0.996268554047 -0.420255051991
2.76019929673 1.88700995369 0.198110944667 -0.243893462981 -0.179341300887 1.11738367713 0.804859434521 0.0894373186435 0.681717116352 -0.994913739893 -0.420380913802
2.78035617098 1.8822738962 0.198594621155 -0.244599491587 -0.180317054984 1.11730639852 0.80543284269 0.0894169827169 0.682273443997 -0.993554169272 -0.420507619343
2.80050776153 1.87753907968 0.199079589752 -0.245308047431 -0.181296045502 1.11722892357 0.806007461643 0.0893958902156 0.682830990169 -0.992189895605 -0.420634348336
2.82065061071 1.87280631749 0.199565321979 -0.246019173478 -0.182278445579 1.11715124803 0.806583310001 0.0893733160206 0.683389697093 -0.990820776328 -0.420762877173
2.84078637079 1.86807522079 0.200052082466 -0.246732845768 -0.183264170153 1.1170733754 0.807160374887 0.0893496838249 0.683949598106 -0.989446880404 -0.420892141598
2.86091502409 1.86334579404 0.200539864836 -0.247449073601 -0.184253234435 1.1169953061 0.807738659379 0.0893249401026 0.68451069127 -0.988068191083 -0.421022265302
2.88103653232 1.85861804583 0.201028665574 -0.248167860756 -0.185245646616 1.11691704078 0.80831816399 0.0892990782517 0.685072977217 -0.986684699251 -0.421153252122
2.90115086015 1.85389198476 0.201518481074 -0.248889210996 -0.186241414894 1.11683858014 0.808898889223 0.0892720914623 0.685636456549 -0.985296395821 -0.421285106343
2.9212597423 1.84916720362 0.202009582484 -0.249613113597 -0.187240467429 1.11675992397 0.809480828226 0.0892443175477 0.686201158987 -0.98390333181 -0.421416991636
2.94135960623 1.84444454084 0.202501411159 -0.250339606529 -0.18824298 1.11668107459 0.810064000091 0.0892150119308 0.686767025335 -0.982505370763 -0.421550717757
2.96145216164 1.8397235955 0.202994246507 -0.251068668093 -0.189248865991 1.11660203202 0.810648391226 0.0891846099661 0.687334089397 -0.981102578571 -0.421685199416
2.98153738938 1.83500437191 0.203488081539 -0.251800307257 -0.190258140505 1.116522797 0.811234004604 0.0891530565309 0.687902349008 -0.979694939116 -0.421820562917
3.00161525264 1.83028687872 0.203982912308 -0.252534527552 -0.191270811603 1.11644337029 0.811820840532 0.0891203448547 0.68847180461 -0.978282443599 -0.421956811986
3.0216857146 1.82557112464 0.204478734786 -0.253271332466 -0.192286887318 1.11636375267 0.812408899295 0.0890864681508 0.689042456625 -0.976865083286 -0.422093950303
3.04175056005 1.8208566898 0.204975835097 -0.254010713594 -0.193306294386 1.11628394074 0.812998173545 0.0890517728526 0.689614335142 -0.975442906524 -0.422231126925
3.06180611634 1.8161444379 0.205473623031 -0.254752703389 -0.194329211065 1.11620394376 0.813588682919 0.089015495142 0.690187379679 -0.974015783528 -0.422370183283
3.08185414026 1.81143395585 0.20597239345 -0.255497282676 -0.195355549268 1.11612375808 0.814180413043 0.0889780818869 0.690761624405 -0.972583776825 -0.422510014096
3.10189461268 1.80672524777 0.206472138741 -0.256244460042 -0.196385323936 1.11604338476 0.814773366771 0.0889394765011 0.691337066929 -0.971146871004 -0.422650747841
3.12192749826 1.80201832237 0.206972854502 -0.256994238755 -0.197418542992 1.11596282467 0.815367544194 0.0888996719624 0.691913707487 -0.969705057603 -0.422792388315
3.14195276017 1.79731318843 0.20747453628 -0.25774662199 -0.198455214265 1.11588207869 0.81596294536 0.0888586616875 0.692491546321 -0.968258328287 -0.422934938131
3.16197223918 1.79260941333 0.207977485866 -0.258501603882 -0.199495263091 1.11580114001 0.816559562361 0.0888168007452 0.693070613804 -0.966806728535 -0.423077532197
3.18198214922 1.7879078862 0.208481080024 -0.259259210863 -0.200538870101 1.11572002528 0.817157415478 0.0887733058982 0.693650848301 -0.965350135728 -0.423222042898
3.20198430307 1.78320818167 0.208985629787 -0.260019426534 -0.201585945786 1.11563872692 0.817756489474 0.0887286356228 0.694232284239 -0.963888608774 -0.42336734541
3.22197868305 1.77851030365 0.209491126889 -0.260782259067 -0.202636504904 1.11555724636 0.81835678708 0.0886827317873 0.694814918999 -0.962422133021 -0.423513570481
3.24196525234 1.77381426092 0.20999756648 -0.261547711412 -0.203690555166 1.11547558457 0.818958308141 0.0886355874858 0.695398752619 -0.960950700418 -0.423660721042
3.26194397267 1.76912006226 0.210504943628 -0.262315786467 -0.204748104256 1.11539374254 0.819561052477 0.0885871957983 0.695983785114 -0.959474302982 -0.423808799972
3.28191673927 1.76442726227 0.21101357654 -0.263086481089 -0.205809076083 1.11531170985 0.820165011535 0.0885379208812 0.696570047081 -0.95799298318 -0.423956927435
3.30187966153 1.75973677558 0.211522807451 -0.26385981516 -0.206873653522 1.11522951094 0.820770206347 0.0884869599503 0.697157475875 -0.956506626067 -0.424107005864
3.32183460228 1.75504816447 0.212032964285 -0.264635775349 -0.207941745741 1.1151471341 0.821376620735 0.0884347829034 0.697746106057 -0.955015286644 -0.424257892076
3.34178154239 1.75036143265 0.212544038127 -0.265414369328 -0.209013367213 1.11506458114 0.821984257281 0.0883813304922 0.698335934801 -0.953518951129 -0.424409717921
3.36172044798 1.74567658887 0.213056023625 -0.266195599769 -0.210088525507 1.11498185312 0.8225931156 0.0883265953188 0.698926961899 -0.952017611833 -0.42456248695
3.38165128077 1.74099364199 0.213568915386 -0.266979469218 -0.211167228062 1.11489895115 0.823203195244 0.0882705707058 0.69951918716 -0.950511261227 -0.424716200855
3.40157599047 1.73631213372 0.214083048752 -0.267765977511 -0.212249397426 1.11481586103 0.823814486951 0.0882136296664 0.700112641299 -0.94899993853 -0.424869966178
3.42149057604 1.73163300418 0.214597729891 -0.268555137448 -0.21333521861 1.11473261538 0.824427012631 0.0881549496011 0.700707260809 -0.947483536967 -0.425025714803
3.44139695333 1.72695580338 0.215113304409 -0.269346938975 -0.214424599424 1.11464919815 0.825040755035 0.0880950125745 0.701303080298 -0.945962107451 -0.425182284099
3.46129510613 1.72228053469 0.215629762665 -0.270141389307 -0.215517554138 1.11456561151 0.825655716633 0.0880337573576 0.701900096691 -0.944435637029 -0.425339809027
3.48118499911 1.71760720692 0.216147098846 -0.270938490731 -0.216614090041 1.11448185668 0.826271896753 0.0879711769306 0.702498309567 -0.942904118505 -0.425498291606
3.50106659398 1.71293582889 0.216665307043 -0.271738245483 -0.217714214393 1.11439793483 0.826889294695 0.0879072642204 0.703097718478 -0.941367544755 -0.42565773389
3.52094189642 1.70826592942 0.217184740501 -0.272540656597 -0.218817848384 1.1143138278 0.827507900403 0.0878424013833 0.703698354175 -0.939825951583 -0.42581722867
3.54080679492 1.70359847415 0.217704667766 -0.273345729207 -0.219925178992 1.11422957683 0.828127736774 0.0877757460814 0.704300152465 -0.938279240913 -0.425978735782
3.56066325984 1.69893300073 0.21822545287 -0.27415345686 -0.221036112791 1.11414516128 0.828748785411 0.0877077921901 0.704903147857 -0.936727459265 -0.426141074807
3.58051127643 1.69426951222 0.218747085453 -0.274963846228 -0.222150663754 1.11406058373 0.829371048649 0.0876384769222 0.705507337048 -0.935170594626 -0.426304382656
3.6003508079 1.68960801743 0.219269559202 -0.27577689923 -0.223268838918 1.1139758455 0.829994525529 0.0875677932938 0.70611271937 -0.933608640277 -0.426468660641
3.62018181594 1.68494852515 0.219792867695 -0.276592617741 -0.224390645303 1.11389094791 0.830619215071 0.0874957341063 0.706719294121 -0.932041589565 -0.426633910499
3.64000636221 1.68029055131 0.220317382841 -0.277411008261 -0.225516002795 1.11380586856 0.831245106349 0.0874226905941 0.707327091974 -0.930469474662 -0.426799212021
3.65982022769 1.67563508693 0.220842333983 -0.278232067651 -0.226645100172 1.11372065779 0.831872223372 0.0873478006992 0.707936048245 -0.928892206714 -0.42696655161
3.6796254328 1.67098165737 0.22136810434 -0.279055793381 -0.227777842876 1.1136352901 0.832500546505 0.0872715699059 0.708546197191 -0.927309827574 -0.427134732343
3.69942196723 1.66633026535 0.221894682845 -0.279882191504 -0.228914244493 1.11354976853 0.833130077922 0.0871939342771 0.709157535301 -0.925722326261 -0.427303891979
3.71920979122 1.66168091964 0.222422062655 -0.280711263566 -0.23005431181 1.11346409448 0.83376081637 0.087114886669 0.70977006164 -0.924129696542 -0.427474031584
3.73898886943 1.65703362895 0.222950236813 -0.281543011066 -0.231198051601 1.11337826941 0.834392760583 0.0870344196506 0.710383775228 -0.922531932256 -0.42764515281
3.75876131504 1.65238789644 0.223479596691 -0.282377444219 -0.232345382467 1.11329226653 0.835025898669 0.0869529337494 0.710998706561 -0.920929061765 -0.427816322553
3.77852280596 1.64774473825 0.224009330806 -0.28321455101 -0.233496494832 1.11320614566 0.835660255891 0.086869547034 0.711614790656 -0.919321005934 -0.427989552759
3.7982754112 1.64310366757 0.224539842368 -0.284054333124 -0.234651293062 1.11311987623 0.836295811261 0.0867847768103 0.712232061379 -0.917707801713 -0.42816363032
3.81801912193 1.63846468675 0.225071119586 -0.284896795956 -0.235809790322 1.11303346172 0.836932566785 0.0866985579551 0.712850515015 -0.916089439202 -0.428338693824
3.83775390132 1.63382780444 0.225603155058 -0.285741940672 -0.236971993153 1.11294690368 0.837570520917 0.0866108829451 0.713470150332 -0.914465912673 -0.428514744587
3.85747971257 1.62919302932 0.226135941305 -0.28658976835 -0.238137908018 1.11286020366 0.838209672067 0.0865217444884 0.71409096608 -0.91283721651 -0.42869178328
3.87719872335 1.62455985177 0.226669889928 -0.287440293217 -0.239307452323 1.11277333028 0.838850007313 0.0864315520562 0.714712992438 -0.911203375043 -0.428868865363
3.89690650553 1.61992931287 0.227204147002 -0.288293493732 -0.240480817933 1.11268635328 0.839491553299 0.0863394040494 0.715336164349 -0.909564319379 -0.429048026415
3.91660518114 1.61530091372 0.227739136546 -0.289149376106 -0.241657908209 1.11259923679 0.840134287565 0.0862458297414 0.715960515142 -0.907920081323 -0.42922803766
3.93629473987 1.61067465622 0.228274845982 -0.290007945072 -0.242838735917 1.11251198476 0.840778211977 0.0861507622779 0.716586040871 -0.906270652076 -0.429409039674
3.95637072409 1.60605054896 0.228811267393 -0.290869201345 -0.244023307252 1.11242459884 0.841423324645 0.0860541944357 0.717212740025 -0.904616026487 -0.429591032409
3.97643733667 1.60142860048 0.22934839273 -0.291733145589 -0.245211628391 1.11233708072 0.842069623661 0.0859561186457 0.71784061105 -0.902956199492 -0.429774016518
3.99649684395 1.59680828856 0.22988665465 -0.292599796312 -0.246403615569 1.11224939422 0.842717094966 0.0858569535651 0.718469683693 -0.901291191208 -0.429957036108
4.01654461753 1.59219067884 0.230425155132 -0.293469121792 -0.24759946191 1.11216161942 0.843365766743 0.0857557779035 0.719099893052 -0.899620943482 -0.430142148983
4.03658287957 1.5875752605 0.230964339817 -0.294341133103 -0.248799069862 1.11207371491 0.844015614939 0.0856531328854 0.71973127175 -0.897945482723 -0.430328111632
4.05661161977 1.58296203494 0.231504195334 -0.295215834259 -0.250002451737 1.11198568513 0.844666641277 0.0855489500188 0.720363815619 -0.896264801299 -0.430515066263
4.07663080279 1.57835101065 0.232044713218 -0.296093225524 -0.251209613388 1.11189753185 0.845318843514 0.0854432221549 0.720997522846 -0.894578894652 -0.430703011986
4.09664039327 1.57374219605 0.232585884877 -0.2969733071 -0.252420560644 1.11180925688 0.845972219392 0.0853359418462 0.721632391573 -0.892887758316 -0.430891948497
4.11664271058 1.56913505643 0.2331281648 -0.297856102088 -0.253635208665 1.11172081904 0.846626753644 0.0852275365243 0.722268450965 -0.891191407988 -0.431080910169
4.13663302618 1.56453068156 0.233670609228 -0.298741567908 -0.254853751618 1.11163230918 0.847282476133 0.0851170654285 0.722905636527 -0.889489796757 -0.431271975026
4.15661360493 1.5599285489 0.234213686235 -0.299629720839 -0.25607609114 1.11154368011 0.847939361105 0.0850050816329 0.723543979996 -0.887782945387 -0.431463885972
4.17658444684 1.55532865939 0.234757381692 -0.300520564102 -0.257302238991 1.11145493676 0.848597410096 0.0848915155791 0.724183477014 -0.886070847495 -0.431656785398
4.19654551215 1.55073102127 0.235301686521 -0.301414097524 -0.25853220073 1.11136608106 0.849256620544 0.0847763595072 0.72482412542 -0.884353499116 -0.431850673139
4.21649676845 1.54613564283 0.235846591583 -0.302310320821 -0.259765981806 1.11127711492 0.849916989815 0.0846596061747 0.725465923042 -0.88263089641 -0.432045547736
4.23644058811 1.54154197712 0.236392574044 -0.30320926197 -0.261003496329 1.11118799196 0.850578501322 0.0845416920925 0.726108898336 -0.880903050489 -0.432240433808
4.25637213806 1.53695113752 0.23693864275 -0.304110866839 -0.262244939295 1.1110988142 0.851241186764 0.0844216571803 0.726752987472 -0.879169926161 -0.432437427728
4.27629373615 1.53236258999 0.237485289009 -0.305015157281 -0.263490211663 1.11100952849 0.851905018578 0.0843000660372 0.727398221114 -0.877431538304 -0.432635260499
4.29620538241 1.5277763349 0.238032497905 -0.305922135689 -0.264739324617 1.11092014024 0.852569998129 0.0841768478265 0.728044594703 -0.875687881824 -0.432834075057
4.31610704001 1.52319238032 0.238580259805 -0.306831801389 -0.26599228332 1.1108306515 0.853236122468 0.0840519949729 0.728692105751 -0.873938953408 -0.433033870122
4.33599867507 1.51861073433 0.239128564971 -0.307744153619 -0.267249092871 1.11074106433 0.853903388607 0.0839254999102 0.729340751736 -0.872184749858 -0.433234644284
4.35608155401 1.514030838 0.23967791407 -0.308659225539 -0.268509666395 1.11065132694 0.854571778536 0.0837978082242 0.729990560259 -0.870425277513 -0.43343541312
4.37615177889 1.50945382767 0.240227266899 -0.309576950758 -0.26977419949 1.11056155295 0.85524132595 0.0836679407002 0.730641468429 -0.868660513374 -0.433638289382
4.39621173825 1.50487915813 0.240777138843 -0.310497357049 -0.271042592517 1.11047168295 0.85591200134 0.0835364736668 0.731293505655 -0.866890466211 -0.433841992664
4.41626143505 1.5003068291 0.241327514165 -0.311420445946 -0.272314856072 1.11038172293 0.856583805916 0.0834033346969 0.731946667176 -0.865115132265 -0.434046667022
4.43630083247 1.49573684846 0.241878382665 -0.312346216261 -0.27359099491 1.11029167502 0.857256736336 0.0832685163064 0.732600950155 -0.8633345089 -0.434252310273
4.45632989959 1.49116922408 0.242429734053 -0.313274666706 -0.274871013699 1.11020154141 0.857930789204 0.0831320112334 0.733256351727 -0.861548593598 -0.434458919632
4.47635113688 1.48660338528 0.24298209326 -0.314205835963 -0.276154824704 1.11011126476 0.858605945023 0.0829942734313 0.733912898467 -0.859757387742 -0.434665503937
4.4963594624 1.48204049068 0.243534369415 -0.315139644654 -0.277442623868 1.11002097064 0.859282239637 0.0828543051018 0.734570528717 -0.857960880986 -0.434874189511
4.51635731772 1.47747998421 0.244087102781 -0.31607612685 -0.278734311087 1.10993059321 0.859959641477 0.0827126939465 0.735229270426 -0.856159075764 -0.435083686321
4.53634470284 1.47292186496 0.244640276826 -0.317015283164 -0.28002989629 1.10984013898 0.860638151572 0.0825693663611 0.735889118651 -0.854351969713 -0.435294138481
4.55632158831 1.46836614051 0.245193880764 -0.31795711188 -0.28132938382 1.10974961023 0.861317766185 0.082424314763 0.736550070186 -0.852539560894 -0.43550554333
4.57628793879 1.4638128185 0.245747903729 -0.318901611176 -0.282632777913 1.10965900925 0.861998481513 0.0822775319644 0.7372121218 -0.850721847497 -0.435717897225
4.59624630776 1.45926131688 0.246302895763 -0.319848825562 -0.28393999001 1.10956827295 0.862680276453 0.0821294805772 0.737875298896 -0.848898825783 -0.435930202329
4.61619151903 1.45471281573 0.246857713691 -0.32079866195 -0.285251216171 1.10947753926 0.863363189164 0.0819791443813 0.738539541344 -0.847070498497 -0.436144596599
4.63612605688 1.45016674849 0.247412923463 -0.321751161081 -0.286566355945 1.10938673568 0.864047185897 0.0818271223416 0.73920487543 -0.845236861524 -0.436359781612
4.65604992868 1.44562311355 0.247968507749 -0.322706322606 -0.287885418556 1.10929586925 0.864732267503 0.0816733396317 0.739871296035 -0.843397913944 -0.436575901514
4.67596310349 1.44108191822 0.248524455185 -0.323664144258 -0.289208407897 1.1092049424 0.865418429828 0.0815177886995 0.740538799572 -0.841553654547 -0.436792952877
4.69586554893 1.43654316979 0.249080754321 -0.324624623664 -0.290535327761 1.10911395753 0.866105668653 0.0813604623513 0.74120738243 -0.839704082252 -0.43701093138
4.71575986561 1.4320062753 0.249637981113 -0.325587811487 -0.291866088845 1.10902284562 0.866793961169 0.0812018317241 0.741877068675 -0.837849188039 -0.437228833537
4.73564078602 1.42747243532 0.250194938482 -0.326553600199 -0.293200887074 1.10893175731 0.867483348022 0.0810408625474 0.742547800014 -0.835988988162 -0.437448806525
4.75551084305 1.42294107331 0.250752218883 -0.32752203758 -0.294539621759 1.10884061322 0.86817379314 0.0808781650744 0.743219600867 -0.834123471753 -0.437669544496
4.77537004259 1.41841218682 0.251309804161 -0.328493122286 -0.295882301399 1.10874942099 0.868865297221 0.0807136629185 0.743892465937 -0.832252639388 -0.437891192229
4.79521835812 1.41388578288 0.251867682395 -0.329466851473 -0.297228929398 1.10865818314 0.869557855664 0.0805473488488 0.744566391253 -0.830376490604 -0.438113744905
4.81505575579 1.40936186846 0.252425841559 -0.3304432222 -0.298579509081 1.10856690221 0.87025146382 0.0803792156922 0.745241372805 -0.828495025076 -0.43833719747
4.83488488332 1.40483984008 0.252984884301 -0.331422291617 -0.29993395049 1.10847550307 0.870946097082 0.0802097428153 0.745917433154 -0.826608228355 -0.438560542171
4.85470039075 1.40032091779 0.253543558086 -0.332403937011 -0.301292449152 1.1083841494 0.871641798741 0.0800378785035 0.746594516171 -0.824716130593 -0.438785932495
4.87450484778 1.39580451549 0.254102482628 -0.333388213592 -0.302654904291 1.10829275479 0.872338530306 0.0798642437132 0.747272644182 -0.822818713989 -0.439012057453
4.89429826913 1.39129062997 0.254661638996 -0.334375118966 -0.3040213236 1.10820132743 0.873036292284 0.0796887610703 0.747951811736 -0.820915980645 -0.439239061092
4.91408062535 1.38677926786 0.255221014695 -0.335364649706 -0.305391709996 1.10810986997 0.873735079636 0.0795114233559 0.748632014456 -0.819007930879 -0.439466937882
4.93385188699 1.38227043578 0.255780597136 -0.33635680228 -0.3067660663 1.10801838505 0.874434887259 0.0793322235764 0.749313247928 -0.817094565141 -0.43969568171
4.95361474449 1.37776352023 0.256341016421 -0.337351640657 -0.308144301999 1.10792679132 0.875135688665 0.079151648979 0.749995533026 -0.815175863412 -0.439924282034
4.97336376836 1.37325975961 0.25690096304 -0.338349026205 -0.309526611956 1.1078352658 0.875837529954 0.078968630949 0.750678816121 -0.813251870117 -0.440154895896
4.99310156659 1.36875855885 0.257461084755 -0.339349021944 -0.310912895424 1.10774371483 0.876540370072 0.0787838011661 0.751363117227 -0.811322560333 -0.440386208158
5.01282815832 1.36425991384 0.25802136184 -0.340351624389 -0.312303159267 1.10765214721 0.877244209365 0.0785970809634 0.752048430748 -0.809387937741 -0.44061836266
5.03254351556 1.35976383083 0.258581781234 -0.341356829514 -0.313697405888 1.10756056569 0.877949042338 0.0784084631978 0.752734751885 -0.807448003461 -0.440851353035
5.05224761035 1.35527031604 0.259142329806 -0.342364633184 -0.31509563758 1.10746897301 0.878654863417 0.0782179412084 0.753422075811 -0.805502758734 -0.441085171806
5.07194317583 1.35077874651 0.259703665872 -0.343375106513 -0.316497763357 1.10737728145 0.879361644132 0.0780260099149 0.754110421542 -0.803552177843 -0.441318806819
5.09182152214 1.34629037776 0.260264421468 -0.34438809422 -0.317903977159 1.10728568166 0.88006943356 0.0778315843534 0.754799738282 -0.801596319827 -0.441554415928
5.111688363 1.34180460631 0.260825273134 -0.345403667516 -0.319314178408 1.1071940726 0.88077818798 0.0776353064976 0.755490043512 -0.799635152481 -0.441790681786
5.13154372494 1.33732142715 0.261386200393 -0.346421821788 -0.320728373078 1.10710246361 0.881487907549 0.0774370967495 0.756181331502 -0.797668681093 -0.442027747148
5.15138757996 1.33284084609 0.261947189626 -0.347442552394 -0.32214656304 1.10701085758 0.882198586311 0.0772369480403 0.756873597025 -0.795696907605 -0.44226560483
5.17121990304 1.32836286886 0.262508227127 -0.348465854581 -0.323568750064 1.10691925739 0.882910218246 0.0770348535628 0.757566834819 -0.793719834096 -0.442504247003
5.19104349064 1.32388686373 0.263070000197 -0.349491806942 -0.324994842755 1.10682756875 0.883622772775 0.0768313161149 0.758261061869 -0.791737429 -0.442742660224
5.21085271448 1.31941410196 0.263631081001 -0.350520236823 -0.32642503387 1.10673599622 0.88433630212 0.0766252350041 0.758956230564 -0.789749766295 -0.442983000301
5.23065028268 1.3149439723 0.264192175576 -0.351551224002 -0.327859223135 1.1066444312 0.885050759772 0.0764172621783 0.759652355618 -0.78775680634 -0.443223949379
5.2504362188 1.31047646877 0.264753262676 -0.352584762702 -0.32929741561 1.10655288365 0.885766145736 0.0762073167873 0.760349431181 -0.785758556082 -0.443465649669
5.27021050074 1.30601159672 0.265314328169 -0.353620847652 -0.330739612596 1.10646135654 0.886482453557 0.0759953921815 0.76104745159 -0.78375501829 -0.443708092488
5.28997310348 1.30154936143 0.265875357815 -0.35465947347 -0.332185815305 1.10636985284 0.887199676737 0.0757814817578 0.761746411141 -0.781746195883 -0.443951268957
5.30972686471 1.29708912294 0.266437068549 -0.355700726555 -0.333635932053 1.10627827168 0.887917782541 0.0755660953013 0.762446324604 -0.779732051366 -0.444194166905
5.32946608695 1.29263216684 0.266997971343 -0.356744416166 -0.335090154143 1.10618683169 0.888636826483 0.0753481173508 0.763147147901 -0.77771267393 -0.444438936593
5.34919351217 1.28817787482 0.267558802397 -0.357790631023 -0.336548381745 1.10609541661 0.889356759162 0.0751282093189 0.763848892755 -0.775688016372 -0.444684261726
5.36890916835 1.2837262399 0.268119539763 -0.358839364152 -0.33801061894 1.10600403697 0.8900775804 0.0749062896037 0.764551553215 -0.773658087302 -0.444930282845
5.38861303489 1.27927726692 0.26868016878 -0.359890609643 -0.339476866462 1.10591269584 0.890799283265 0.0746823516642 0.765255123166 -0.771622890352 -0.44517699043
5.40830509115 1.27483096064 0.269240674687 -0.360944361473 -0.340947124944 1.1058213963 0.891521860772 0.0744563890742 0.765959596455 -0.769582429302 -0.445424374635
5.42798820578 1.27038667363 0.269801804745 -0.362000714167 -0.342421302494 1.10573003075 0.892245277929 0.0742289185113 0.766664985455 -0.767536660615 -0.445671425476
5.44765662531 1.26594570425 0.270362007453 -0.363059458208 -0.343899588709 1.10563883213 0.892969593705 0.073998810459 0.767371249983 -0.765485688957 -0.445920284731
5.46731311824 1.2615074279 0.270922049847 -0.364120691624 -0.345381884323 1.10554767633 0.893694755682 0.0737667356247 0.768078398538 -0.763429459421 -0.446169639036
5.48695771991 1.25707183648 0.271481909259 -0.365184406208 -0.346868192426 1.10545657452 0.894420763542 0.0735326112512 0.768786425082 -0.761367982345 -0.446419627955
5.50659041264 1.25263893432 0.272041570536 -0.366250595403 -0.348358513152 1.10536552986 0.895147609853 0.0732964310954 0.769495323043 -0.759301262225 -0.44667024079
5.52621117436 1.24820872564 0.272601018435 -0.36731925254 -0.349852846534 1.1052745455 0.895875287124 0.0730581891549 0.770205085809 -0.757229303703 -0.446921466276
5.54582290608 1.2437805563 0.273161031149 -0.368390480581 -0.35135110057 1.10518350705 0.896603758041 0.0728184083621 0.770915723177 -0.755152057128 -0.447172298593
5.56541980427 1.23935573576 0.27371999354 -0.369464050565 -0.352853462897 1.10509266188 0.897333085171 0.0725759462001 0.771627199216 -0.753069642858 -0.447424867488
5.58500466395 1.23493363391 0.274278704069 -0.37054007018 -0.354359834949 1.105001878 0.898063212991 0.0723314820474 0.772339518974 -0.750981998188 -0.447677864778
5.60457752192 1.23051424155 0.274837139395 -0.37161852996 -0.355870218777 1.10491116716 0.898794141033 0.0720849322214 0.773052676346 -0.748889135192 -0.447931428483
5.62413836494 1.22609756242 0.275395283907 -0.372699422698 -0.357384613902 1.10482053259 0.899525861353 0.0718362909316 0.773766664291 -0.746791059237 -0.448185546474
5.64368717385 1.22168360019 0.275953121884 -0.373782741069 -0.358903019745 1.10472997753 0.900258365967 0.0715855523946 0.774481475734 -0.744687775855 -0.448440206519
5.66322687324 1.2172716948 0.276511463048 -0.374868596778 -0.360425344279 1.10463938075 0.900991615155 0.0713332455056 0.775197117718 -0.742579229195 -0.44869440821
5.6831440712 1.2128631651 0.277068627551 -0.375956740779 -0.361951772936 1.10454900414 0.901725675221 0.0710782157971 0.775913558924 -0.740465555498 -0.448950265838
5.70324793325 1.20845737628 0.277625445817 -0.37704729076 -0.363482207986 1.10445870774 0.902460487454 0.0708211506522 0.77663080072 -0.738346684178 -0.449206478667
5.72354025006 1.20405431799 0.278181893889 -0.378140235973 -0.365016650397 1.10436850389 0.903196051236 0.0705619657034 0.777348836953 -0.736222629056 -0.449463182625
5.7440227652 1.19965399337 0.278737955704 -0.379235568553 -0.36655509907 1.10427839591 0.903932358121 0.070300655441 0.778067660112 -0.734093396395 -0.449720364531
5.76469723842 1.19525640549 0.2792936151 -0.380333280519 -0.368097552797 1.10418838709 0.904669399619 0.0700372144591 0.77878726265 -0.731958992617 -0.449978010926
5.78556862062 1.19086088924 0.279849713878 -0.381433492611 -0.369643919609 1.10409834932 0.905407133529 0.06977217721 0.779507648679 -0.729819355603 -0.450235128274
5.80663242035 1.18646877104 0.280404506494 -0.382535935091 -0.371194382506 1.10400855907 0.906145630037 0.0695043783151 0.780228791851 -0.727674637637 -0.450493812086
5.82789349132 1.18207941227 0.280958855857 -0.383640735974 -0.37274884471 1.10391886835 0.906884827147 0.0692345127081 0.780950689632 -0.725524760169 -0.450752770907
5.84935373023 1.17769280135 0.281512737407 -0.384747883201 -0.374307306085 1.10382929013 0.907624724122 0.0689624951383 0.781673335844 -0.723369738811 -0.451012138846
5.87101498078 1.17330894084 0.282066134689 -0.385857368259 -0.375869764887 1.10373982774 0.908365311988 0.0686883207383 0.782396722498 -0.721209580695 -0.451271901062
5.89287910729 1.16892783316 0.282619031128 -0.386969182508 -0.377436219272 1.10365048455 0.909106581752 0.0684119844604 0.783120841571 -0.719044293146 -0.451532042963
5.91495137137 1.16454880906 0.28317230107 -0.388083455993 -0.379006577411 1.10356112557 0.909848488688 0.0681340255965 0.783845694073 -0.716873807747 -0.451791579869
5.93722697085 1.16017320057 0.283724132426 -0.38919989772 -0.380581019658 1.10347204184 0.910591106984 0.0678532691684 0.784571258984 -0.714698292941 -0.452052584805
5.95971106132 1.1558003662 0.28427542103 -0.390318646329 -0.382159450302 1.10338307733 0.911334371292 0.0675704169094 0.785297529651 -0.712517662165 -0.452313777919
5.98240565288 1.15143029319 0.284826141807 -0.391439688454 -0.383741868066 1.10329424558 0.91207828073 0.06728538321 0.786024499888 -0.710331932787 -0.452575290465
6.00531269673 1.14706298341 0.285376277907 -0.392563014921 -0.385328270562 1.10320554998 0.912822825828 0.066998163507 0.786752161227 -0.708141112856 -0.452837106627
6.02843416467 1.14269843859 0.285925812372 -0.39368861643 -0.386918655294 1.10311699394 0.913567997096 0.0667087531254 0.78748050517 -0.705945210606 -0.453099210718
6.05177564966 1.13833598634 0.286475652548 -0.394816632598 -0.388512930646 1.10302843561 0.914313747204 0.0664176958657 0.788209529454 -0.703744151255 -0.453360628139
6.0753320241 1.13397696231 0.287023919058 -0.395946750653 -0.390111274133 1.10294018054 0.915060154476 0.0661238083746 0.788939218741 -0.701538119509 -0.453623406012
6.09958667399 1.12962072308 0.287571541057 -0.397079120144 -0.391713591214 1.10285206467 0.915807150134 0.0658277985604 0.789669562043 -0.699327020742 -0.453886278123
6.1243131058 1.12526725466 0.288118492985 -0.39821372638 -0.393319879452 1.1027641021 0.916554733183 0.0655295803548 0.790400553194 -0.697110874104 -0.454149372992
6.14952047763 1.12091655822 0.288664757651 -0.399350559536 -0.394930135799 1.10267629626 0.917302893646 0.0652291496864 0.791132183244 -0.694889688545 -0.454412673558
6.17521812873 1.11656863479 0.289210317741 -0.400489609649 -0.396544357102 1.10258865063 0.918051621548 0.0649265022401 0.791864443224 -0.692663473223 -0.454676163128
6.20141964974 1.11222280981 0.289756113986 -0.401631026158 -0.398162452028 1.10250101649 0.918800866897 0.0646221857961 0.792597327428 -0.690432146948 -0.454938878725
6.22812669292 1.10788042049 0.290300199111 -0.402774474037 -0.399784595074 1.1024137138 0.919550712272 0.0643150100064 0.79333082655 -0.688195910755 -0.455202838017
6.25535303299 1.1035408225 0.290843535913 -0.403920113999 -0.40141069297 1.10232657052 0.920301085406 0.0640056881796 0.794064925063 -0.685954661925 -0.455466790657
6.2833864149 1.09920400057 0.291386098415 -0.405067930028 -0.403040742093 1.1022396013 0.921051985198 0.0636941339705 0.794799616842 -0.683708421387 -0.455730862059
6.31225074634 1.09486995515 0.291927869103 -0.406217911644 -0.404674738732 1.10215280961 0.921803401191 0.0633803436743 0.795534892464 -0.681457199015 -0.455995034215
6.34197064039 1.09053868657 0.292468830379 -0.407370048248 -0.406312679067 1.10206619893 0.922555322898 0.0630643136637 0.796270742481 -0.679201004848 -0.456259288926
6.37319139565 1.08620951911 0.29300995664 -0.408524499301 -0.40795447211 1.10197961378 0.92330769765 0.0627465948076 0.797007157594 -0.676939751303 -0.456522676952
6.40565403885 1.0818837894 0.293549232258 -0.409680907115 -0.409600289193 1.10189338837 0.924060612379 0.0624259913794 0.79774413487 -0.674673655761 -0.456787182705
6.43941298119 1.07756085324 0.294087653926 -0.410839443791 -0.411250038396 1.10180734274 0.924813991282 0.0621032212289 0.798481654042 -0.672402607401 -0.457051573996
6.47487117661 1.07324069406 0.294625195308 -0.412000091989 -0.412903714895 1.10172149206 0.925567833173 0.0617781978204 0.799219709055 -0.670126628932 -0.45731597295
6.51248657194 1.06892331157 0.295161838625 -0.413162840592 -0.414561314312 1.10163583983 0.926322127104 0.0614509180311 0.799958290015 -0.667845731124 -0.457580360318
6.55239039664 1.0646087054 0.295697566025 -0.414327678369 -0.416222832156 1.10155038952 0.927076862101 0.0611213788528 0.800697386998 -0.665559924913 -0.457844716614
6.59557948442 1.0602961997 0.296233385811 -0.415494774993 -0.417888177833 1.101464979 0.927831982784 0.0607901335293 0.801436986964 -0.663269116312 -0.458108108051
6.64277713763 1.05598712835 0.296767213687 -0.416663749767 -0.419557519391 1.10137995649 0.928587580535 0.0604559826137 0.802177093687 -0.660973539046 -0.458372482098
6.69592618214 1.05168084834 0.297300080424 -0.41783478637 -0.421230766326 1.1012951342 0.929343575973 0.0601196476004 0.802917681969 -0.658673074192 -0.458636626988
6.75867707602 1.04737734177 0.29783195939 -0.419007866145 -0.422907912604 1.10121052783 0.930099967852 0.0597810418725 0.803658745858 -0.656367746235 -0.458900661346
6.84007275582 1.04307660764 0.298362832597 -0.42018297736 -0.424588953175 1.10112614086 0.930856744733 0.0594401630463 0.804400274986 -0.65405756682 -0.459164564518
7.02944337062 1.03877864477 0.298892681959 -0.421360108145 -0.426273882875 1.10104197679 0.93161389519 0.059097008528 0.805142258973 -0.651742547809 -0.459428316161
7.14823554494 1.03710233716 0.30323988804 -0.420551376148 -0.424152609623 1.10400795641 0.931740582164 0.0581182046955 0.805286408797 -0.651524267833 -0.458152415096
7.22319052462 1.03542853218 0.307569043522 -0.419728472075 -0.422022277118 1.10690777238 0.931876246367 0.0571312845105 0.805438584189 -0.651328642869 -0.456919273228
7.28315092022 1.03375722478 0.311880408728 -0.418891633425 -0.419883017076 1.10974295666 0.932020337923 0.0561367325853 0.805598305437 -0.651154943353 -0.455727284637
7.33458767027 1.03208841091 0.316174234658 -0.418041089265 -0.417734956431 1.11251501132 0.932172335548 0.055135012555 0.805765116263 -0.651002481237 -0.454574906816
7.38050592099 1.0304220875 0.320450763252 -0.417177060675 -0.415578217663 1.11522540818 0.932331745147 0.0541265679427 0.805938582715 -0.650870607431 -0.453460658047
7.42232328004 1.02875825255 0.324710227713 -0.416299761044 -0.413412918947 1.11787558837 0.932498098423 0.0531118229487 0.806118292081 -0.650758709394 -0.452383114976
7.46117288959 1.0270969053 0.328952852816 -0.415409396373 -0.411239174325 1.120466962 0.932670951505 0.0520911831789 0.806303851792 -0.650666208878 -0.451340910376
7.49772434767 1.02531691423 0.333190072389 -0.414539014691 -0.409105391434 1.12299584627 0.932870747258 0.0510542948599 0.806515399447 -0.650526645887 -0.450342255253
7.53236882447 1.02353933922 0.337411089755 -0.41365605341 -0.406963409806 1.12546873904 0.933076157766 0.0500121072894 0.806732006932 -0.650405348204 -0.449376521513
7.56520687958 1.02176417807 0.341616103404 -0.412760693751 -0.404813328671 1.12788694835 0.933286805697 0.0489649751098 0.806953336987 -0.650301837975 -0.448442496223
7.59664493934 1.01999143015 0.345805304711 -0.411853110668 -0.402655243659 1.1302517515 0.93350233345 0.0479132373559 0.80717906878 -0.650215663647 -0.447539013892
7.62674359398 1.0182210964 0.349978878165 -0.410933473191 -0.400489247055 1.1325643955 0.933722402197 0.0468572182008 0.807408897163 -0.650146398358 -0.446664954338
7.65584890643 1.0164531793 0.354137001634 -0.410001944697 -0.398315427964 1.13482609734 0.933946690739 0.0457972274694 0.807642531718 -0.650093638419 -0.445819241113
7.68399443876 1.01468768295 0.358279846634 -0.409058683101 -0.396133872396 1.13703804431 0.934174894801 0.0447335614305 0.80787969625 -0.650057001896 -0.445000839271
7.71125978658 1.01280374965 0.362414740914 -0.408136266029 -0.393993688834 1.13919432419 0.93442713428 0.0436548800107 0.808140245628 -0.649969794428 -0.444220090391
7.73736784007 1.01092215222 0.366534893712 -0.407202507901 -0.391845961579 1.14130328509 0.934682659637 0.0425729287044 0.808403748213 -0.649897953586 -0.443464800922
7.76287082644 1.009042895 0.370640455986 -0.406257547572 -0.389690765083 1.14336601831 0.934941213269 0.0414879662218 0.808669967393 -0.649841164198 -0.442734052409
7.7877833436 1.00716598404 0.374731573409 -0.405301519338 -0.387528171168 1.14538358756 0.93520255097 0.0404002399171 0.808938677901 -0.649799127727 -0.442026961584
7.81211959773 1.00529142705 0.378808386537 -0.404334553182 -0.385358249211 1.14735702953 0.935466441348 0.0393099863992 0.809209665374 -0.649771561273 -0.441342678662
7.83589341805 1.0034192334 0.382871031023 -0.403356774953 -0.383181066244 1.14928735451 0.935732665148 0.0382174320121 0.809482725805 -0.649758196618 -0.44068038594
7.85911827296 1.00154941408 0.386919637816 -0.402368306551 -0.380996687073 1.15117554684 0.936001014532 0.037122793233 0.80975766494 -0.649758779326 -0.440039296603
7.88228226082 0.999561323443 0.390957634034 -0.40140129565 -0.378854888827 1.15301394254 0.936291229444 0.0360139832904 0.810054007503 -0.649706341369 -0.439431388323
7.90513977223 0.997575516565 0.394982050412 -0.400423915009 -0.376706045431 1.15481228543 0.936583122796 0.0349033540096 0.810351808279 -0.649667346798 -0.438843259154
7.92769525297 0.995592005316 0.398993001929 -0.399436271816 -0.374550212629 1.15657147559 0.936876519447 0.033791094767 0.81065090138 -0.649641586134 -0.438274209637
7.94995306047 0.993610803204 0.402990599693 -0.398438469952 -0.372387444256 1.15829238969 0.937171253366 0.0326773868332 0.810951128795 -0.649628860409 -0.4377235662
7.97258301511 0.99163192532 0.406974951062 -0.39743061018 -0.370217792382 1.15997588166 0.937467167214 0.0315624037882 0.811252340053 -0.64962898054 -0.437190679979
7.99536387612 0.989655388313 0.410946159802 -0.396412790267 -0.368041307377 1.16162278324 0.937764111956 0.0304463119234 0.811554391922 -0.649641766731 -0.436674925675
8.01852631185 0.987681210357 0.414904326244 -0.395385105131 -0.365858038009 1.16323390453 0.938061946289 0.0293292704709 0.811857147912 -0.649667047905 -0.436175700807
8.04207388749 0.985589009483 0.418849019905 -0.394379285288 -0.363718414197 1.16480025264 0.938380016843 0.0281985708674 0.812179790348 -0.649637591108 -0.435706325417
8.06601775799 0.983499074927 0.42278106691 -0.393363865964 -0.361572125416 1.16633258887 0.938698660094 0.0270670845635 0.812502830794 -0.649620297092 -0.435252376489
8.09036488729 0.981411425877 0.426700555148 -0.392338930599 -0.359419213256 1.16783165161 0.939017757662 0.0259349514279 0.812826153138 -0.64961502553 -0.434813317188
8.11512235271 0.979326082989 0.4306075697 -0.391304560262 -0.35725971795 1.16929816007 0.939337197232 0.0248023054886 0.813149646612 -0.649621642702 -0.434388629949
8.14029734644 0.977243068351 0.434502192926 -0.390260833767 -0.355093678455 1.17073281479 0.939656872458 0.0236692753677 0.813473205748 -0.649640021106 -0.433977815311
8.16589717406 0.975162405453 0.438384504585 -0.389207827771 -0.352921132512 1.17213629817 0.939976682621 0.0225359844991 0.813796730087 -0.649670039077 -0.433580391241
8.19192926485 0.973084119151 0.442254581949 -0.388145616879 -0.350742116716 1.17350927495 0.940296532239 0.0214025512953 0.81412012384 -0.649711580422 -0.433195892579
8.21863588245 0.970888155322 0.446108170848 -0.387105523768 -0.348607698162 1.17484176156 0.940635384287 0.0202557355073 0.81446223607 -0.649697176479 -0.432838763778
8.24606685529 0.968694474794 0.44994987187 -0.386056449369 -0.346466905006 1.17614524494 0.940974052376 0.0191088663503 0.814803995969 -0.649694081975 -0.43249369933
8.27424205466 0.966503103339 0.453779752532 -0.384998459224 -0.344319768091 1.1774203298 0.941312457043 0.0179620484219 0.815145322359 -0.649702202128 -0.432160283809
8.30318189524 0.964314068024 0.457597878336 -0.383931617168 -0.342166317283 1.17866760534 0.941650522963 0.016815382206 0.815486137792 -0.649721446263 -0.431838115978
8.33320459454 0.962127397186 0.461404312834 -0.382855985406 -0.340006581528 1.17988764563 0.94198817894 0.0156689644219 0.815826368583 -0.649751727567 -0.431526807861
8.36435088473 0.95994312038 0.465199117715 -0.381771624628 -0.337840588948 1.1810810102 0.942325357366 0.0145228879367 0.816165944293 -0.649792962828 -0.431225984781
8.39698614487 0.957761268376 0.468982352895 -0.380678594025 -0.335668366816 1.18224824429 0.942661994411 0.0133772422292 0.816504797953 -0.649845072227 -0.430935284189
8.43125731266 0.955462189304 0.472745968721 -0.37960781553 -0.333541604101 1.18337864259 0.943016691721 0.0122183206365 0.816861466921 -0.649840389987 -0.430670112134
8.46362617616 0.953165441767 0.476498321926 -0.37852855803 -0.331408688576 1.18448419127 0.943370691648 0.0110598652799 0.817217254725 -0.649846450454 -0.430414384844
8.49433202877 0.950871057258 0.480239464707 -0.377440873461 -0.329269642841 1.18556538567 0.943723941479 0.00990195574693 0.81757210481 -0.649863189006 -0.43016777788
8.52375172996 0.948579068398 0.483969447839 -0.376344812543 -0.327124488807 1.1866227087 0.944076391287 0.00874466871039 0.817925963198 -0.649890543507 -0.429929977341
8.55193927268 0.946289508915 0.487688320725 -0.375240424839 -0.324973247746 1.18765663118 0.94442799392 0.00758807815686 0.818278778493 -0.649928454152 -0.42970067924
8.57921644255 0.944002413608 0.491396131462 -0.374127758822 -0.322815940333 1.18866761225 0.944778704758 0.00643225542765 0.818630501658 -0.649976863303 -0.429479589286
8.60561274315 0.941717818318 0.495092926903 -0.373006861927 -0.320652586687 1.18965609967 0.945128481551 0.00527726931359 0.818981085873 -0.650035715339 -0.429266422557
8.63184599137 0.939316556078 0.49876688694 -0.371908261 -0.318535482603 1.19061087976 0.945495593814 0.0041089948455 0.819348785715 -0.650037189145 -0.429077422944
8.6572332916 0.936917700725 0.502430106951 -0.37080159421 -0.31641239474 1.1915442613 0.945861665013 0.00294155368844 0.819715234444 -0.65004903271 -0.428895808669
8.68204767309 0.93452128863 0.506082627626 -0.36968690306 -0.314283339312 1.19245665059 0.946226660853 0.00177500776269 0.820080392922 -0.650071201449 -0.428721323831
8.70630212124 0.932127357135 0.509724488675 -0.368564228209 -0.312148332072 1.19334844406 0.946590548798 0.00060941683242 0.820444223673 -0.650103652199 -0.428553720587
8.73000932104 0.92973594455 0.513355728874 -0.367433609497 -0.310007388325 1.19422002849 0.946953298274 -0.000555161169083 0.820806691101 -0.650146343134 -0.428392758349
8.75318166297 0.927347090106 0.516976386107 -0.366295086017 -0.307860522987 1.19507178137 0.947314880282 -0.00171867028704 0.821167761106 -0.650199233645 -0.428238203995
8.77583125475 0.924960833958 0.520586497423 -0.365148696121 -0.305707750575 1.19590407108 0.947675267567 -0.00288105626387 0.821527401268 -0.650262284258 -0.428089831171
8.79876898026 0.92245858315 0.524170495923 -0.364024576458 -0.303601959039 1.19670534499 0.948052428979 -0.00405682684718 0.821903615405 -0.650267560028 -0.427964627255
8.82096815023 0.919958837526 0.527744197726 -0.362892734863 -0.3014903118 1.19748809594 0.948428324437 -0.00523150580114 0.822278322999 -0.650282964489 -0.427845174563
8.84245255748 0.917461637551 0.531307634897 -0.361753204798 -0.299372820107 1.19825265792 0.948802932108 -0.00640504381614 0.822651497036 -0.650308466352 -0.42773126951
8.86366316238 0.914967024549 0.534860838868 -0.360606019128 -0.29724949488 1.19899935704 0.94917623148 -0.00757739299199 0.823023111791 -0.650344035075 -0.427622714291
8.88502436145 0.912475040674 0.538403840461 -0.359451210172 -0.29512034676 1.19972851172 0.949548203239 -0.00874850682363 0.82339314271 -0.650389640784 -0.42751931676
8.90675235916 0.909985728881 0.541936669924 -0.358288809745 -0.29298538614 1.20044043306 0.949918829097 -0.00991834022994 0.823761566243 -0.650445254199 -0.427420890409
8.92885345825 0.907499132933 0.545459356974 -0.357118849157 -0.29084462315 1.20113542487 0.95028809197 -0.0110868493093 0.824128360026 -0.65051084659 -0.427327253772
8.95121041899 0.90489732809 0.548952611566 -0.355971079294 -0.288751523492 1.2018017303 0.950673691966 -0.0122688976629 0.82451131052 -0.650518408698 -0.427256064162
8.97395202337 0.90229814581 0.552435951355 -0.354815877226 -0.28665266418 1.20245191706 0.951057884174 -0.013449673734 0.82489258171 -0.65053594858 -0.427189317228
8.99708487453 0.899701629979 0.555909401991 -0.353653270157 -0.284548052547 1.20308626035 0.951440655232 -0.0146291371231 0.825272155086 -0.650563443742 -0.427126849422
9.02061568312 0.897107825238 0.559372988749 -0.352483284892 -0.28243769571 1.20370502905 0.951821992723 -0.0158072483755 0.82565001308 -0.650600871981 -0.42706850144
9.04455127318 0.894516776959 0.562826736547 -0.351305947877 -0.280321600616 1.20430848596 0.952201885037 -0.0169839690133 0.826026138936 -0.650648211333 -0.427014118215
9.06889858508 0.891928531206 0.566270669969 -0.35012128524 -0.278199774072 1.20489688808 0.952580321177 -0.0181592616237 0.826400516516 -0.650705440014 -0.426963549034
9.09366467406 0.889343134751 0.569704813307 -0.348929322782 -0.276072222725 1.20547048658 0.95295729098 -0.0193330896032 0.826773130523 -0.650772536399 -0.426916646941
9.1189376459 0.886643429167 0.573106177943 -0.347759429901 -0.273992975931 1.20601742791 0.953350256544 -0.0205206517953 0.827161583185 -0.650781453599 -0.426891681389
9.14490307199 0.883946479194 0.576497961935 -0.346582351729 -0.271908040296 1.20655026822 0.953741730417 -0.0217068165771 0.827548243502 -0.650800259418 -0.426870101205
9.17157987529 0.881252331582 0.579880186219 -0.345398110555 -0.269817420017 1.20706923472 0.954131705086 -0.0228915497009 0.827933099032 -0.650828937127 -0.426851773458
9.19898749561 0.878561033715 0.583252871547 -0.344206728443 -0.2677211192 1.20757454974 0.954520173442 -0.0240748177698 0.828316137752 -0.65086746997 -0.426836568799
9.22742748354 0.875872633642 0.586616038513 -0.343008227224 -0.265619141834 1.20806643063 0.954907129119 -0.0252565878962 0.828697348395 -0.650915841154 -0.426824360721
9.2569386716 0.873187180001 0.589969707561 -0.341802628564 -0.263511491869 1.20854509027 0.955292565937 -0.0264368281231 0.829076719899 -0.650974033784 -0.426815026345
9.28770282599 0.870504722055 0.593313899026 -0.340589953932 -0.26139817317 1.20901073686 0.95567647833 -0.0276155070132 0.829454241832 -0.651042030866 -0.426808445542
9.31801527741 0.867706268004 0.596624212266 -0.339399800558 -0.259333877059 1.20945637181 0.956076707921 -0.0288091315584 0.829848026528 -0.651052833052 -0.426823033181
9.34675582487 0.864913403811 0.599922966053 -0.338202056812 -0.257263824689 1.20988463193 0.956474795153 -0.0300002764483 0.830239269769 -0.651072405371 -0.426840591102
9.37402468043 0.862123487405 0.603212456833 -0.336997362875 -0.255188138964 1.21030071116 0.956871348079 -0.0311899122203 0.830628647581 -0.651101812797 -0.426860557034
9.39989711466 0.859336571008 0.606492699113 -0.335785733345 -0.253106818632 1.21070476255 0.957266358937 -0.0323780058247 0.831016147145 -0.651141035935 -0.42688283021
9.42493797939 0.856552704852 0.609763710392 -0.334567186444 -0.251019865341 1.21109696654 0.95765982463 -0.0335645284863 0.831401760774 -0.651190061316 -0.426907306727
9.44990830942 0.853771939725 0.613025508158 -0.333341740287 -0.248927280712 1.21147749971 0.958051742318 -0.0347494519108 0.831785481055 -0.651248875168 -0.426933885127
9.47556273377 0.850994326947 0.616278109926 -0.332109412914 -0.246829066359 1.21184653502 0.958442109421 -0.035932748291 0.83216730085 -0.651317463436 -0.426962466288
9.50168810064 0.848102255829 0.619493005788 -0.330899277286 -0.244780411312 1.21219589331 0.958848447395 -0.0371310492989 0.832565070597 -0.651328627551 -0.427012191925
9.52851195649 0.845215934612 0.622696777693 -0.329681818567 -0.242726063945 1.2125300056 0.959252698827 -0.0383268536859 0.832960319296 -0.651348632714 -0.427063984833
9.55634658573 0.842332719198 0.625891553029 -0.328457592963 -0.240666116714 1.21285334368 0.959655403741 -0.0395210950322 0.833353667614 -0.651378456508 -0.427117495278
9.58522996234 0.839452663324 0.629077344535 -0.32722661278 -0.238600566946 1.21316603456 0.960056557358 -0.0407137435839 0.833745105992 -0.6514180825 -0.427172639349
9.6155012236 0.836575819042 0.632254167565 -0.325988893337 -0.23652941435 1.21346822804 0.960456158729 -0.0419047733034 0.83413462921 -0.651467499216 -0.427229330735
9.64722695911 0.833702238896 0.635422037583 -0.324744449932 -0.234452658658 1.21376007085 0.960854207043 -0.0430941585012 0.83452223219 -0.651526694769 -0.427287484997
9.68080945427 0.830831975899 0.638580970191 -0.323493297868 -0.23237029964 1.21404170687 0.961250701625 -0.0442818738456 0.834907910007 -0.651595656874 -0.427347019499
9.71630137081 0.827848090078 0.641699017278 -0.322264154009 -0.230338037009 1.21430517039 0.961663026364 -0.0454849549254 0.835309464071 -0.651607325215 -0.427427683058
9.74933519362 0.824870126616 0.644806339137 -0.321027918839 -0.228300124365 1.21455518341 0.962073331435 -0.0466855393965 0.835708534847 -0.651627916327 -0.427509669587
9.78036689034 0.821895435169 0.647904908144 -0.319785076907 -0.226256631435 1.21479560865 0.962482094336 -0.0478845249124 0.836105690551 -0.651658327955 -0.427592800846
9.80980919155 0.818924070704 0.650994735972 -0.318535638709 -0.224207554374 1.21502655177 0.962889312304 -0.0490818840584 0.836500923907 -0.651698545625 -0.427677006196
9.83774340845 0.81595608675 0.654075836602 -0.317279617266 -0.222152891313 1.21524813744 0.963294985719 -0.0502775926489 0.836894231295 -0.651748559016 -0.427762213161
9.86504977118 0.81299153727 0.657148224215 -0.316017025645 -0.22009264044 1.21546048794 0.963699115012 -0.0514716267534 0.837285609154 -0.651808357316 -0.427848350708
9.8933844342 0.810030476642 0.660211913216 -0.314747876977 -0.218026800019 1.21566372326 0.964101700672 -0.0526639627063 0.837675053986 -0.65187792924 -0.4279353492
9.92266964118 0.806957135166 0.663231232805 -0.313500464907 -0.216011564414 1.21584954129 0.964519934251 -0.0538718874492 0.838080253193 -0.651890220645 -0.428043557511
9.95338756176 0.803889897232 0.666240198456 -0.312246166369 -0.213990705199 1.21602343915 0.964936222372 -0.0550773273317 0.838483019649 -0.651911522308 -0.428152468102
9.98595863854 0.800826103515 0.669240638525 -0.31098540382 -0.211964275239 1.21618875981 0.965350985022 -0.0562811456816 0.838883871942 -0.65194265878 -0.428262042895
10.0208393472 0.797765809972 0.672232564166 -0.30971818632 -0.209932269719 1.21634559129 0.965764220753 -0.0574833167273 0.839282804349 -0.651983616823 -0.42837222181
10.0585662804 0.794709071326 0.675215988588 -0.308444525053 -0.207894685459 1.21649403748 0.966175930686 -0.0586838175001 0.839679814224 -0.652034386671 -0.428482943358
10.1004135288 0.791655942679 0.678190925271 -0.307164431299 -0.205851519368 1.21663420038 0.966586115941 -0.0598826252203 0.840074898915 -0.652094958017 -0.428594147173
10.1486207125 0.788606479502 0.681157387993 -0.305877916452 -0.203802768461 1.21676618023 0.966994777636 -0.0610797173078 0.84046805577 -0.652165320032 -0.428705773971
10.1922827029 0.78544618707 0.6840760284 -0.30461286324 -0.201805113077 1.21688144536 0.96741894045 -0.0622926270118 0.840876887489 -0.652178454052 -0.428838728443
10.2312100732 0.782292185763 0.68698466474 -0.303341106305 -0.199801847533 1.21698609908 0.967841235159 -0.0635030705733 0.841283344914 -0.65220068741 -0.428971863006
10.2667620557 0.779141805406 0.689884990274 -0.302063013867 -0.197793012616 1.21708303894 0.968262029206 -0.0647118792692 0.841687900189 -0.652232777895 -0.429105255117
10.2998833216 0.775995102741 0.692777016076 -0.30077859384 -0.195778602689 1.21717233824 0.968681321966 -0.0659190284575 0.842090548606 -0.652274712999 -0.429238853145
10.3336302387 0.772852133435 0.695660755062 -0.299487855938 -0.19375861348 1.21725408365 0.9690991149 -0.0671244959273 0.842491288038 -0.6523264831 -0.429372604384
10.3701292559 0.76971295349 0.698536220483 -0.29819081001 -0.191733040832 1.21732836033 0.969515409432 -0.0683282596101 0.842890116308 -0.652388078006 -0.429506457001
10.4098320645 0.766577619237 0.701403425938 -0.296887466054 -0.189701880708 1.21739525206 0.969930206948 -0.0695302975894 0.843287031191 -0.652459486969 -0.429640360005
10.4475376479 0.763314389202 0.704204837525 -0.295581012399 -0.187705742237 1.21744588003 0.970369563544 -0.0707787182484 0.843707835317 -0.652428512222 -0.429803499501
10.4825044154 0.760057810889 0.706996338709 -0.294267951412 -0.185703955249 1.21748710129 0.970807141757 -0.0720246992653 0.84412631884 -0.652406869265 -0.429966278246
10.515079452 0.75680513678 0.709779532859 -0.292948602794 -0.183696544911 1.2175213946 0.971243248729 -0.0732690459991 0.844542897262 -0.652395251774 -0.430128889741
10.5457292118 0.753556426504 0.71255443181 -0.291622973771 -0.181683504832 1.21754882092 0.971677884563 -0.0745117338865 0.844957566708 -0.652393646862 -0.43029128892
10.5748552997 0.750311738722 0.715321049103 -0.290291073102 -0.179664829764 1.21756945239 0.972111051031 -0.0757527404822 0.845370325434 -0.652402044003 -0.430453429941
10.6028096898 0.747071132397 0.718079398682 -0.288952909723 -0.177640514594 1.21758336 0.972542749845 -0.0769920434443 0.845781171614 -0.652420432063 -0.430615267646
10.6296389839 0.743834666781 0.720829494915 -0.287608492758 -0.175610554356 1.21759061365 0.972972982658 -0.0782296205435 0.846190103342 -0.65244879931 -0.430776757539
10.656398063 0.740508859792 0.72353995763 -0.286309290609 -0.173649059081 1.21758250288 0.973409107413 -0.0794531256995 0.846606263611 -0.6524655191 -0.430952073248
10.6823179518 0.737189738496 0.726241071601 -0.285003698799 -0.171681949803 1.21756586934 0.973843518609 -0.0806742077301 0.84702017739 -0.65249150866 -0.431126745318
10.7087270508 0.733874606498 0.728934279871 -0.283691995478 -0.169709254454 1.21754289589 0.974276492464 -0.0818936423223 0.847432234091 -0.652527410474 -0.431301027806
10.7364493941 0.730563521588 0.731619594397 -0.282374186949 -0.167730966116 1.21751363338 0.974708029058 -0.0831114060458 0.847842429959 -0.652573212459 -0.431474881388
10.765549741 0.727256540714 0.734297028647 -0.281050280828 -0.165747078838 1.21747814208 0.975138129819 -0.0843274772912 0.848250763015 -0.652628904487 -0.431648266133
10.7964014769 0.723953721088 0.736966596511 -0.279720284921 -0.163757586809 1.21743648135 0.975566796094 -0.0855418345357 0.848657231177 -0.652694475831 -0.431821142641
10.8294364616 0.720655120174 0.73962831231 -0.278384207236 -0.161762484374 1.21738870973 0.975994029158 -0.0867544563526 0.849061832259 -0.652769915174 -0.431993472029
10.8644848554 0.71725071296 0.742232115014 -0.277068802095 -0.159819871705 1.21732607461 0.97643645262 -0.0879835462043 0.849482048699 -0.652788579101 -0.432187619761
10.9009650116 0.713853187363 0.744826880628 -0.275747144183 -0.157871632036 1.21725574981 0.976877236052 -0.0892102361545 0.849900083901 -0.652816593604 -0.432380796204
10.9404192804 0.710459834405 0.747413935135 -0.274419473763 -0.155917791027 1.21717963057 0.977316616574 -0.0904352781583 0.850316290746 -0.652854551423 -0.432573323672
10.9839470018 0.707070712157 0.749993291278 -0.273085796566 -0.153958341241 1.21709775916 0.977754594326 -0.0916586490447 0.850730665589 -0.652902440403 -0.432765167308
11.0335987816 0.70368587794 0.752564963185 -0.271746119453 -0.151993276057 1.21701018573 0.978191170506 -0.0928803272153 0.851143206244 -0.652960249969 -0.432956291808
11.0770156175 0.700305389302 0.755128965438 -0.270400449492 -0.150022589012 1.21691695979 0.978626346227 -0.0941002911422 0.851553910399 -0.653027968945 -0.433146662287
11.120809503 0.69692930401 0.757685313077 -0.269048793974 -0.148046273802 1.2168181302 0.979060122515 -0.0953185193776 0.851962775625 -0.653105585554 -0.433336244263
11.1725312692 0.693449304435 0.760180462851 -0.267717537553 -0.146122877337 1.21670499344 0.979509037178 -0.0965534476045 0.852387302299 -0.653126586161 -0.433547841658
11.2175812989 0.689976382561 0.76266688017 -0.266380154672 -0.144193834959 1.21658488712 0.979956382019 -0.0977859977488 0.852809712084 -0.653157013556 -0.433758182233
11.2619319029 0.68650781711 0.765145778008 -0.265036851476 -0.142259172261 1.2164594559 0.980402358873 -0.099016900833 0.85323032444 -0.653197415531 -0.433967646655
11.3018105461 0.683043666308 0.767617170083 -0.263687633248 -0.140318881353 1.2163287348 0.980846967821 -0.100246133788 0.853649135671 -0.653247779723 -0.434176203716
11.3449376536 0.679583987694 0.770081071385 -0.262332506245 -0.138372955039 1.21619276548 0.981290209764 -0.101473674898 0.854066143261 -0.653308095032 -0.434383821884
11.3934707271 0.676128839008 0.772537497388 -0.26097147695 -0.136421386287 1.21605158912 0.981732085512 -0.102699502511 0.85448134456 -0.65337834975 -0.434590469958
11.4512101959 0.672678278178 0.774986464047 -0.259604552082 -0.134464168236 1.21590524643 0.982172595782 -0.103923595039 0.854894736786 -0.65345853157 -0.434796117056
11.5018696227 0.669125789609 0.777371006764 -0.258257755038 -0.13256028224 1.21574512143 0.982628206136 -0.105164618681 0.855323857835 -0.653482274621 -0.435023989793
11.5462082074 0.665580573949 0.779747116704 -0.256904948908 -0.130650726503 1.21557865046 0.983082313206 -0.106403283934 0.855750924636 -0.653515515848 -0.435250354705
11.5861646658 0.662039898238 0.782115897196 -0.255546308899 -0.128735528383 1.21540725904 0.98353508701 -0.107640303582 0.85617622616 -0.653558762449 -0.435475642843
11.625282956 0.658503820728 0.784477363078 -0.254181839944 -0.126814679591 1.21523097608 0.983986527496 -0.10887565454 0.856599758547 -0.653612001767 -0.435699825985
11.6680097234 0.654972399047 0.786831530375 -0.252811547826 -0.124888172433 1.21504983606 0.984436635229 -0.110109314886 0.857021518867 -0.653675222119 -0.435922875692
11.7160910511 0.651445690993 0.789178415611 -0.251435438564 -0.122955999382 1.21486387311 0.984885410678 -0.111341262751 0.85744150405 -0.653748411219 -0.436144763782
11.7725894508 0.647923754521 0.791518035814 -0.250053518423 -0.12101815309 1.21467312104 0.985332854218 -0.112571476327 0.857859710884 -0.653831556179 -0.436365462325
11.8212617441 0.644301979846 0.793790063599 -0.248691457872 -0.119134037875 1.21446908808 0.985795373023 -0.113818849891 0.858293735037 -0.653858455457 -0.436608604368
11.8645583922 0.64068767152 0.796053955033 -0.247323498031 -0.117244225001 1.21425924984 0.98625645128 -0.115063882151 0.858725765332 -0.653894919386 -0.436850016
11.904094514 0.637078085779 0.798310706586 -0.245949785865 -0.115348745133 1.21404483957 0.986716230337 -0.116307270226 0.859156063013 -0.653941418544 -0.437090172218
11.9464264473 0.633473280795 0.800560334343 -0.244570326041 -0.113447589626 1.213825881 0.987174709962 -0.117548990921 0.859584623965 -0.653997939903 -0.437329047257
11.9934677323 0.62987331416 0.802802855498 -0.243185123968 -0.111540750348 1.21360240252 0.987631890364 -0.118789022042 0.86001144479 -0.654064471171 -0.437566615216
12.0356853519 0.626278243607 0.805038287758 -0.241794185305 -0.109628219342 1.21337443229 0.988087771658 -0.120027341441 0.86043652194 -0.654140999452 -0.437802850396
12.0761997498 0.622688127002 0.807266649354 -0.240397515963 -0.107709988833 1.21314199824 0.988542353862 -0.121263927028 0.860859851722 -0.654227511245 -0.438037727298
12.1230555856 0.619000362996 0.809424311475 -0.239020441524 -0.10584587437 1.21289676393 0.98901199826 -0.122517898607 0.861299106616 -0.65425798457 -0.438295271165
12.165000821 0.615320256225 0.811574131802 -0.237637571137 -0.103976030933 1.21264619358 0.989480261065 -0.123769543059 0.861736425456 -0.654298084174 -0.438550885518
12.2033019143 0.611645053232 0.813717002283 -0.236249025814 -0.102100493778 1.21239135115 0.989947257798 -0.12501954426 0.862172044331 -0.6543482476 -0.438805084088
12.2415512986 0.607974812005 0.815852940351 -0.234854810028 -0.100219253946 1.21213225598 0.990412988019 -0.126267878843 0.862605958805 -0.654408461409 -0.43905784314
12.2829742095 0.604309589987 0.817981964477 -0.2334549289 -0.0983323029203 1.21186893127 0.99087745158 -0.127514524291 0.863038164972 -0.654478712679 -0.439309138859
12.3211183793 0.600649444735 0.820104093662 -0.232049387812 -0.0964396323629 1.21160140009 0.991340648239 -0.128759458134 0.863468658772 -0.654558987884 -0.439558947598
12.3566462259 0.596994433914 0.822219347439 -0.230638192402 -0.0945412341219 1.21132968539 0.991802577658 -0.130002657956 0.863897435992 -0.654649272897 -0.439807245866
12.3908737354 0.593244065899 0.824260859782 -0.229246331179 -0.0926973230331 1.21104563255 0.992279566516 -0.131263466357 0.864342263867 -0.654683739361 -0.440078438523
12.4231578021 0.589501542753 0.826294824162 -0.227848771812 -0.0908476488229 1.21075665103 0.992755229073 -0.132521958718 0.864785210701 -0.654727889021 -0.440347522036
12.4538332646 0.585764102638 0.828322029963 -0.226445611334 -0.0889922524301 1.21046365529 0.993229657592 -0.133778807956 0.865226489826 -0.65478212965 -0.440615044646
12.4832712334 0.582031803257 0.830342496048 -0.225036854076 -0.0871311246112 1.21016666091 0.993702851407 -0.135033990478 0.865666096437 -0.654846447358 -0.440880984293
12.5115211453 0.5783047018 0.832356242254 -0.223622504947 -0.0852642565088 1.20986568666 0.994174810023 -0.136287483413 0.866104026095 -0.654920828584 -0.441145318893
12.5402982471 0.574582855545 0.834363288962 -0.222202569117 -0.0833916394494 1.2095607513 0.994645532848 -0.137539263935 0.8665402742 -0.655005259162 -0.441408026488
12.5702010708 0.570866321854 0.836363657095 -0.220777052023 -0.0815132649468 1.20925187349 0.995115019198 -0.138789309271 0.866974836 -0.655099724331 -0.441669085251
12.6020964662 0.567056818578 0.838287310481 -0.2193706127 -0.0796897349774 1.2089311031 0.995599571351 -0.140057181864 0.867425590402 -0.655138602401 -0.441953268461
12.6355481958 0.563255343944 0.840203709945 -0.217958568271 -0.0778604053821 1.20860575758 0.996082849024 -0.141322746319 0.867874515894 -0.655187216073 -0.442235179094
12.6710087488 0.559459129196 0.842113543959 -0.216540993483 -0.0760253237041 1.20827661896 0.996564923523 -0.142586666732 0.868321805265 -0.6552459463 -0.442515396472
12.7089740109 0.555668231664 0.844016832878 -0.215117892572 -0.0741844804443 1.2079436996 0.997045793957 -0.143848919248 0.868767453311 -0.655314778716 -0.442793899924
12.7501972825 0.551882708188 0.845913597981 -0.213689270293 -0.0723378664428 1.20760701452 0.997525459495 -0.145109480614 0.86921145504 -0.655393699115 -0.443070668793
12.7880543333 0.548102615668 0.847803861096 -0.212255131669 -0.0704854727263 1.20726657873 0.998003919213 -0.146368327628 0.8696538053 -0.655482692692 -0.443345682526
12.823313025 0.544328011066 0.849687644606 -0.210815481989 -0.0686272905119 1.20692240728 0.998481172092 -0.147625437138 0.87009449878 -0.655581744043 -0.443618920676
12.8575832003 0.540462919772 0.85149181214 -0.209394658222 -0.0668242965884 1.20656677389 0.998973505259 -0.148900588215 0.870551542059 -0.655625450299 -0.44391551489
12.8901982092 0.536606036474 0.853289020764 -0.207968318265 -0.0650154645741 1.20620687193 0.999464612523 -0.150173435831 0.871006805642 -0.655678940274 -0.444209686593
12.9211865496 0.53275458711 0.855079859441 -0.206536516034 -0.0632008494013 1.20584336579 0.999954546302 -0.151444637263 0.871460463838 -0.655742570777 -0.444502043411
12.9509232813 0.528908628553 0.856864350075 -0.205099255717 -0.0613804413397 1.2054762651 1.00044330548 -0.152714168362 0.871912511014 -0.655816326948 -0.444792565826
12.9794584774 0.525068217195 0.858642515442 -0.203656541963 -0.0595542309594 1.20510558161 1.00093088892 -0.153982005479 0.872362941618 -0.655900193935 -0.445081234363
13.00852476 0.52123340947 0.860414378876 -0.202208379696 -0.0577222090196 1.20473132717 1.00141729537 -0.155248125019 0.872811749933 -0.65599415629 -0.445368029634
13.0387266058 0.517404261846 0.86217996427 -0.200754774109 -0.0558843664718 1.20435351368 1.0019025235 -0.156512503438 0.873258930084 -0.656098197967 -0.445652932335
13.0708763049 0.513487203468 0.863863107856 -0.199319747341 -0.0541020424188 1.20396465545 1.00240285369 -0.157795132928 0.873722631465 -0.656147146293 -0.445961423406
13.1045936535 0.509578527525 0.865539589142 -0.197879289705 -0.0523138401835 1.20357179399 1.00290200356 -0.159075460403 0.874184599467 -0.656205922402 -0.446267353299
13.1403339745 0.505675456379 0.867209898786 -0.19643343556 -0.0505198227577 1.20317548893 1.0034000085 -0.160354138194 0.874644991828 -0.656274861386 -0.446571355704
13.1782180181 0.50177804636 0.868874060277 -0.194982189079 -0.0487199802013 1.20277574754 1.00389686717 -0.161631141835 0.875103802466 -0.656353947875 -0.446873412057
13.2188623436 0.49788635333 0.870532097934 -0.193525554853 -0.0469143028428 1.20237257879 1.00439257814 -0.162906447272 0.875561025262 -0.656443166373 -0.447173503863
13.2566347021 0.494000433166 0.872184036643 -0.192063537745 -0.0451027812021 1.20196599179 1.00488713987 -0.164180030504 0.876016653932 -0.656542500788 -0.447471612699
13.2921645985 0.490120341755 0.873829901849 -0.190596142896 -0.0432854059929 1.20155599573 1.00538055073 -0.165451867585 0.876470682028 -0.656651934433 -0.447767720214
13.3265440291 0.486155006225 0.875390578019 -0.189147084675 -0.0415238659698 1.2011353599 1.00588909203 -0.166742160007 0.876941416128 -0.656706535536 -0.448087648376
13.3593445387 0.482198222195 0.876944890605 -0.187692677769 -0.0397564063284 1.20071094988 1.00639649584 -0.168030148644 0.87741046032 -0.65677100466 -0.448404886108
13.3908192015 0.478247210292 0.878493232995 -0.186232938087 -0.0379830986952 1.2002832318 1.0069027822 -0.169316482633 0.877877957538 -0.656845657395 -0.448720091356
13.4210211208 0.474302026224 0.880035630296 -0.184767869817 -0.0362039329393 1.19985221087 1.00740794958 -0.170601137175 0.878343901238 -0.656930477845 -0.449033246348
13.4500012901 0.470362725234 0.881572108409 -0.183297477525 -0.0344188991732 1.19941789367 1.00791199625 -0.171884087804 0.878808284731 -0.657025449872 -0.4493443334
13.478651274 0.46642936256 0.8831026938 -0.181821766057 -0.0326279877016 1.19898028695 1.00841492041 -0.173165310109 0.879271101162 -0.65713055674 -0.449653334892
13.5081244027 0.462501993429 0.884627413504 -0.180340740534 -0.0308311890251 1.19853939758 1.00891672017 -0.174444779734 0.879732343507 -0.657245781122 -0.449960233261
13.539438437 0.458492135051 0.886064278642 -0.178877814453 -0.0290905287318 1.19808826222 1.00943368474 -0.175742903305 0.880210489184 -0.657306442264 -0.450291183941
13.5719531293 0.454490991453 0.887495081427 -0.177409619107 -0.0273439062796 1.19763354963 1.0099495522 -0.177038718125 0.880686985642 -0.657377008069 -0.450619322796
13.6060757012 0.450495783453 0.888920118884 -0.175936152927 -0.0255914024245 1.19717564224 1.0104643287 -0.178332871788 0.881161962659 -0.657457776634 -0.450945330592
13.6422431872 0.446506566058 0.890339417762 -0.174457420142 -0.0238330068631 1.19671454351 1.01097801253 -0.179625339148 0.881635413213 -0.657548731529 -0.451269190212
13.6809608663 0.442523393813 0.891753005567 -0.172973425329 -0.0220687095133 1.19625025796 1.01149060171 -0.180916095321 0.882107330047 -0.657649855971 -0.451590884642
13.7229763905 0.438546321238 0.893160910376 -0.171484173343 -0.0202985004875 1.19578279029 1.01200209419 -0.182205115481 0.882577705732 -0.657761132583 -0.451910396922
13.7615749597 0.434575402814 0.894563160832 -0.169989669322 -0.0185223700948 1.19531214538 1.01251248781 -0.183492374861 0.88304653267 -0.657882543395 -0.452227710148
13.7983014498 0.430524835702 0.89587497588 -0.168513032615 -0.0168026677863 1.19483163798 1.01303808618 -0.184798480695 0.883532472109 -0.657949668286 -0.452569306255
13.8328210632 0.426483140482 0.897181032652 -0.167031203625 -0.0150769598779 1.1943477218 1.01356262557 -0.18610226964 0.88401680032 -0.658026731093 -0.452907975689
13.8662749369 0.422447540165 0.898481532609 -0.165544164157 -0.0133453366838 1.19386070423 1.01408609963 -0.187404389299 0.884499635447 -0.658114014261 -0.453244420904
13.9013817179 0.418418088984 0.899776504157 -0.164051918504 -0.0116077877438 1.19337058722 1.01460850647 -0.18870481417 0.884980969985 -0.658211500814 -0.453578625322
13.9385909063 0.41439484071 0.901065976429 -0.162554471282 -0.0098643028021 1.1928773735 1.01512984387 -0.19000351895 0.885460796106 -0.658319173323 -0.453910572483
13.9784221523 0.410377849062 0.902349979127 -0.161051827388 -0.00811487179817 1.192381066 1.01565010954 -0.191300478393 0.885939105808 -0.658437013769 -0.454240245974
14.0214859305 0.406367167702 0.903628542524 -0.159543991997 -0.00635948486972 1.19188166787 1.0161693011 -0.192595667324 0.886415890915 -0.658565003537 -0.45456762943
14.0699639228 0.402279761248 0.90481417724 -0.158053796875 -0.00466080221133 1.19137278128 1.0167037425 -0.193909888667 0.886910008902 -0.65863899232 -0.454919524839
14.1129544626 0.398201377273 0.905994360861 -0.156558484285 -0.00295606978718 1.19086062893 1.01723716109 -0.195221781833 0.887402551029 -0.658722949073 -0.455268384162
14.1525368801 0.394129243056 0.907169200002 -0.155058020159 -0.00124538784179 1.19034545081 1.01776953922 -0.196531995901 0.887893625235 -0.658817142278 -0.455614930669
14.1893989689 0.390063411982 0.908338724737 -0.153552408879 0.000471254226663 1.18982724755 1.01830087479 -0.197840505003 0.888383223521 -0.658921554402 -0.455959148226
14.2240704385 0.386003936969 0.909502965836 -0.152041655123 0.00219386682947 1.18930602034 1.01883116542 -0.199147283415 0.888871337489 -0.659036167368 -0.456301020823
14.2570070695 0.381950870865 0.910661954639 -0.150525763854 0.00392246018133 1.18878177059 1.01936040858 -0.200452305476 0.889357958562 -0.65916096251 -0.456640532497
14.2886080654 0.377904266433 0.911815723056 -0.149004740313 0.00565704429773 1.18825449994 1.0198886017 -0.201755545596 0.889843077989 -0.659295920567 -0.456977667329
14.322323376 0.373783940798 0.912874159871 -0.147501135062 0.00733466150771 1.18771810603 1.02043209456 -0.203077997076 0.890345761301 -0.659377169849 -0.45733954135
14.3550738098 0.369672781371 0.91392745608 -0.145992485226 0.00901837322289 1.1871785666 1.02097459905 -0.204398105953 0.890846901577 -0.659468414131 -0.457698274357
14.3894412622 0.365568021835 0.9149756241 -0.144478741535 0.0107080689438 1.186636061 1.02151608729 -0.20571652417 0.891346597884 -0.659569909483 -0.458054609785
14.4255050224 0.361469714653 0.91601869568 -0.142959908474 0.0124037593995 1.18609058873 1.02205655703 -0.207033225491 0.891844841725 -0.659681637802 -0.458408531859
14.4637266718 0.35737791182 0.917056703235 -0.141435990811 0.0141054551396 1.18554214963 1.02259600568 -0.20834818377 0.89234162413 -0.65980358036 -0.458760024937
14.5046397943 0.353292665234 0.918089679747 -0.139906993594 0.0158131665161 1.18499074379 1.02313443053 -0.20966137293 0.892836935946 -0.659935717841 -0.459109073421
14.5493710454 0.349214026689 0.919117658769 -0.138372922154 0.0175269036805 1.18443637156 1.0236718288 -0.210972766969 0.893330767844 -0.660078030331 -0.459455661759
14.5910859658 0.345064748299 0.920047996291 -0.136856052051 0.0191834248987 1.18387323302 1.02422458133 -0.212303543818 0.893842404724 -0.660166933239 -0.459827214401
14.6297575997 0.340924772678 0.920973507154 -0.135334208517 0.0208460858038 1.18330704872 1.02477637843 -0.2136319605 0.894352528921 -0.660265855303 -0.460195524766
14.6661304326 0.336791342097 0.921894110182 -0.133807327672 0.0225147653569 1.18273794334 1.02532718294 -0.214958673148 0.894861231884 -0.660375041613 -0.460561355994
14.701377208 0.332664508031 0.922809838797 -0.132275414126 0.0241894744007 1.18216591544 1.02587699249 -0.216283655154 0.895368504609 -0.660494473484 -0.4609246926
14.7387321001 0.328544321476 0.923720727059 -0.130738472753 0.0258702236073 1.18159096368 1.0264258043 -0.217606879953 0.895874337551 -0.660624131533 -0.461285519235
14.7787164908 0.324430833308 0.924626809595 -0.129196508709 0.0275570234495 1.18101308699 1.0269736155 -0.218928321051 0.896378720984 -0.660763995784 -0.461643820598
14.8219428163 0.320324094279 0.925528121599 -0.127649527438 0.0292498841989 1.18043228461 1.02752042312 -0.220247952038 0.896881644996 -0.660914045665 -0.461999581433
14.8706325422 0.316149871325 0.926329577802 -0.126119535506 0.0308852936173 1.17984306511 1.02808264388 -0.221587129271 0.897402624679 -0.661010991894 -0.462380529318
14.9264754926 0.311985080235 0.927126524859 -0.124584639746 0.032526888232 1.17925088108 1.02864394088 -0.222923925627 0.897922119625 -0.661117978685 -0.462758136621
14.9751364454 0.307826974104 0.927918788572 -0.123044762194 0.0341745362143 1.17865580792 1.02920426854 -0.224259002699 0.898440214844 -0.661235241482 -0.46313318589
15.0191140084 0.303675603347 0.928706404029 -0.1214999076 0.0358282485076 1.17805784334 1.02976362437 -0.225592333499 0.898956900821 -0.661362761005 -0.463505661865
15.0594006743 0.299531017891 0.929489406933 -0.119950080966 0.0374880358907 1.17745698499 1.03032200543 -0.226923891045 0.899472167433 -0.661500517205 -0.463875549436
15.0996209008 0.295393267521 0.930267833551 -0.118395287578 0.0391539089423 1.17685323082 1.03087940869 -0.228253648433 0.899986004375 -0.661648489439 -0.464242833534
15.1431011765 0.291262401874 0.931041720715 -0.116835533004 0.0408258780386 1.17624657908 1.03143583101 -0.229581578843 0.900498401153 -0.66180665647 -0.46460749914
15.1916957944 0.287067279793 0.931713635837 -0.115292560644 0.0424401741426 1.17563185206 1.03200772962 -0.230929210386 0.901029113416 -0.661912032295 -0.464997571957
15.2476704057 0.282881710923 0.932381362971 -0.113744752655 0.0440607011788 1.17501422492 1.03257873504 -0.232274437172 0.901558366532 -0.662027467442 -0.465384208221
15.2964773007 0.278702961462 0.933044635433 -0.112192017466 0.0456873163081 1.17439372859 1.03314879409 -0.233617927469 0.902086240191 -0.662153188955 -0.465768209737
15.3417198657 0.274531080695 0.933703489972 -0.110634359985 0.0473200305615 1.17377036004 1.03371790414 -0.234959653914 0.902612724359 -0.662289176943 -0.466149561423
15.3921118694 0.27036611741 0.934357963927 -0.109071785358 0.0489588548097 1.17314411606 1.03428606212 -0.236299589109 0.903137808334 -0.66243541068 -0.466528248348
15.4504584435 0.26620812023 0.935008095196 -0.107504299015 0.0506037997227 1.17251499372 1.03485326484 -0.237637705739 0.903661481226 -0.662591868846 -0.466904255628
15.5231193287 0.262057137608 0.935653922238 -0.105931906674 0.0522548757663 1.17188299042 1.03541950902 -0.238973976578 0.904183731956 -0.662758529527 -0.467277568427
15.5865167199 0.257845194551 0.936195761423 -0.104376094175 0.0538480709568 1.17124324669 1.03600129679 -0.240330094319 0.904724566664 -0.662872717776 -0.467676505818
15.6400813503 0.253642918035 0.936733737464 -0.102815512984 0.0554475429524 1.17060065193 1.03658222105 -0.241683780212 0.905263965495 -0.662996981538 -0.468071912472
15.6904879004 0.249447589674 0.937267491716 -0.101250058345 0.057053137708 1.16995519687 1.03716222172 -0.243035710384 0.90580200389 -0.663131540628 -0.46846460943
15.7487372106 0.245259257558 0.937797062576 -0.0996797353357 0.0586648663293 1.1693068779 1.03774129606 -0.244385857091 0.906338671288 -0.663276374528 -0.468854581739
15.8205443283 0.241077969263 0.938322489008 -0.0981045492662 0.0602827397647 1.16865569102 1.03831944086 -0.245734192524 0.9068739564 -0.663431461823 -0.469241814605
15.9305778195 0.236903772184 0.938843810529 -0.0965245057292 0.0619067687608 1.16800163256 1.0388966528 -0.247080688959 0.907407847747 -0.663596780504 -0.469626293282
16.0022333181 0.232736713517 0.939361067211 -0.0949396106041 0.0635369638591 1.1673446992 1.03947292845 -0.248425318772 0.907940333659 -0.663772307965 -0.470008003076
16.0610089789 0.228512055788 0.939772422909 -0.0933710975793 0.0651090841282 1.16668035353 1.04006481908 -0.249789931533 0.90849168029 -0.663895687918 -0.470415551883
16.1115000903 0.224297169654 0.940180244007 -0.0917978816581 0.0666875271321 1.16601319186 1.0406558752 -0.25115208209 0.909041612021 -0.664029157061 -0.470819477065
16.1566805468 0.220089354492 0.940584080416 -0.0902198452753 0.0682721274456 1.16534316866 1.04124603041 -0.252512455577 0.909590201067 -0.664172929089 -0.471220618993
16.2013380043 0.215888657126 0.940983972168 -0.0886369936966 0.0698628962365 1.16467027977 1.0418352819 -0.253871023872 0.910137436327 -0.664326982838 -0.47161896281
16.2510759445 0.211695123859 0.941379959835 -0.08704933241 0.0714598445169 1.16399452053 1.04242362632 -0.255227758755 0.910683305924 -0.664491296189 -0.472014493812
16.3084914748 0.207508800781 0.941772084539 -0.0854568671882 0.0730629830956 1.16331588665 1.04301106023 -0.2565826321 0.911227797782 -0.664665846427 -0.472407197356
16.3786291183 0.203329733769 0.94216038795 -0.0838596040897 0.0746723225755 1.16263437416 1.04359758008 -0.257935615884 0.911770899632 -0.664850610241 -0.472797058851
16.4363859447 0.199096491236 0.942440982088 -0.082278529831 0.0762234072266 1.16194577101 1.04419979037 -0.259308708302 0.912333146768 -0.664983557462 -0.473212970649
16.4926001175 0.194873116819 0.942718373863 -0.08069281744 0.0777808605256 1.16125437395 1.04480119461 -0.260679304827 0.912893997692 -0.66512660506 -0.473625166791
16.5416716803 0.190656930042 0.942992022259 -0.0791023368812 0.0793445055131 1.16056010473 1.04540172067 -0.262048100723 0.913453522384 -0.665279961672 -0.47403450718
16.5859738873 0.186447976395 0.943261968923 -0.0775070936216 0.0809143534058 1.15986295872 1.04600136565 -0.26341506749 0.914011709194 -0.665443605466 -0.474440977014
16.6288988183 0.182246300836 0.943528256019 -0.0759070933443 0.0824904152657 1.1591629307 1.04660012608 -0.2647801765 0.914568545646 -0.665617513604 -0.474844561655
16.6757342394 0.178051948087 0.943790926253 -0.0743023420167 0.0840727019498 1.15846001583 1.0471979984 -0.266143399228 0.91512401906 -0.665801662646 -0.475245246521
16.7289671353 0.173864962633 0.944050022872 -0.0726928458928 0.0856612241081 1.15775420959 1.04779497894 -0.267504707259 0.915678116557 -0.665996028557 -0.475643017091
16.7781904644 0.1696272841 0.944199708822 -0.071099349671 0.0871913255108 1.15704162807 1.04840772948 -0.268886238576 0.916251651319 -0.666138914624 -0.476067045962
16.8344321925 0.165399561426 0.944346528308 -0.0695012791518 0.0887278413911 1.15632626277 1.04901970205 -0.270265236892 0.916823806258 -0.666291909769 -0.476487267598
16.8835337139 0.161179136689 0.944489849912 -0.0678984921302 0.090270583118 1.15560800592 1.04963081932 -0.271642408705 0.91739465008 -0.666455218587 -0.476904561737
16.9294953431 0.156966053983 0.944629716872 -0.0662909942895 0.0918195619441 1.15488685251 1.05024107826 -0.273017725138 0.917964170578 -0.666628818561 -0.477318913603
16.9808890357 0.152760356847 0.944766172923 -0.064678791523 0.093374788967 1.15416279686 1.05085047533 -0.27439115716 0.918532354664 -0.666812686109 -0.477730308587
17.0404501235 0.148562088571 0.944899262333 -0.063061890009 0.094936275078 1.15343583362 1.05145900685 -0.275762675851 0.919099189044 -0.66700679705 -0.478138732145
17.1147901593 0.144371292181 0.945029029903 -0.0614402962126 0.0965040309601 1.15270595784 1.05206666903 -0.277132252405 0.919664660223 -0.667211126602 -0.478544169795
17.2370188433 0.140133340718 0.945047794243 -0.0598345175307 0.098013214334 1.15196961602 1.05269018491 -0.278522155154 0.920249867635 -0.667364318741 -0.478976070283
17.3117092361 0.135905423838 0.945064031638 -0.0582242275517 0.09952885787 1.15123048943 1.05331295066 -0.27990948427 0.920833709285 -0.667527626139 -0.479404072041
17.3714315061 0.131684908606 0.945077020793 -0.0566092721697 0.101050761142 1.15048844373 1.0539348842 -0.281294958581 0.921416253548 -0.667701250348 -0.479829075032
17.4228755912 0.127471837651 0.945086806517 -0.0549896572978 0.102578935426 1.14974347362 1.05455598244 -0.282678548833 0.921997487646 -0.667885168139 -0.480251064482
17.4689397444 0.123266253033 0.945093434089 -0.0533653890555 0.104113391841 1.14899557297 1.0551762417 -0.284060225598 0.922577397867 -0.668079355164 -0.480670025785
17.5114030691 0.119068196536 0.945096949315 -0.0517364738474 0.105654141298 1.14824473606 1.05579565821 -0.285439959565 0.923155970294 -0.668283786478 -0.481085944406
17.5578912742 0.114877709659 0.945097398523 -0.0501029183649 0.107201194499 1.14749095754 1.05641422807 -0.286817721546 0.923733190799 -0.66849843653 -0.481498805877
17.6109176495 0.110643657893 0.944985362617 -0.0484849971765 0.10868953772 1.14673101621 1.05704873952 -0.288215900124 0.924330453074 -0.668662297119 -0.481938331092
17.6690662131 0.106419710169 0.944871142836 -0.0468626269475 0.110184386582 1.14596827873 1.0576825286 -0.289611460798 0.924926361268 -0.668836276574 -0.48237386582
17.7191592433 0.102203261006 0.944753928556 -0.0452356419069 0.111685528757 1.14520258694 1.0583155089 -0.291005135812 0.925520984357 -0.669020574381 -0.482806330731
17.7638953642 0.0979943514994 0.944633766128 -0.043604048213 0.113192975529 1.14443393525 1.05894767722 -0.292396895539 0.926114308977 -0.66921516657 -0.483235711027
17.805141981 0.0937930221609 0.944510702349 -0.0419678522265 0.114706738024 1.1436623172 1.05957902981 -0.293786710156 0.926706320782 -0.669420028006 -0.483661992081
17.8467255027 0.0895993132031 0.944384784533 -0.0403270605938 0.116226827161 1.14288772672 1.06020956277 -0.295174549967 0.927297005212 -0.66963513295 -0.484085159344
17.8921217145 0.0854132645327 0.944256060507 -0.038681680248 0.117753253644 1.14211015814 1.0608392721 -0.296560385405 0.927886347496 -0.669860455059 -0.48450519834
17.9430875883 0.0811872898793 0.944013481891 -0.0370517571505 0.119220847064 1.14132672409 1.06148501519 -0.297966714547 0.92849604322 -0.670035341006 -0.484952098177
18.0003385362 0.0769714792259 0.943769065945 -0.0354174466117 0.120694991343 1.14054047276 1.06213006373 -0.299370377735 0.929104394089 -0.670220346764 -0.48539491518
18.0500645233 0.0727632570325 0.943521913278 -0.0337785714031 0.122175462153 1.13975122466 1.0627743273 -0.30077212172 0.929711470612 -0.670415670721 -0.485834591293
18.0949317721 0.068562662794 0.943272071753 -0.0321351379427 0.123662270775 1.13895897402 1.06341780264 -0.302171916504 0.930317258821 -0.67062128814 -0.486271111671
18.1360959011 0.0643697354056 0.943019589654 -0.030487152848 0.125155428327 1.13816371408 1.06406048588 -0.303569731875 0.930921743719 -0.670837173066 -0.486704461646
18.177184384 0.0601845134419 0.942764515773 -0.0288346230224 0.126654945719 1.13736543849 1.06470237304 -0.304965537758 0.93152491009 -0.671063298942 -0.487134626633
18.2220391054 0.0560070351487 0.942506899402 -0.0271775556564 0.128160833643 1.1365641413 1.06534346 -0.306359304214 0.932126742502 -0.671299638602 -0.487561592128
18.2723117091 0.051793314999 0.942134172999 -0.0255357720666 0.129607779922 1.13575727014 1.0660006773 -0.307773627336 0.932749245705 -0.671485900571 -0.488015611565
18.328666346 0.0475898090675 0.941759959191 -0.0238896620634 0.131061321961 1.13494755137 1.066657228 -0.309185232526 0.933370410729 -0.67168228051 -0.488465454917
