liuchen18/hilsys_new/sim_sys/data/fwx_planned_trajectory_zheng.txt
this is the FWX joint values,the following info is time,x,y,theta,joint1,joint2,joint3,joint4,joint5,joint6,joint7
0.0 1.97669488531 -0.127845724575 -2.23500762632 -1.63542769817 -0.17959204614 -1.0792625532 -1.05984311958 1.57377632051 1.8502010328 -2.0117672473
0.0568591051875 1.97682586724 -0.125617743926 -2.2345585273 -1.63497859915 -0.177608249294 -1.08151365338 -1.07444465048 1.5736719673 1.85165773269 -2.0198869363
0.102056744714 1.97696373945 -0.123412389522 -2.23412832005 -1.6345483919 -0.175569614409 -1.08378047178 -1.0892397268 1.57354937444 1.85316771537 -2.02840306208
0.14123148252 1.9771101476 -0.121225457157 -2.23371583535 -1.6341359072 -0.173472964504 -1.08605775829 -1.10420815335 1.5734093708 1.85472693895 -2.0373127645
0.176427531047 1.97726670673 -0.119052632448 -2.23331980601 -1.63373987786 -0.171315365092 -1.08834018862 -1.11932956853 1.57325289243 1.85633122237 -2.0466117565
0.208846533637 1.97743498707 -0.116889526209 -2.23293888002 -1.63335895188 -0.169094147786 -1.09062240594 -1.13458361262 1.57308098168 1.8579762862 -2.05629446244
0.239005570716 1.97761650146 -0.114731706922 -2.23257163383 -1.63299170568 -0.166806929618 -1.09289905896 -1.14995007206 1.57289478639 1.85965779089 -2.0663541614
0.267304719377 1.97781269444 -0.112574729877 -2.23221658552 -1.63263665737 -0.164451628094 -1.09516483578 -1.16540899838 1.57269555903 1.86137137231 -2.07678312986
0.293824279102 1.97802493292 -0.110414162691 -2.23187220751 -1.63229227936 -0.162026472622 -1.09741449347 -1.18094080171 1.57248465593 1.86311267372 -2.0875727791
0.319143993414 1.97825449838 -0.108245607137 -2.23153693873 -1.63195701059 -0.159530012751 -1.09964288348 -1.19652631951 1.57226353655 1.86487737425 -2.09871378328
0.343530420906 1.97850258054 -0.10606471747 -2.23120919601 -1.63162926786 -0.156961123582 -1.10184497294 -1.21214686249 1.57203376243 1.86666121403 -2.11019619545
0.367018290682 1.97877027225 -0.103867215399 -2.23088738461 -1.63130745646 -0.154319009186 -1.10401586236 -1.22778423955 1.57179699604 1.86846001572 -2.12200954932
0.389787224554 1.97905856539 -0.101648902158 -2.23056990809 -1.63098997994 -0.151603204233 -1.10615080016 -1.24342076479 1.57155499919 1.87026970322 -2.13414294568
0.411830389402 1.97923874724 -0.0994222047225 -2.23023889923 -1.63065897108 -0.14875936944 -1.10821403161 -1.25901756918 1.57133231408 1.87201169471 -2.146587595
0.433606231371 1.97944140516 -0.0971666021359 -2.22990868002 -1.63032875187 -0.145841816115 -1.11023143976 -1.27457930338 1.57111044232 1.87375590058 -2.15932839269
0.455095416947 1.9796671941 -0.0948781887162 -2.22957771125 -1.6299977831 -0.142851095157 -1.11219880233 -1.29008975307 1.57089146702 1.8754987165 -2.1723534656
0.476705618973 1.97991665801 -0.0925531654694 -2.22924448614 -1.62966455799 -0.139788085885 -1.11411208518 -1.30553311568 1.57067754959 1.87723669585 -2.18565070216
0.498851660693 1.98019022895 -0.0901878442339 -2.22890753672 -1.62932760857 -0.136653994757 -1.11596744809 -1.32089395825 1.57047092396 1.8789665573 -2.19920776417
0.521576823765 1.98048822631 -0.0877786514066 -2.22856543998 -1.62898551184 -0.133450353905 -1.11776125038 -1.33615717347 1.57027388929 1.88068519087 -2.21301208703
0.544995652592 1.98081085618 -0.0853221317985 -2.22821682374 -1.62863689559 -0.130179019557 -1.11949005659 -1.35130793565 1.5700888012 1.88238966332 -2.22705086972
0.569161039817 1.98115821092 -0.0828149529086 -2.22786037227 -1.62828044412 -0.126842170468 -1.12115064246 -1.3663316587 1.56991806166 1.8840772226 -2.24131105598
0.594070923936 1.98153026879 -0.0802539099545 -2.22749483185 -1.6279149037 -0.123442306035 -1.12274000148 -1.3812139579 1.56976410713 1.88574530185 -2.25577930853
0.619892327217 1.9819268938 -0.0776359318845 -2.22711901622 -1.62753908807 -0.119982243932 -1.12425535216 -1.39594061706 1.5696293952 1.88739152287 -2.27044197797
0.644747379476 1.98234783569 -0.0749580885549 -2.22673181195 -1.6271518838 -0.116465117022 -1.1256941461 -1.41049756259 1.56951638954 1.88901369904 -2.28528506825
0.668805276853 1.98279273026 -0.07221759926 -2.2263321838 -1.62675225565 -0.112894368998 -1.1270540768 -1.42487084587 1.56942754309 1.89060983807 -2.30029420057
0.692235249366 1.9832611 -0.0694118426329 -2.22591918006 -1.62633925191 -0.109273748568 -1.12833308937 -1.43904663508 1.56936527974 1.89217814421 -2.31545457771
0.715091532321 1.98362122452 -0.0665563539179 -2.22547165455 -1.6258917264 -0.105566004673 -1.12949760748 -1.45297649276 1.56936354281 1.89364100044 -2.33073087927
0.737440473078 1.98400353364 -0.0636310658725 -2.22500892885 -1.6254290007 -0.101817016029 -1.13057764242 -1.46668234821 1.56939503961 1.89507303254 -2.3461261444
0.759321053469 1.98440720618 -0.0606339196343 -2.22453035922 -1.62495043107 -0.0980313671743 -1.13157200261 -1.48015091162 1.56946193189 1.89647314926 -2.36162424123
0.780794870722 1.98483131768 -0.0575630669274 -2.22403540513 -1.62445547698 -0.0942138943732 -1.13247978959 -1.49336909264 1.56956625835 1.89784045692 -2.37720853597
0.802051524492 1.98527484464 -0.0544168854373 -2.22352363309 -1.62394370494 -0.0903696655706 -1.13330040764 -1.50632404967 1.56970991141 1.89917425752 -2.39286188957
0.823700451385 1.98573666989 -0.0511939943715 -2.22299472001 -1.62341479186 -0.0865039563722 -1.13403357238 -1.51900325207 1.56989461422 1.90047404593 -2.40856666724
0.845716878657 1.98621558911 -0.0478932698714 -2.22244845566 -1.62286852751 -0.0826222217982 -1.13467931783 -1.53139455389 1.57012189826 1.90173950615 -2.42430476193
0.868073370548 1.98671031856 -0.0445138597256 -2.22188474441 -1.62230481626 -0.0787300638018 -1.13523800154 -1.54348627817 1.57039308222 1.90297050639 -2.44005763317
0.890966524256 1.98721950395 -0.0410551968414 -2.22130360591 -1.62172367776 -0.074833194523 -1.13571030706 -1.55526731004 1.57070925254 1.90416709294 -2.45580636227
0.914486810451 1.98774173063 -0.0375170108683 -2.22070517451 -1.62112524636 -0.0709373954971 -1.13609724344 -1.56672719685 1.57107124636 1.90532948294 -2.47153172443
0.937216184112 1.98827553485 -0.033899337341 -2.2200896976 -1.62050976946 -0.0670484733032 -1.13640014133 -1.57785625262 1.57147963767 1.90645805574 -2.48721427769
0.959658487427 1.98881941605 -0.0302025237942 -2.21945753243 -1.61987760428 -0.063172212122 -1.13662064515 -1.58864566396 1.57193472669 1.9075533432 -2.50283446809
0.982672195709 1.98937185004 -0.0264272322629 -2.21880914158 -1.61922921343 -0.0593143241739 -1.13676070125 -1.59908759426 1.5724365337 1.90861601878 -2.51837274958
1.00622422493 1.98979845097 -0.0225964769864 -2.21812256955 -1.6185426414 -0.0554503969075 -1.13679386909 -1.60914029895 1.57302238789 1.90957328384 -2.53376943551
1.03047292829 1.99023050923 -0.0186898468596 -2.21742100655 -1.61784107841 -0.0516157060779 -1.13675152944 -1.61883566034 1.57365533844 1.91050033651 -2.54904597667
1.05542998737 1.99066652008 -0.0147089052812 -2.21670520235 -1.6171252742 -0.0478153757696 -1.13663642696 -1.62816939645 1.5743344921 1.91139824042 -2.56418392192
1.08135214488 1.99110501219 -0.0106554927973 -2.21597597793 -1.61639604978 -0.0440542618957 -1.13645151607 -1.63713851215 1.57505869827 1.91226814072 -2.57916540204
1.10848228723 1.99154456039 -0.00653170878384 -2.21523421516 -1.61565428701 -0.0403369102559 -1.13619993062 -1.64574133913 1.57582656583 1.91311124931 -2.59397327208
1.13693877115 1.99198379789 -0.00233988848857 -2.21448084552 -1.61490091737 -0.0366675187556 -1.13588495124 -1.65397755906 1.57663648435 1.91392883086 -2.60859125161
1.16701335021 1.99242142717 0.00191742337462 -2.21371683841 -1.61413691026 -0.0330499054603 -1.13550997108 -1.66184820574 1.57748664881 1.91472218894 -2.62300405495
1.19908804868 1.99285622959 0.00623750178507 -2.21294318937 -1.61336326122 -0.029487483109 -1.13507846089 -1.66935564583 1.57837508671 1.91549265283 -2.63719750778
1.23387319866 1.99328707317 0.0106174726278 -2.21216090844 -1.61258098029 -0.0259832408173 -1.1345939342 -1.67650353862 1.57929968732 1.91624156491 -2.65115864669
1.26490590587 1.99371291876 0.0150543451099 -2.21137100891 -1.61179108076 -0.0225397331303 -1.13405991339 -1.68329677591 1.58025823172 1.91697026908 -2.66487579922
1.29305870513 1.99413282427 0.0195450445555 -2.21057449681 -1.61099456866 -0.0191590764722 -1.13347989753 -1.68974140418 1.58124842306 1.9176801001 -2.67833864279
1.32321754556 1.99454594715 0.0240864447701 -2.20977236119 -1.61019243304 -0.0158429527567 -1.13285733255 -1.69584453141 1.58226791621 1.9183723742 -2.69153824136
1.35064365784 1.994951545 0.0286753992251 -2.20896556549 -1.60938563734 -0.0125926196915 -1.13219558441 -1.70161422168 1.58331434619 1.91904838069 -2.7044670599
1.37570259072 1.99521558968 0.0332811552383 -2.20813143615 -1.608551508 -0.00938392404981 -1.13147308019 -1.70703681149 1.58442530567 1.91963922792 -2.71707358812
1.39891951284 1.99547098917 0.0379280386625 -2.20729452657 -1.60771459842 -0.00624164320305 -1.13071796121 -1.71214737381 1.58555909353 1.92021700235 -2.72940081798
1.42205106889 1.99571729428 0.0426130453945 -2.20645568085 -1.60687575271 -0.00316587003304 -1.12993320428 -1.71695598793 1.58671338799 1.92078285604 -2.74144537622
1.4458248597 1.99595414331 0.0473332525976 -2.20561569433 -1.60603576618 -0.000156371604669 -1.1291216349 -1.72147320276 1.58788594032 1.92133789105 -2.75320513131
1.47048701803 1.99618125622 0.0520858343274 -2.20477531144 -1.60519538329 0.00278738001802 -1.12828591883 -1.72570991897 1.58907458868 1.92188315703 -2.76467911803
1.49631071994 1.99639842859 0.0568680757786 -2.20393522428 -1.60435529613 0.00566617643013 -1.12742855654 -1.729677279 1.59027727015 1.92241965001 -2.7758674569
1.52360530582 1.99660552507 0.0616773844379 -2.20309607207 -1.60351614392 0.00848104116319 -1.12655188066 -1.73338656428 1.59149202976 1.92294831208 -2.78677126697
1.55259495073 1.99680247283 0.0665112982904 -2.20225844147 -1.60267851332 0.0112331983663 -1.1256580559 -1.73684910092 1.59271702659 1.92347003173 -2.79739257428
1.58396156695 1.99698925486 0.0713674913211 -2.20142286752 -1.60184293937 0.013924042393 -1.12474908135 -1.74007617478 1.59395053762 1.9239856447 -2.8077342185
1.61908489936 1.9971659034 0.0762437765861 -2.20058983527 -1.60100990712 0.0165551087091 -1.12382679455 -1.7430789565 1.59519095943 1.92449593522 -2.81779975948
1.65470716186 1.99733249369 0.0811381071083 -2.1997597818 -1.60017985365 0.0191280467217 -1.12289287718 -1.74586843639 1.59643680784 1.92500163774 -2.82759338591
1.69750930876 1.99748913789 0.0860485749327 -2.19893309855 -1.5993531704 0.0216445945847 -1.12194886177 -1.74845536923 1.59768671606 1.92550343883 -2.83711982711
1.73957229719 1.99763597954 0.0909734086209 -2.19811013396 -1.59853020582 0.0241065562643 -1.12099613941 -1.75085022843 1.59893943152 1.92600197926 -2.84638426932
1.79933759675 1.99764053488 0.0958784412634 -2.19726666983 -1.59768674168 0.0265404495461 -1.12001322364 -1.75305395738 1.60023464781 1.92642975702 -2.85535421646
1.84054395076 1.99763575071 0.100794735648 -2.19642753774 -1.59684760959 0.0289241926186 -1.11902401295 -1.7550873828 1.60153079621 1.92685594276 -2.86407639236
1.87449495696 1.99762183104 0.105720922406 -2.19559297303 -1.59601304488 0.031259638122 -1.1180295162 -1.75695977714 1.60282691375 1.92728102936 -2.87255681235
1.90422488569 1.99759899313 0.110655747471 -2.19476317945 -1.5951832513 0.0335486351655 -1.11703063629 -1.75868003911 1.60412213282 1.92770547426 -2.88080166628
1.93117986221 1.99756746387 0.11559806442 -2.19393833217 -1.59435840402 0.0357930174801 -1.11602817875 -1.76025668422 1.60541567431 1.9281297015 -2.88881726436
1.95610480068 1.99752747695 0.120546828059 -2.19311858036 -1.59353865221 0.0379945936004 -1.1150228598 -1.76169784093 1.60670684169 1.92855410399 -2.89660999026
1.97937855998 1.99747927022 0.125501087947 -2.19230404972 -1.59272412157 0.0401551387714 -1.11401531406 -1.76301125083 1.60799501481 1.92897904568 -2.90418625978
2.00132400295 1.99742308355 0.130459981965 -2.19149484479 -1.59191491664 0.0422763882976 -1.11300610188 -1.76420427232 1.60927964412 1.92940486362 -2.91155248476
2.02222056619 1.99735915693 0.135422729987 -2.1906910511 -1.59111112295 0.0443600324418 -1.11199571617 -1.76528388694 1.61056024454 1.92983186996 -2.9187150421
2.04211554859 1.99728772888 0.1403886278 -2.1898927373 -1.59031280915 0.0464077120819 -1.11098458891 -1.76625670836 1.61183639047 1.93026035369 -2.9256802468
2.06124392106 1.99720903513 0.145357041199 -2.1890999569 -1.58952002876 0.048421015876 -1.10997309707 -1.76712899271 1.61310771013 1.93069058247 -2.93245432963
2.07963310945 1.99712330757 0.150327400391 -2.18831275008 -1.58873282193 0.0504014780796 -1.10896156813 -1.76790665062 1.61437388074 1.93112280415 -2.93904341825
2.09748662835 1.99703077325 0.155299194712 -2.18753114523 -1.58795121708 0.0523505770033 -1.10795028521 -1.76859526023 1.61563462415 1.93155724831 -2.94545352159
2.11469096206 1.99680026492 0.160235378409 -2.18672970145 -1.5871497733 0.054295140663 -1.10691759119 -1.7691990459 1.61693098475 1.93192666567 -2.95166201444
2.13139174359 1.99656347002 0.165172279004 -2.18593391457 -1.58635398642 0.0562116487786 -1.10588557309 -1.76972483565 1.61822163227 1.93229906704 -2.9577053746
2.14776464444 1.99632059284 0.170109538518 -2.18514378654 -1.58556385839 0.0581013793364 -1.10485440746 -1.77017719695 1.61950638166 1.9326746199 -2.96358908014
2.16381507079 1.99607183122 0.17504683977 -2.18435931244 -1.58477938429 0.0599655563187 -1.10382424291 -1.77056042856 1.62078507786 1.9330534794 -2.96931845906
2.17954847757 1.99581737625 0.179983901985 -2.18358048149 -1.58400055334 0.0618053503524 -1.10279520345 -1.77087857427 1.62205759267 1.93343578925 -2.97489868501
2.19528033347 1.99555741218 0.184920477428 -2.18280727788 -1.58322734973 0.0636218800631 -1.10176739121 -1.77113543614 1.62332382173 1.93382168257 -2.98033477533
2.21132610966 1.99529211631 0.189856348325 -2.18203968148 -1.58245975333 0.0654162133536 -1.10074088901 -1.77133458774 1.62458368214 1.93421128276 -2.98563158988
2.22769143707 1.99502165911 0.194791324015 -2.18127766853 -1.58169774038 0.0671893690286 -1.09971576258 -1.77147938675 1.62583710995 1.93460470424 -2.99079383132
2.24438211682 1.99474620418 0.199725238353 -2.18052121219 -1.58094128404 0.0689423183861 -1.09869206265 -1.77157298728 1.62708405811 1.93500205311 -2.99582604596
2.26157434012 1.99446590841 0.204657947333 -2.17977028307 -1.58019035492 0.0706759868563 -1.0976698267 -1.77161835164 1.62832449468 1.93540342786 -3.00073262547
2.27928273084 1.9941809221 0.209589326876 -2.17902484965 -1.57944492151 0.0723912560403 -1.09664908065 -1.77161826141 1.62955840058 1.93580891989 -3.00551780944
2.29752239289 1.99389138909 0.214519270893 -2.17828487873 -1.57870495058 0.07408896505 -1.09562984029 -1.77157532851 1.63078576874 1.93621861407 -3.01018568782
2.31649678468 1.99359744697 0.219447689433 -2.17755033572 -1.57797040757 0.0757699126312 -1.0946121126 -1.77149200512 1.6320066021 1.93663258923 -3.01474020445
2.336073737 1.99316927817 0.224334205334 -2.17679483859 -1.57721491045 0.077460788169 -1.09357442814 -1.77137367725 1.63326233665 1.93698331949 -3.01916446269
2.35643935858 1.99273701566 0.229219225786 -2.17604472919 -1.57646480104 0.0791367408017 -1.09253823191 -1.77121972484 1.63451163047 1.9373387305 -3.02348445804
2.37783705141 1.99230077578 0.234102698964 -2.17529997185 -1.5757200437 0.0807984379069 -1.09150351282 -1.77103213003 1.63575450052 1.93769887693 -3.02770363555
2.40054374523 1.99186066963 0.23898458358 -2.1745605305 -1.57498060235 0.0824465144913 -1.09047025478 -1.77081275498 1.63699097014 1.93806380964 -3.03182531339
2.4248803116 1.99141680324 0.243864847399 -2.17382636888 -1.57424644073 0.0840815746429 -1.08943843753 -1.77056334924 1.63822106807 1.93843357581 -3.03585268677
2.45119262041 1.99096927775 0.24874346627 -2.17309745066 -1.57351752251 0.085704192997 -1.08840803726 -1.77028555675 1.63944482781 1.93880821923 -3.03978883195
2.4788711359 1.9905181896 0.253620423229 -2.17237373962 -1.57279381147 0.0873149161916 -1.08737902711 -1.7699809224 1.64066228692 1.93918778056 -3.04363671026
2.50980966916 1.99006363074 0.258495707718 -2.1716551997 -1.57207527156 0.0889142641536 -1.08635137773 -1.76965089825 1.64187348657 1.93957229756 -3.04739917211
2.54605523529 1.98960568885 0.263369314817 -2.17094179515 -1.571361867 0.090502731718 -1.08532505771 -1.76929684912 1.64307847053 1.93996180525 -3.05107896113
2.59163375308 1.98910663542 0.26828832126 -2.17023277579 -1.57065284764 0.0918244307667 -1.08436351631 -1.76810967162 1.64430177736 1.94031245292 -3.0541
2.64577736246 1.98841320895 0.273438908616 -2.16952593245 -1.5699460043 0.0918402822225 -1.08372997695 -1.76282443642 1.64563993372 1.94044673548 -3.0541
2.68586566358 1.98772181882 0.278576266623 -2.16882531618 -1.56924538803 0.0918921357138 -1.08309082595 -1.75769469993 1.64696278923 1.94059870381 -3.0541
2.71928602309 1.98703290903 0.28369919187 -2.16813159027 -1.56855166212 0.09197849708 -1.08244727873 -1.75271446959 1.6482711079 1.94076638375 -3.0541
2.74859531753 1.98621958754 0.288761735145 -2.16741811781 -1.56783818966 0.0921311948628 -1.08177768216 -1.74790097159 1.64960548238 1.94088035728 -3.0541
2.77507103788 1.98540830064 0.293813288236 -2.16670989448 -1.56712996633 0.0923153137284 -1.08110331412 -1.74321779841 1.65092765972 1.94100859071 -3.0541
2.79946253691 1.9845994166 0.298852778488 -2.16600754745 -1.56642761931 0.092529680653 -1.08042520724 -1.73866037396 1.65223803081 1.9411495778 -3.0541
2.82193647667 1.98379288669 0.30388081373 -2.16531079078 -1.56573086263 0.0927730444831 -1.07974347368 -1.73422269164 1.65353741459 1.94130255223 -3.0541
2.84597942546 1.98298865639 0.308897965466 -2.16461936891 -1.56503944076 0.0930442207555 -1.07905822409 -1.7298991231 1.65482655132 1.94146682659 -3.0541
2.87222061859 1.98218666673 0.313904770662 -2.16393305373 -1.56435312558 0.09334208726 -1.07836956744 -1.72568438927 1.65610611115 1.94164178329 -3.0541
2.90086381111 1.98138685523 0.318901734311 -2.16325164141 -1.56367171326 0.0936655799754 -1.07767761054 -1.7215735334 1.65737670186 1.94182686692 -3.0541
2.93299271018 1.98058915668 0.323889331778 -2.16257494968 -1.56299502153 0.0940136893292 -1.07698245762 -1.71756189661 1.65863887568 1.94202157759 -3.0541
2.97068628543 1.97979350384 0.328868010929 -2.16190281543 -1.56232288728 0.0943854567465 -1.07628421003 -1.71364509559 1.65989313522 1.94222546497 -3.0541
3.01873758033 1.97899982798 0.333838194083 -2.16123509261 -1.56165516446 0.094779971466 -1.07558296605 -1.70981900235 1.66113993873 1.94243812311 -3.0541
3.20759898726 1.97820805938 0.338800279785 -2.16057165038 -1.56099172223 0.0951963675921 -1.07487882075 -1.70607972564 1.66237970465 1.94265918583 -3.0541
6.00394035093 2.02715281365 0.787002634133 -4.10241601958 2.9401792411 0.189962090985 -0.772436121316 -1.23442443993 1.79825859475 -0.970792333731 3.05251760049
6.17663966992 2.02594837393 0.791510050612 -4.10220533032 2.94038993036 0.188120400462 -0.772256623905 -1.23591435681 1.79746053729 -0.968540001754 3.05118713834
6.22210650461 2.02461566294 0.795965640515 -4.10202664725 2.94056861343 0.186255877061 -0.77208494032 -1.23740624696 1.79667728297 -0.966218738151 3.04985239093
6.25754779025 2.02328348988 0.800417986405 -4.10184797625 2.94074728442 0.184379603137 -0.771913432763 -1.23889243937 1.79589842326 -0.963900477138 3.04851313514
6.28745213292 2.02195184685 0.804867136375 -4.10166931979 2.94092594089 0.182491771086 -0.771742079117 -1.2403731007 1.79512396567 -0.961585203987 3.04716945197
6.31397193721 2.02062072599 0.809313137703 -4.10149068004 2.94110458064 0.180592569424 -0.771570858055 -1.24184839389 1.79435391694 -0.95927290447 3.04582142027
6.33820313143 2.01929011953 0.813756036821 -4.10131205904 2.94128320164 0.178682182749 -0.771399748881 -1.24331847897 1.7935882842 -0.956963565332 3.04446911683
6.36078845516 2.01796001975 0.818195879355 -4.10113345861 2.94146180206 0.176760791937 -0.771228731589 -1.24478351285 1.79282707443 -0.954657174031 3.0431126165
6.38205041926 2.01663041894 0.822632710179 -4.10095488031 2.94164038037 0.174828574383 -0.771057786966 -1.24624364865 1.79207029347 -0.952353718313 3.04175199215
6.40186857245 2.01530130948 0.827066573384 -4.10077632555 2.94181893512 0.17288570385 -0.770886896356 -1.24769903715 1.79131794793 -0.950053186977 3.04038731492
6.42071242935 2.01397268377 0.831497512351 -4.10059779553 2.94199746514 0.170932350788 -0.770716041835 -1.24914982573 1.79057004353 -0.947755569187 3.03901865418
6.4388092288 2.01264453429 0.835925569732 -4.10041929129 2.94217596938 0.168968682261 -0.770545206052 -1.25059615939 1.78982658646 -0.94546085499 3.03764607765
6.45618874485 2.01131685347 0.840350787523 -4.1002408136 2.94235444707 0.16699486227 -0.770374372418 -1.2520381795 1.78908758159 -0.943169034579 3.0362696514
6.47304646504 2.00998963387 0.844773207025 -4.10006236313 2.94253289754 0.165011051572 -0.770203524846 -1.25347602551 1.78835303457 -0.940880099146 3.03488944004
6.48939819975 2.00866286802 0.849192868913 -4.09988394031 2.94271132036 0.163017407991 -0.77003264795 -1.25490983365 1.78762295015 -0.938594040144 3.03350550666
6.50522749412 2.0072079734 0.853557318839 -4.09973579601 2.94285946466 0.161005501916 -0.76987075076 -1.25634753194 1.78690810958 -0.936240946621 3.03211917257
6.52042981134 2.0057534785 0.857919093619 -4.09958763679 2.94300762389 0.158984140615 -0.76970894422 -1.25778165121 1.78619774147 -0.933890635269 3.030729231
6.53532641049 2.00429913702 0.862279062055 -4.09943927813 2.94315598254 0.156955925528 -0.769547144848 -1.25921389494 1.78548959248 -0.931542046764 3.02933463786
6.54991794678 2.00284542046 0.866635584539 -4.09929108577 2.9433041749 0.154916032855 -0.76938549079 -1.26064116121 1.78478818839 -0.929197289504 3.0279376824
6.56421356686 2.00139207967 0.87098954721 -4.09914287401 2.94345238666 0.15286713336 -0.769223891623 -1.26206524323 1.78409126858 -0.926855299643 3.0265372857
6.57821937838 1.99993910756 0.875340984234 -4.09899464084 2.94360061983 0.150809349393 -0.769062338339 -1.26348624359 1.78339884162 -0.924516074714 3.02513350987
6.59194136426 1.99848649643 0.879689931679 -4.09884638425 2.94374887643 0.148742817408 -0.768900821179 -1.26490428095 1.78271091183 -0.922179611553 3.02372640926
6.6053853818 1.99703423863 0.884036425128 -4.09869810205 2.94389715863 0.14666767147 -0.768739330933 -1.26631947174 1.78202748327 -0.919845907422 3.02231603724
6.6186888833 1.99558232652 0.888380499702 -4.09854979193 2.94404546874 0.144584043401 -0.768577858914 -1.26773193035 1.78134855973 -0.917514959991 3.02090244618
6.63185343782 1.99413075247 0.892722190071 -4.09840145144 2.94419380923 0.142492062842 -0.768416396955 -1.26914176914 1.78067414467 -0.915186767328 3.01948568756
6.64514244104 1.9926795089 0.897061530473 -4.09825307796 2.94434218272 0.14039185731 -0.768254937392 -1.27054909851 1.78000424128 -0.912861327889 3.01806581194
6.65855717036 1.99122858823 0.901398554721 -4.09810466875 2.94449059193 0.138283552259 -0.76809347306 -1.27195402693 1.77933885246 -0.910538640504 3.01664286903
6.67223433279 1.98977798289 0.905733296219 -4.09795622092 2.94463903976 0.136167271132 -0.767931997283 -1.273356661 1.7786779808 -0.908218704371 3.01521690772
6.68599930948 1.98819938928 0.910009908935 -4.09783595288 2.94475930779 0.134038716376 -0.767780963704 -1.27476543412 1.77803072449 -0.905833205864 3.01378936007
6.70003142562 1.98662124491 0.914283616932 -4.09771575685 2.94487950382 0.131900508835 -0.767630096972 -1.27617134392 1.77739024576 -0.903451411502 3.01235990834
6.71433828275 1.98504334659 0.918555144309 -4.09759544995 2.94499981073 0.129754765949 -0.767479366011 -1.27757546497 1.77675429026 -0.901072315863 3.01092757265
6.72892535811 1.98346568698 0.92282452052 -4.09747502715 2.94512023352 0.127601588869 -0.767328768263 -1.27897788121 1.77612286318 -0.898695921716 3.00949240492
6.74379824459 1.98188825828 0.927091776658 -4.09735448366 2.94524077701 0.125441089758 -0.767178301022 -1.28037868928 1.77549596596 -0.896322231485 3.0080544505
6.7589626475 1.98031105272 0.931356943488 -4.09723381456 2.94536144612 0.123273379087 -0.767027962028 -1.2817779841 1.77487359969 -0.893951247892 3.00661375414
6.77442438779 1.97873406254 0.935620051465 -4.0971130148 2.94548224587 0.121098565731 -0.766877749449 -1.28317585903 1.77425576512 -0.891582973938 3.00517035997
6.79034705298 1.97715727998 0.93988113074 -4.09699207925 2.94560318143 0.118916757014 -0.766727661874 -1.28457240588 1.77364246265 -0.889217412898 3.00372431159
6.80674449605 1.97558069733 0.944140211169 -4.09687100263 2.94572425805 0.116728058748 -0.766577698303 -1.28596771493 1.77303369234 -0.886854568311 3.002275652
6.8236309864 1.97400430685 0.948397322325 -4.09674977956 2.94584548111 0.114532575267 -0.76642785814 -1.28736187496 1.77242945389 -0.884494443974 3.0008244237
6.84102122558 1.97242810086 0.952652493498 -4.09662840458 2.94596685609 0.112330409467 -0.766278141184 -1.28875497328 1.77182974668 -0.882137043936 2.99937066868
6.85910945181 1.97085207166 0.956905753712 -4.09650687208 2.94608838859 0.110121662839 -0.766128547621 -1.29014709578 1.77123456972 -0.879782372487 2.99791442842
6.87792380319 1.96927621157 0.961157131725 -4.09638517637 2.9462100843 0.107906435505 -0.76597907802 -1.29153832692 1.77064392169 -0.877430434158 2.99645574394
6.89734838355 1.96757280741 0.965346747315 -4.0962895013 2.94630575938 0.105682517529 -0.765841788553 -1.29293613968 1.77006710185 -0.875015584666 2.99499713193
6.91587895803 1.96586965411 0.969534001893 -4.09619374236 2.94640151831 0.103450867563 -0.765704805763 -1.294333088 1.769497047 -0.872604411981 2.9935370609
6.93367885058 1.96416659606 0.97371946362 -4.09609772268 2.946497538 0.101213107326 -0.765568128931 -1.29572956626 1.76893151118 -0.870195958145 2.99207466697
6.95077697678 1.96246362581 0.977903158364 -4.09600143443 2.94659382624 0.0989693206391 -0.76543176163 -1.29712564128 1.7683704945 -0.867790230106 2.9906099948
6.96736534895 1.96076073557 0.982085113412 -4.09590487027 2.94669039041 0.0967195997623 -0.765295707784 -1.29852138965 1.76781399358 -0.865387234758 2.9891430835
6.983459266 1.95905791755 0.98626535584 -4.09580802274 2.94678723793 0.0944640357871 -0.765159971654 -1.29991688661 1.76726200467 -0.862986979179 2.98767397184
6.99907356415 1.957355164 0.990443912522 -4.09571088433 2.94688437634 0.0922027187048 -0.765024557821 -1.30131220618 1.76671452361 -0.860589470618 2.98620269822
7.01422263013 1.95565246715 0.994620810138 -4.09561344743 2.94698181324 0.089935737432 -0.76488947118 -1.30270742116 1.76617154587 -0.858194716492 2.98472930072
7.02906739589 1.95394981929 0.998796075177 -4.09551570435 2.94707955632 0.0876631798341 -0.764754716932 -1.30410260316 1.76563306654 -0.855802724378 2.98325381709
7.04361406247 1.95224721269 1.00296973394 -4.09541764733 2.94717761335 0.0853851327497 -0.764620300578 -1.3054978226 1.76509908031 -0.853413502013 2.98177628475
7.05786870366 1.95054463965 1.00714181255 -4.09531926853 2.94727599214 0.0831016820128 -0.764486227907 -1.30689314873 1.7645695815 -0.85102705728 2.98029674083
7.07183726601 1.9488420925 1.01131233696 -4.09522056005 2.94737470062 0.0808129124753 -0.764352504996 -1.30828864968 1.76404456405 -0.848643398209 2.97881522217
7.0855255746 1.94713956356 1.01548133292 -4.09512151391 2.94747374677 0.0785189080286 -0.764219138195 -1.30968439242 1.76352402152 -0.846262532973 2.9773317653
7.09940743399 1.94531007054 1.01958493483 -4.09504615243 2.94754910825 0.0762195312264 -0.76409986058 -1.31108678035 1.76301755669 -0.843821710439 2.97585007131
7.11300952217 1.94348063007 1.02368665372 -4.09497050304 2.94762475763 0.0739140051113 -0.763981153021 -1.31248991698 1.76251775676 -0.841384620997 2.97436730529
7.12633889368 1.94165113172 1.02778692666 -4.09489439662 2.94770086405 0.07160356788 -0.76386301166 -1.31389364522 1.76202239609 -0.838950341044 2.97288271624
7.13940109186 1.93982156814 1.03188577722 -4.09481782316 2.94777743751 0.069288291126 -0.763745444863 -1.31529801784 1.76153146887 -0.836518880297 2.97139634442
7.15232955176 1.9379919317 1.03598323022 -4.09474077331 2.94785448736 0.0669682530412 -0.763628461672 -1.31670309508 1.76104496594 -0.834090248597 2.96990822526
7.1651257185 1.93616221477 1.04007931034 -4.09466323767 2.94793202301 0.0646435309854 -0.763512071357 -1.31810893609 1.76056287775 -0.831664455881 2.96841839399
7.17779101984 1.93433240978 1.04417404213 -4.09458520679 2.94801005388 0.0623142015322 -0.763396283407 -1.31951559902 1.76008519431 -0.829241512173 2.96692688562
7.19032686703 1.93250250915 1.04826745002 -4.0945066712 2.94808858947 0.0599803404839 -0.763281107515 -1.320923141 1.75961190526 -0.826821427583 2.96543373493
7.20298405374 1.93067250533 1.05235955827 -4.09442762137 2.9481676393 0.0576420228874 -0.76316655358 -1.32233161815 1.75914299982 -0.824404212299 2.96393897649
7.2157638276 1.92884239082 1.05645039106 -4.09434804773 2.94824721294 0.0552993230485 -0.763052631691 -1.32374108561 1.75867846682 -0.821989876586 2.96244264466
7.22866745031 1.9270121581 1.06053997242 -4.09426794068 2.94832731999 0.052952314546 -0.762939352127 -1.32515159756 1.75821829469 -0.819578430779 2.9609447736
7.2416961976 1.92518179972 1.06462832624 -4.09418729059 2.94840797008 0.0506010702461 -0.762826725345 -1.32656320718 1.75776247146 -0.817169885279 2.95944539728
7.25498290962 1.92335130822 1.06871547634 -4.0941060878 2.94848917288 0.0482456623154 -0.762714761975 -1.32797596673 1.75731098478 -0.814764250553 2.95794454946
7.26830804658 1.92139456871 1.07273368056 -4.09404607431 2.94854918637 0.0458881430463 -0.762618921127 -1.32939515885 1.75687365001 -0.812301789731 2.95644710461
7.28189612232 1.91943768835 1.07675043736 -4.09398553052 2.94860973015 0.0435258161885 -0.762524007443 -1.33081638943 1.75644276888 -0.809843174913 2.95494894416
7.29575343701 1.91748059918 1.08076606927 -4.09392429694 2.94867096373 0.0411596155539 -0.762429987745 -1.33223905359 1.75601615629 -0.807387509212 2.95344942393
7.30988540098 1.9155232942 1.08478059834 -4.09386236203 2.94873289864 0.0387896037237 -0.762336873747 -1.33366319184 1.75559380006 -0.804934803946 2.95194858114
7.32429754021 1.91356576616 1.08879404772 -4.09379971512 2.94879554556 0.03641584853 -0.762244678033 -1.33508885035 1.75517568471 -0.80248507065 2.95044644876
7.33899549305 1.91160800785 1.09280644044 -4.0937363455 2.94885891518 0.034038417186 -0.762153413306 -1.33651607435 1.75476179435 -0.800038320879 2.94894305963
7.35398501188 1.90965001209 1.09681779945 -4.09367224249 2.94892301819 0.0316573763176 -0.762063092381 -1.33794490823 1.75435211271 -0.797594566211 2.94743844641
7.36942483661 1.90769177172 1.1008281476 -4.09360739539 2.94898786529 0.0292727919728 -0.761973728174 -1.33937539546 1.75394662312 -0.795153818239 2.94593264159
7.38532858389 1.90573327964 1.10483750763 -4.09354179351 2.94905346716 0.0268847296314 -0.761885333698 -1.34080757866 1.7535453085 -0.792716088566 2.94442567751
7.40171028434 1.90377452875 1.10884590219 -4.09347542617 2.94911983451 0.024493254214 -0.761797922054 -1.3422414996 1.75314815141 -0.790281388807 2.94291758634
7.41875313829 1.90181551202 1.11285335384 -4.09340828268 2.949186978 0.0220984300906 -0.761711506426 -1.34367719917 1.752755134 -0.78784973058 2.94140840008
7.4364839271 1.89985622243 1.11685988503 -4.09334035238 2.94925490829 0.0197003210895 -0.761626100071 -1.34511471744 1.75236623806 -0.785421125506 2.9398981506
7.45511498644 1.897896653 1.12086551814 -4.09327162461 2.94932363606 0.0172989905056 -0.761541716315 -1.34655409362 1.75198144499 -0.782995585203 2.93838686957
7.47428196728 1.89581170703 1.12479874046 -4.09322146672 2.94937379395 0.0148987588683 -0.761475564946 -1.34799939367 1.75161067484 -0.780516484434 2.93688057645
7.49257138799 1.89372643742 1.12873092202 -4.09317050956 2.94942475111 0.0124948817396 -0.761410760675 -1.34944773671 1.75124602229 -0.778041376629 2.93537390329
7.5101434906 1.89164081532 1.13266228224 -4.0931186049 2.94947665578 0.0100880459266 -0.761347221587 -1.35089815818 1.75088536859 -0.775569388011 2.93386630633
7.52702649747 1.88955483433 1.13659284202 -4.09306574045 2.94952952023 0.00767830698613 -0.761284961213 -1.3523506874 1.75052869516 -0.773100530493 2.9323578203
7.54324752129 1.88746848784 1.14052262322 -4.09301190495 2.94958335573 0.00526572471264 -0.761223994045 -1.35380535799 1.75017598012 -0.770634816231 2.93084847616
7.55898845607 1.88538176929 1.14445164762 -4.09295708716 2.94963817352 0.00285035841717 -0.761164334587 -1.35526220273 1.74982720127 -0.768172257349 2.92933830471
7.57426359352 1.88329467213 1.14837993693 -4.09290127589 2.94969398478 0.000432266949062 -0.761105997348 -1.35672125362 1.74948233602 -0.765712865929 2.92782733663
7.58908679819 1.8812071899 1.15230751274 -4.09284446001 2.94975080067 -0.00198849129811 -0.761048996839 -1.35818254188 1.74914136141 -0.763256654014 2.92631560241
7.60361536733 1.87911931614 1.15623439658 -4.09278662841 2.94980863226 -0.00441185838073 -0.760993347559 -1.35964609796 1.74880425414 -0.760803633603 2.92480313243
7.61785523427 1.87703104446 1.1601606099 -4.09272777006 2.94986749061 -0.00683777679941 -0.760939063995 -1.36111195156 1.74847099056 -0.75835381665 2.9232899569
7.63181221171 1.87494236849 1.16408617405 -4.09266787398 2.9499273867 -0.00926618949361 -0.760886160613 -1.36258013159 1.74814154668 -0.755907215056 2.92177610588
7.64549199337 1.87285328194 1.16801111028 -4.09260692922 2.94998833145 -0.0116970398361 -0.760834651851 -1.36405066623 1.74781589817 -0.753463840675 2.9202616093
7.65890015562 1.87076377852 1.1719354398 -4.09254492492 2.95005033575 -0.014130271628 -0.760784552115 -1.3655235829 1.74749402036 -0.751023705302 2.91874649692
7.67246579526 1.86854122419 1.17578909058 -4.09248532945 2.95010993123 -0.0165627553038 -0.760741442296 -1.36700451727 1.74718663903 -0.748512683069 2.91723431713
7.68576194723 1.86631818287 1.17964210643 -4.09242461219 2.95017064849 -0.0189978724766 -0.760700108409 -1.36848939696 1.74688504207 -0.746005944552 2.91572208776
7.69879435566 1.86409465065 1.18349460311 -4.09236264155 2.95023261912 -0.0214351394013 -0.760660410421 -1.36997692169 1.74658715341 -0.743502617413 2.91420935587
7.71156832013 1.861870622 1.18734660065 -4.09229940536 2.95029585531 -0.0238745057034 -0.760622362214 -1.3714671105 1.74629294767 -0.741002713261 2.91269615444
7.72408903117 1.8596460912 1.19119811992 -4.09223489262 2.95036036805 -0.0263159175198 -0.760585978665 -1.37295998552 1.74600239613 -0.738506243939 2.911182513
7.73648430283 1.85742105257 1.19504918171 -4.09216909241 2.95042616826 -0.0287593213897 -0.760551274559 -1.37445556815 1.74571546975 -0.736013221207 2.90966846091
7.7487554571 1.85519550047 1.19889980672 -4.09210199391 2.95049326676 -0.0312046642397 -0.760518264583 -1.37595387908 1.74543213918 -0.733523656732 2.90815402739
7.76090380113 1.85296942933 1.20275001556 -4.09203358639 2.95056167428 -0.0336518933792 -0.760486963318 -1.3774549383 1.74515237479 -0.731037562095 2.9066392415
7.7731723684 1.85074283359 1.20659982876 -4.09196385923 2.95063140145 -0.0361009564972 -0.760457385235 -1.37895876509 1.74487614665 -0.728554948782 2.90512413214
7.78556241318 1.84851570777 1.21044926676 -4.0918928019 2.95070245877 -0.0385518016587 -0.760429544688 -1.38046537806 1.74460342455 -0.726075828186 2.90360872807
7.7980752054 1.84628804643 1.2142983499 -4.09182040399 2.95077485669 -0.0410043773011 -0.760403455911 -1.38197479513 1.744334178 -0.723600211603 2.90209305788
7.8108383947 1.84405984416 1.21814709844 -4.09174665518 2.95084860549 -0.0434586322305 -0.76037913301 -1.38348703353 1.74406837625 -0.721128110232 2.90057715002
7.82385706087 1.8418310956 1.22199553255 -4.09167154527 2.9509237154 -0.0459145156189 -0.760356589959 -1.38500210984 1.74380598826 -0.718659535172 2.89906103278
7.83684671066 1.83948794632 1.22575972894 -4.0916231509 2.95097210978 -0.0483594865551 -0.760369839677 -1.3865175506 1.74355536177 -0.716164608657 2.89755637591
7.85009642468 1.83714416171 1.22952363339 -4.09157339578 2.95102186489 -0.0508061772542 -0.760385338043 -1.38803728611 1.7433097991 -0.713673997003 2.89605194464
7.86361154137 1.83479977788 1.23328728245 -4.09152215617 2.9510731045 -0.0532542765492 -0.760402872751 -1.38955985844 1.74306740187 -0.711186873085 2.89454738116
7.87739744459 1.83245479028 1.23705069492 -4.09146942083 2.95112583984 -0.0557037398493 -0.760422456405 -1.3910852773 1.74282814043 -0.708703247567 2.89304271529
7.8914596339 1.83010919416 1.24081389031 -4.09141517973 2.95118008094 -0.0581545197164 -0.760444102518 -1.39261355459 1.74259198193 -0.706223131297 2.8915379737
7.90580371955 1.82776298479 1.24457688806 -4.091359423 2.95123583768 -0.0606065690538 -0.760467824435 -1.39414470159 1.74235889331 -0.703746535005 2.89003318292
7.92058174466 1.82541615751 1.24833970749 -4.09130214087 2.9512931198 -0.0630598410938 -0.76049363532 -1.39567872896 1.74212884128 -0.701273469302 2.88852836931
7.93580691523 1.8230687077 1.25210236785 -4.09124332374 2.95135193693 -0.0655142893956 -0.76052154816 -1.39721564676 1.74190179233 -0.69880394468 2.88702355909
7.9514928405 1.82072063081 1.25586488828 -4.09118296213 2.95141229855 -0.0679698678424 -0.760551575751 -1.39875546445 1.74167771276 -0.696337971511 2.88551877829
7.96765354614 1.81837192232 1.25962728783 -4.0911210467 2.95147421398 -0.0704265306393 -0.760583730702 -1.40029819089 1.74145656866 -0.693875560044 2.88401405283
7.98446998503 1.81602257776 1.26338958548 -4.09105756826 2.95153769242 -0.0728842323106 -0.760618025427 -1.40184383438 1.74123832594 -0.691416720405 2.88250940843
8.00196885263 1.81367259271 1.26715180008 -4.09099251776 2.95160274291 -0.0753429276973 -0.760654472142 -1.40339240262 1.74102295032 -0.688961462597 2.88100487068
8.02036002486 1.8113219628 1.27091395041 -4.09092588632 2.95166937436 -0.0778025719546 -0.760693082857 -1.40494390274 1.74081040735 -0.686509796495 2.87950046501
8.03923879677 1.8088496917 1.27459379937 -4.09086965285 2.95172560782 -0.0802519238611 -0.760756204686 -1.40649792168 1.74061022318 -0.68401478085 2.87800529416
8.05722788246 1.80637666387 1.27827369778 -4.09081179405 2.95178346662 -0.0827021993444 -0.760821998065 -1.40805652764 1.74041441462 -0.681524226322 2.87651060468
8.07434390119 1.8039029404 1.28195360075 -4.09075219755 2.95184306312 -0.0851532311621 -0.760890181146 -1.40961811397 1.74022123355 -0.679037332439 2.87501612704
8.09079215722 1.8014285178 1.28563352589 -4.09069085381 2.95190440687 -0.0876049794085 -0.76096076409 -1.41118268209 1.7400306464 -0.676554108361 2.87352188838
8.10659878249 1.79895339237 1.28931349138 -4.09062775456 2.95196750612 -0.0900574018164 -0.761033757885 -1.41275023487 1.73984261651 -0.674074563378 2.87202791296
8.12194078041 1.79647756046 1.29299351531 -4.09056289171 2.95203236896 -0.0925104564187 -0.761109173279 -1.41432077463 1.73965710708 -0.67159870664 2.87053422484
8.13759147752 1.79400101844 1.29667361568 -4.09049625734 2.95209900333 -0.0949641015393 -0.761187020779 -1.41589430322 1.73947408119 -0.669126547154 2.86904084796
8.15371681949 1.79152376277 1.30035381035 -4.09042784371 2.95216741696 -0.0974182957909 -0.761267310644 -1.41747082193 1.73929350182 -0.66665809379 2.86754780606
8.17049742623 1.78904578991 1.30403411712 -4.09035764324 2.95223761744 -0.0998729980733 -0.761350052888 -1.41905033158 1.73911533182 -0.664193355274 2.86605512277
8.18796000806 1.7865670964 1.30771455365 -4.09028564853 2.95230961215 -0.102328167571 -0.761435257273 -1.42063283246 1.73893953395 -0.661732340192 2.86456282151
8.20631409306 1.78408767879 1.31139513753 -4.09021185236 2.95238340832 -0.104783763752 -0.761522933306 -1.42221832441 1.73876607089 -0.659275056987 2.86307092558
8.2257981951 1.78160753371 1.31507588622 -4.09013624769 2.95245901299 -0.107239746364 -0.76161309024 -1.42380680674 1.7385949052 -0.656821513959 2.8615794581
8.24648198721 1.7791266578 1.31875681708 -4.09005882765 2.95253643303 -0.109696075435 -0.761705737068 -1.42539827833 1.73842599941 -0.654371719267 2.86008844203
8.2681800506 1.77652578253 1.3223523104 -4.08998908856 2.95260617211 -0.112139250649 -0.761824763354 -1.42699053169 1.73826854325 -0.651881990504 2.85860784921
8.28838581022 1.7739240547 1.32594816969 -4.08991748838 2.9526777723 -0.114582650038 -0.761946831941 -1.42858747396 1.73811469398 -0.649396846105 2.85712795568
8.30742185213 1.77132155503 1.32954427504 -4.08984392396 2.95275133671 -0.117026228015 -0.762071595086 -1.43018740618 1.73796287603 -0.646915515536 2.85564857848
8.32553531381 1.76871828108 1.3331406427 -4.08976838811 2.95282687256 -0.119469949046 -0.762199059535 -1.43179032271 1.73781305329 -0.644438006099 2.85416974196
8.34277098898 1.76611423017 1.33673728936 -4.08969087492 2.95290438575 -0.121913775627 -0.762329232762 -1.43339621875 1.73766518674 -0.64196432517 2.8526914678
8.35933549397 1.76350939967 1.3403342316 -4.08961137869 2.95298388199 -0.124357670519 -0.762462121955 -1.43500508908 1.73751923731 -0.639494479971 2.85121377752
8.37525503923 1.76090378696 1.34393148589 -4.08952989391 2.95306536677 -0.126801596741 -0.762597734019 -1.43661692807 1.73737516593 -0.637028477577 2.84973669248
8.39101840432 1.75829738947 1.34752906858 -4.08944641527 2.9531488454 -0.129245517572 -0.762736075573 -1.43823172966 1.7372329335 -0.63456632491 2.8482602339
8.40742339605 1.75569020468 1.35112699592 -4.08936093767 2.95323432301 -0.131689396541 -0.762877152949 -1.43984948739 1.7370925009 -0.632108028744 2.84678442281
8.42449620914 1.75308223007 1.35472528404 -4.08927345619 2.95332180448 -0.134133197435 -0.763020972189 -1.44147019441 1.73695382904 -0.629653595701 2.84530928012
8.44244178512 1.75047346319 1.35832394897 -4.08918396613 2.95341129454 -0.136576884288 -0.763167539048 -1.44309384346 1.73681687881 -0.627203032255 2.84383482658
8.46130482516 1.74786390161 1.3619230066 -4.08909246297 2.9535027977 -0.139020421386 -0.763316858989 -1.44472042694 1.73668161114 -0.624756344728 2.84236108277
8.48133059363 1.74525354291 1.36552247272 -4.08899894241 2.95359631827 -0.141463773262 -0.763468937184 -1.44634993681 1.73654798696 -0.622313539295 2.84088806913
8.50220084564 1.74252503728 1.36903343078 -4.08891045614 2.95368480453 -0.143891250614 -0.763649077697 -1.44797822297 1.73642477588 -0.619834172718 2.83942652603
8.52173783702 1.73979560818 1.37254504307 -4.08881991257 2.9537753481 -0.146318343746 -0.763832561023 -1.44961113709 1.73630435026 -0.617359484936 2.8379658591
8.54014500882 1.73706535096 1.37605712143 -4.08872721463 2.95386804604 -0.148745109665 -0.764018980906 -1.45124693737 1.73618532369 -0.614888738621 2.83650597063
8.55766119884 1.73433426411 1.37956968055 -4.08863235789 2.95396290279 -0.151171516919 -0.764208340051 -1.4528856124 1.73606765908 -0.61242193903 2.8350468822
8.57432960443 1.73160234584 1.3830827355 -4.08853533923 2.95405992145 -0.153597532403 -0.764400641785 -1.45452715122 1.73595131652 -0.609959091447 2.83358861293
8.5903499444 1.7288695944 1.38659630117 -4.08843615576 2.95415910492 -0.156023123245 -0.764595889134 -1.45617154252 1.73583625622 -0.607500201006 2.83213118177
8.60574747815 1.72613600806 1.39011039239 -4.08833480479 2.95426045588 -0.158448256802 -0.764794084821 -1.45781877467 1.73572243844 -0.60504527269 2.83067460756
8.62069447052 1.72340158509 1.39362502382 -4.08823128385 2.95436397682 -0.160872900654 -0.764995231267 -1.45946883574 1.73560982353 -0.602594311331 2.82921890896
8.63549580921 1.72066632381 1.39714021004 -4.08812559067 2.95446967 -0.163297022607 -0.765199330589 -1.4611217135 1.73549837191 -0.600147321611 2.82776410451
8.65074811231 1.71793022255 1.40065596548 -4.0880177232 2.95457753748 -0.165720590688 -0.765406384603 -1.4627773954 1.73538804412 -0.597704308066 2.82631021262
8.66646518322 1.71519327967 1.40417230448 -4.08790767958 2.95468758109 -0.168143573143 -0.765616394822 -1.46443586861 1.73527880079 -0.595265275081 2.82485725153
8.6828232115 1.71245549352 1.40768924122 -4.08779545819 2.95479980249 -0.170565938438 -0.765829362461 -1.46609712001 1.73517060265 -0.592830226896 2.82340523936
8.69982672668 1.70971686251 1.4112067898 -4.08768105759 2.95491420308 -0.172987655253 -0.766045288431 -1.46776113622 1.73506341055 -0.590399167603 2.82195419408
8.71712657615 1.70686214785 1.41463281961 -4.08756914406 2.95502611661 -0.175390936127 -0.76629073961 -1.46942169591 1.73496551525 -0.587934857732 2.82051551791
8.73371321897 1.70400646143 1.4180597605 -4.08745502428 2.9551402364 -0.177793310352 -0.766539752455 -1.47108668948 1.73486956053 -0.585475289575 2.81907785324
8.74965573574 1.70114990883 1.42148736326 -4.08733860322 2.95525665746 -0.180194920889 -0.766791872117 -1.47275437426 1.7347743595 -0.583019761785 2.81764118627
8.76497919748 1.69829248926 1.42491564097 -4.08721987949 2.95537538119 -0.18259574005 -0.767047096983 -1.4744247345 1.73467987545 -0.580568277541 2.81620553596
8.77985498412 1.69543420164 1.42834460689 -4.08709885301 2.95549640767 -0.184995738749 -0.767305425976 -1.47609775455 1.7345860691 -0.578120840016 2.81477091899
8.79429622896 1.69257504491 1.43177427418 -4.0869755239 2.95561973677 -0.187394888104 -0.767566857718 -1.47777341851 1.73449290133 -0.575677452241 2.81333735193
8.80932697704 1.689715018 1.43520465588 -4.0868498925 2.95574536817 -0.189793159425 -0.767831390533 -1.47945171029 1.73440033318 -0.573238117103 2.81190485121
8.82481645467 1.68685411986 1.43863576488 -4.08672195937 2.95587330131 -0.192190524217 -0.768099022447 -1.48113261354 1.73430832588 -0.570802837348 2.81047343315
8.84093834454 1.68399234945 1.44206761398 -4.08659172524 2.95600353543 -0.194586954177 -0.76836975119 -1.48281611174 1.73421684079 -0.568371615579 2.80904311393
8.85771852742 1.68112970572 1.44550021583 -4.0864591911 2.95613606957 -0.196982421189 -0.768643574199 -1.48450218815 1.73412583947 -0.565944454262 2.80761390963
8.87535860016 1.67826618764 1.44893358297 -4.08632435812 2.95627090255 -0.199376897326 -0.768920488616 -1.48619082582 1.73403528365 -0.563521355722 2.80618583619
8.89408813409 1.67540179417 1.45236772781 -4.08618722767 2.956408033 -0.201770354847 -0.769200491292 -1.48788200764 1.73394513526 -0.561102322146 2.80475890946
8.91397448545 1.67253652429 1.45580266265 -4.08604780135 2.95654745932 -0.204162766195 -0.769483578792 -1.48957571627 1.73385535641 -0.558687355586 2.80333314513
8.93471954925 1.66955744087 1.45914312257 -4.08590843722 2.95668682346 -0.206534353754 -0.769797410645 -1.49126355085 1.73377372364 -0.556242370432 2.80192049753
8.95406551072 1.66657735643 1.46248471673 -4.08576676937 2.9568284913 -0.208904592877 -0.77011493657 -1.49295552234 1.7336931913 -0.553802158275 2.80050895739
8.97229481651 1.66359638321 1.46582714249 -4.08562270041 2.95697256026 -0.211273697807 -0.770435664384 -1.49464992165 1.73361277587 -0.551366055712 2.79909859304
8.9896437496 1.66061452093 1.46917041121 -4.08547623204 2.95711902863 -0.213641644247 -0.77075958821 -1.49634673 1.73353244229 -0.548934063924 2.79768942105
9.00615488355 1.65763176899 1.47251453435 -4.08532736723 2.95726789344 -0.216008406716 -0.771086702636 -1.49804592852 1.73345215316 -0.546506184079 2.79628145594
9.02202586574 1.65464812678 1.47585952325 -4.08517610915 2.95741915152 -0.218373959895 -0.771417001971 -1.49974749816 1.73337187132 -0.544082417208 2.79487471215
9.03728156722 1.65166359369 1.47920538911 -4.08502246117 2.9575727995 -0.22073827863 -0.771750480248 -1.50145141975 1.73329155984 -0.541662764218 2.793469204
9.05284803766 1.64867816908 1.48255214303 -4.08486642687 2.9577288338 -0.223101337926 -0.772087131225 -1.503157674 1.73321118202 -0.539247225883 2.79206494572
9.06905092108 1.64569185232 1.48589979598 -4.08470801001 2.95788725066 -0.225463112945 -0.772426948387 -1.50486624148 1.73313070137 -0.536835802851 2.79066195145
9.0860849432 1.64270464276 1.48924835879 -4.08454721457 2.9580480461 -0.227823579006 -0.77276992495 -1.50657710264 1.73305008169 -0.534428495645 2.78926023521
9.10399279325 1.63971653976 1.49259784219 -4.0843840447 2.95821121597 -0.23018271158 -0.773116053865 -1.50829023783 1.73296928696 -0.532025304662 2.78785981095
9.12300762191 1.63672754265 1.49594825677 -4.08421850477 2.95837675591 -0.232540486293 -0.773465327815 -1.5100056273 1.73288828147 -0.529626230173 2.78646069251
9.1433998216 1.63373765074 1.499299613 -4.08405059931 2.95854466136 -0.23489687892 -0.773817739224 -1.51172325117 1.7328070297 -0.52723127233 2.78506289365
9.16482920044 1.63063641534 1.50255358938 -4.0838804696 2.95871479107 -0.237230243093 -0.774201857292 -1.51343244388 1.73273278228 -0.52480943777 2.78367881132
9.1846369139 1.62753416433 1.50580888827 -4.08370799118 2.95888726949 -0.239561891634 -0.774589716529 -1.51514540285 1.73265882476 -0.522392377632 2.78229589752
9.2031174554 1.62443101409 1.50906516141 -4.08353305972 2.95906220095 -0.241892097113 -0.77498079894 -1.51686047949 1.73258437491 -0.519979467437 2.78091430003
9.22053222192 1.62132696462 1.51232241848 -4.08335567991 2.95923958076 -0.244220838203 -0.775375094707 -1.51857765331 1.73250940032 -0.517570706539 2.77953403337
9.2371068287 1.61822201556 1.51558066912 -4.08317585763 2.95941940305 -0.246548092565 -0.775772594423 -1.52029690348 1.7324338665 -0.515166094281 2.77815511028
9.25303960393 1.61511616651 1.51883992286 -4.08299359894 2.95960166173 -0.248873837989 -0.77617328844 -1.52201820911 1.73235773924 -0.512765629885 2.77677754341
9.26835544431 1.61200941705 1.52210018909 -4.08280891011 2.95978635056 -0.251198052393 -0.776577166864 -1.52374154925 1.73228098462 -0.510369312465 2.77540134533
9.28307827813 1.60890176676 1.52536147712 -4.08262179756 2.95997346312 -0.25352071382 -0.776984219567 -1.52546690289 1.73220356897 -0.507977141018 2.77402652854
9.29780576624 1.60579321518 1.5286237961 -4.0824322679 2.96016299278 -0.255841800438 -0.777394436182 -1.52719424899 1.73212545893 -0.505589114431 2.77265310548
9.31298435014 1.60268376183 1.53188715509 -4.08224032791 2.96035493276 -0.258161290538 -0.777807806111 -1.52892356644 1.7320466214 -0.503205231481 2.77128108851
9.32878432159 1.59957340621 1.53515156301 -4.08204598456 2.96054927611 -0.260479162531 -0.778224318524 -1.5306548341 1.73196702358 -0.500825490837 2.76991048993
9.34523116225 1.59646214779 1.53841702867 -4.08184924498 2.96074601569 -0.262795394945 -0.778643962366 -1.5323880308 1.73188663295 -0.498449891059 2.76854132196
9.36252260294 1.59334998601 1.54168356076 -4.08165011648 2.9609451442 -0.265109966427 -0.779066726359 -1.53412313532 1.73180541726 -0.4960784306 2.76717359676
9.38026393227 1.59012914176 1.54484985791 -4.08144662524 2.96114863544 -0.267399492951 -0.779521899194 -1.53584715711 1.73173011211 -0.493683137619 2.76582004783
9.39715006155 1.58690727746 1.54801763089 -4.08124079076 2.96135446991 -0.269687004443 -0.779980780865 -1.53757452735 1.7316543363 -0.491292593618 2.76446769952
9.41322112772 1.58368451217 1.55118649369 -4.08103249754 2.96156276313 -0.271972820405 -0.780442838497 -1.53930367816 1.73157750162 -0.488906213012 2.7631167754
9.4286694232 1.58046084592 1.55435645432 -4.08082175298 2.9617735077 -0.274256922034 -0.780908058839 -1.54103458833 1.73149957904 -0.486523993548 2.76176728838
9.44351908287 1.57723627834 1.55752752066 -4.08060856558 2.96198669509 -0.276539289643 -0.781376429026 -1.54276723622 1.73142053772 -0.48414593297 2.76041924978
9.45793604659 1.57401080906 1.56069970051 -4.08039294405 2.96220231662 -0.278819903647 -0.78184793599 -1.54450160019 1.73134034713 -0.481772028925 2.75907267088
9.47309265792 1.57078443766 1.56387300153 -4.08017489723 2.96242036345 -0.281098744555 -0.782322566463 -1.5462376586 1.73125897703 -0.479402278963 2.75772756289
9.48886910096 1.56755716366 1.56704743126 -4.0799544341 2.96264082658 -0.283375792969 -0.782800306983 -1.54797538983 1.73117639749 -0.477036680536 2.75638393699
9.50529072518 1.5643289866 1.57022299715 -4.07973156381 2.96286369686 -0.285651029582 -0.783281143894 -1.54971477225 1.73109257888 -0.474675231004 2.75504180429
9.52255484744 1.56109990594 1.57339970651 -4.07950629568 2.963088965 -0.287924435176 -0.783765063351 -1.55145578424 1.7310074919 -0.472317927632 2.7537011759
9.5408861931 1.55786992113 1.57657756656 -4.07927863913 2.96331662154 -0.290195990625 -0.784252051323 -1.55319840421 1.73092110752 -0.469964767592 2.75236206285
9.56054538164 1.55463903157 1.57975658439 -4.07904860378 2.9635466569 -0.292465676886 -0.784742093595 -1.55494261058 1.73083339706 -0.467615747968 2.75102447613
9.58183943167 1.55140723665 1.58293676698 -4.07881619935 2.96377906133 -0.294733475003 -0.785235175772 -1.5566883818 1.73074433213 -0.465270865748 2.74968842673
9.6045815412 1.54806960099 1.58601391009 -4.07857744533 2.96401781534 -0.29697440064 -0.785761113895 -1.55842036686 1.73066016464 -0.46290509305 2.74836688442
9.62530478199 1.54473094678 1.5890926483 -4.07833639977 2.9642588609 -0.299213072319 -0.786290658312 -1.56015525854 1.73057483102 -0.460544020599 2.74704655251
9.64444749079 1.5413913952 1.59217256554 -4.07809293225 2.96450232842 -0.301449846549 -0.786823271003 -1.56189158363 1.73048792568 -0.45818710075 2.74572772572
9.6623070397 1.53805094611 1.59525366827 -4.07784705253 2.96474820814 -0.303684706579 -0.787358935916 -1.56362932103 1.73039942346 -0.455834329872 2.74441041575
9.67913606492 1.53470959899 1.59833596271 -4.07759877139 2.96499648928 -0.305917634898 -0.787897637368 -1.56536844922 1.73030929761 -0.453485704361 2.74309463292
9.69682829659 1.53136735327 1.60141945499 -4.07734809978 2.9652471609 -0.308148614057 -0.788439359521 -1.56710894668 1.73021752166 -0.451141220528 2.74178038751
9.71561401 1.52802420833 1.60450415116 -4.07709504873 2.96550021194 -0.310377626675 -0.788984086381 -1.56885079196 1.73012406952 -0.448800874603 2.74046768979
9.73564827154 1.52468016353 1.60759005712 -4.07683962944 2.96575563123 -0.312604655434 -0.789531801806 -1.57059396366 1.73002891536 -0.446464662738 2.73915654997
9.75600146213 1.52133521817 1.61067717868 -4.07658185321 2.96601340746 -0.314829683075 -0.790082489505 -1.57233844042 1.72993203368 -0.444132581004 2.7378469783
9.77804699006 1.51798937151 1.61376552156 -4.07632173148 2.9662735292 -0.3170526924 -0.790636133043 -1.57408420095 1.72983339932 -0.441804625395 2.73653898495
9.80240553314 1.51464262279 1.61685509134 -4.07605927578 2.96653598489 -0.319273666273 -0.791192715842 -1.575831224 1.72973298741 -0.439480791828 2.7352325801
9.83004910304 1.51129497119 1.61994589352 -4.07579449779 2.9668 -0.321492587613 -0.79175222119 -1.5775794884 1.72963077339 -0.437161076144 2.73392777392
9.85692914825 1.50794862864 1.62303133951 -4.07542765908 2.9668 -0.323698932512 -0.792229220923 -1.57937422622 1.72956301972 -0.434770400265 2.73263433999
9.88129549777 1.50449936506 1.62601076383 -4.07504967904 2.9668 -0.325876187282 -0.792737037985 -1.58115389439 1.72950028572 -0.432359520884 2.73135622004
9.90336072112 1.50104905616 1.62899136016 -4.07466827786 2.9668 -0.328050984336 -0.793247227932 -1.58293542261 1.72943595994 -0.429952104161 2.73008006227
9.9237437593 1.49759770164 1.63197313693 -4.07428347344 2.9668 -0.33022330692 -0.793759783574 -1.58471879133 1.72937001419 -0.427548153161 2.72880587903
9.94276115927 1.49414529932 1.63495609883 -4.07389527976 2.9668 -0.332393137036 -0.794274694086 -1.58650398025 1.72930242077 -0.425147666816 2.72753368297
9.96068185922 1.49069184702 1.63794025041 -4.07350371093 2.9668 -0.334560456775 -0.794791948529 -1.58829096901 1.72923315225 -0.42275064401 2.72626348671
9.97773798446 1.48723734254 1.64092559615 -4.07310878124 2.9668 -0.336725248319 -0.795311535859 -1.59007973724 1.72916218142 -0.42035708359 2.72499530278
9.99413358911 1.4837817837 1.64391214041 -4.07271050513 2.9668 -0.338887493939 -0.795833444929 -1.59187026456 1.72908948135 -0.417966984355 2.7237291437
10.0098942598 1.48032516827 1.64689988743 -4.0723088972 2.9668 -0.341047175991 -0.796357664485 -1.59366253053 1.72901502533 -0.415580345065 2.72246502192
10.0250445941 1.47686749405 1.64988884136 -4.07190397221 2.9668 -0.343204276922 -0.796884183174 -1.59545651473 1.72893878693 -0.413197164436 2.72120294984
10.0403511275 1.47340875881 1.65287900625 -4.07149574504 2.9668 -0.345358779264 -0.797412989542 -1.59725219668 1.72886073995 -0.410817441142 2.71994293981
10.0562840639 1.46994896032 1.65587038603 -4.07108423076 2.9668 -0.347510665634 -0.797944072035 -1.59904955593 1.72878085846 -0.408441173815 2.71868500415
10.0730348966 1.46648809634 1.65886298453 -4.07066944456 2.9668 -0.349659918734 -0.798477419009 -1.60084857197 1.72869911676 -0.406068361049 2.71742915509
10.0908217293 1.46302616463 1.66185680547 -4.07025140178 2.9668 -0.351806521352 -0.799013018716 -1.6026492243 1.72861548943 -0.403699001391 2.71617540486
10.1090578773 1.45946431147 1.66474235749 -4.06981982831 2.9668 -0.353921844747 -0.799579273636 -1.60443388694 1.72853652805 -0.4013121009 2.71493687917
10.1264750763 1.45590139979 1.66762912093 -4.06938493303 2.9668 -0.356034541409 -0.800147771234 -1.60622009007 1.72845552473 -0.398928644073 2.71370041026
10.1432176333 1.45233742995 1.67051710382 -4.068946737 2.9668 -0.358144596752 -0.800718503443 -1.60800781452 1.72837245486 -0.396548634257 2.71246600957
10.1593116875 1.44877239982 1.67340630932 -4.06850525648 2.9668 -0.360251994645 -0.80129145799 -1.60979703993 1.72828729418 -0.394172069824 2.7112336889
10.1755715271 1.44520630725 1.67629674052 -4.0680605079 2.9668 -0.362356719033 -0.801866622519 -1.61158774591 1.72820001872 -0.391798949112 2.71000346
10.1924966324 1.44163915008 1.6791884004 -4.06761250778 2.9668 -0.364458753929 -0.802443984595 -1.61337991208 1.72811060475 -0.389429270415 2.70877533457
10.2102904082 1.43807092617 1.68208129184 -4.06716127279 2.9668 -0.366558083416 -0.803023531705 -1.61517351809 1.72801902878 -0.387063031991 2.70754932428
10.2289974465 1.43450163333 1.68497541761 -4.06670681971 2.9668 -0.368654691646 -0.803605251262 -1.61696854356 1.7279252676 -0.384700232064 2.70632544077
10.2488613048 1.4309312694 1.6878707804 -4.06624916546 2.9668 -0.370748562842 -0.804189130601 -1.61876496813 1.72782929823 -0.382340868816 2.70510369562
10.270164451 1.42735983219 1.6907673828 -4.06578832707 2.9668 -0.372839681294 -0.804775156986 -1.62056277144 1.72773109795 -0.379984940393 2.70388410039
10.2932396524 1.42378731951 1.69366522729 -4.06532432167 2.9668 -0.374928031359 -0.805363317609 -1.62236193317 1.72763064431 -0.377632444905 2.7026666666
10.31899169 1.42021372916 1.69656431626 -4.06485716655 2.9668 -0.377013597464 -0.805953599592 -1.62416243296 1.7275279151 -0.375283380425 2.70145140572
10.34857666 1.41663905894 1.69946465201 -4.06438687908 2.9668 -0.379096364099 -0.806545989991 -1.62596425052 1.72742288836 -0.372937744988 2.70023832919
10.3749812481 1.41296774206 1.70225406011 -4.06390090611 2.9668 -0.381146291247 -0.807168310923 -1.62774760684 1.72732194392 -0.370576762203 2.69904063717
10.398701534 1.40929535708 1.70504469628 -4.06341175062 2.9668 -0.383193460691 -0.807792715871 -1.62953218935 1.72721856096 -0.36821919462 2.69784507988
10.4203962387 1.40562190508 1.70783656846 -4.06291943639 2.9668 -0.385237859697 -0.808419196379 -1.63131797979 1.7271127185 -0.365865046035 2.69665166813
10.4406371694 1.40194738394 1.71062967845 -4.06242398152 2.9668 -0.387279473694 -0.809047739165 -1.63310495814 1.72700439581 -0.363514314344 2.69546041303
10.4597106018 1.39827179154 1.71342402797 -4.06192540423 2.9668 -0.389318288164 -0.809678330891 -1.63489310441 1.72689357243 -0.361166997409 2.69427132568
10.4778636171 1.39459512574 1.71621961865 -4.06142372281 2.9668 -0.391354288644 -0.810310958165 -1.6366823986 1.72678022812 -0.358823093056 2.69308441716
10.4962035269 1.3909173844 1.71901645202 -4.06091895567 2.9668 -0.393387460726 -0.810945607543 -1.63847282077 1.7266643429 -0.356482599079 2.69189969849
10.5156774148 1.38723856536 1.72181452955 -4.06041112129 2.9668 -0.395417790055 -0.811582265527 -1.640264351 1.72654589705 -0.354145513234 2.69071718069
10.5363554074 1.38355866648 1.72461385258 -4.05990023827 2.9668 -0.39744526233 -0.812220918569 -1.64205696937 1.72642487109 -0.351811833244 2.68953687474
10.5585315322 1.37987768558 1.72741442239 -4.05938632529 2.9668 -0.399469863301 -0.812861553075 -1.64385065602 1.72630124578 -0.349481556799 2.68835879156
10.5827678707 1.37619562052 1.73021624014 -4.05886940111 2.9668 -0.401491578773 -0.813504155402 -1.64564539109 1.72617500216 -0.347154681553 2.68718294209
10.6049570726 1.37251246911 1.73301930694 -4.05834948458 2.9668 -0.403510394602 -0.81414871186 -1.64744115477 1.72604612147 -0.344831205127 2.68600933721
10.6254544842 1.36882822918 1.73582362378 -4.05782659464 2.9668 -0.405526296697 -0.814795208717 -1.64923792727 1.72591458525 -0.342511125107 2.68483798776
10.6451232201 1.36505075292 1.73851441245 -4.0572860452 2.9668 -0.407507974749 -0.815470758692 -1.65101383399 1.72578668691 -0.340177827215 2.68368211403
10.6637792794 1.36127220195 1.74120642513 -4.05674248544 2.9668 -0.409486797818 -0.816148212502 -1.65279066435 1.72565600788 -0.337847907348 2.6825284397
10.6815349194 1.35749257818 1.74389966998 -4.05619594146 2.9668 -0.411462754736 -0.816827561754 -1.65456840144 1.72552253083 -0.335521369887 2.68137697509
10.6992956087 1.3537118795 1.74659414758 -4.05564643272 2.9668 -0.413435832207 -0.817508792564 -1.6563470259 1.72538623849 -0.333198212309 2.68022773084
10.7179675899 1.3499301038 1.74928985843 -4.05509397874 2.9668 -0.415406016974 -0.818191891011 -1.65812651839 1.72524711382 -0.330878432056 2.67908071757
10.7375976299 1.34614724896 1.75198680297 -4.05453859912 2.9668 -0.417373295824 -0.818876843143 -1.65990685963 1.72510514002 -0.328562026539 2.67793594586
10.7584412682 1.34236331284 1.75468498153 -4.05398031354 2.9668 -0.419337655584 -0.819563634973 -1.66168803035 1.72496030051 -0.326248993134 2.67679342628
10.7807948682 1.33857829334 1.75738439438 -4.05341914174 2.9668 -0.421299083121 -0.82025225249 -1.66347001134 1.72481257899 -0.323939329188 2.67565316938
10.80515892 1.33479218831 1.76008504168 -4.05285510352 2.9668 -0.423257565344 -0.820942681649 -1.66525278343 1.72466195937 -0.321633032011 2.67451518566
10.827525355 1.33100499562 1.76278692354 -4.05228821873 2.9668 -0.425213089204 -0.821634908378 -1.66703632748 1.72450842581 -0.319330098883 2.67337948561
10.8512746077 1.32721671315 1.76549003998 -4.05171850731 2.9668 -0.427165641689 -0.822328918581 -1.66882062439 1.72435196268 -0.31703052705 2.67224607971
10.8775161198 1.32342733876 1.76819439092 -4.05114598923 2.9668 -0.42911520983 -0.823024698133 -1.67060565512 1.72419255463 -0.314734313726 2.67111497838
10.9077233506 1.31963687032 1.77089997622 -4.05057068455 2.9668 -0.431061780698 -0.823722232889 -1.67239140065 1.72403018652 -0.31244145609 2.66998619204
10.9347256665 1.31575670386 1.77348949739 -4.04997591461 2.9668 -0.432972911607 -0.824447808374 -1.67415396292 1.72387115433 -0.310137443963 2.66887291523
10.9590577149 1.31187545878 1.77608022 -4.04937833253 2.9668 -0.434881119899 -0.825175092479 -1.67591716287 1.72370905279 -0.307836764432 2.66776189198
10.9813116423 1.30799313788 1.77867215272 -4.04877796635 2.9668 -0.436786395712 -0.825904077283 -1.67768098525 1.72354386811 -0.305539422554 2.66665313233
11.002074045 1.30410973908 1.78126529507 -4.04817483643 2.9668 -0.438688726777 -0.826634748653 -1.67944541154 1.72337558629 -0.303245415425 2.66554664655
11.0216386068 1.3002252603 1.78385964648 -4.04756896319 2.9668 -0.440588100861 -0.827367092437 -1.68121042329 1.72320419357 -0.3009547401 2.66444244489
11.0410148563 1.29633969946 1.78645520631 -4.0469603671 2.9668 -0.442484505759 -0.828101094469 -1.68297600208 1.72302967639 -0.298667393608 2.66334053761
11.0615888748 1.29245305446 1.78905197387 -4.04634906866 2.9668 -0.4443779293 -0.828836740572 -1.68474212955 1.72285202145 -0.296383372942 2.66224093491
11.0836738795 1.28856532323 1.79164994837 -4.04573508841 2.9668 -0.446268359341 -0.829574016554 -1.68650878736 1.72267121564 -0.294102675065 2.66114364698
11.1042594085 1.2846765037 1.79424912896 -4.04511844695 2.9668 -0.448155783773 -0.830312908212 -1.68827595725 1.7224872461 -0.291825296906 2.660048684
11.1236573463 1.28078659377 1.7968495147 -4.0444991649 2.9668 -0.450040190518 -0.831053401332 -1.690043621 1.72230010019 -0.289551235361 2.6589560561
11.1421190013 1.27689559138 1.7994511046 -4.04387726293 2.9668 -0.451921567527 -0.831795481694 -1.69181176043 1.72210976547 -0.287280487298 2.65786577343
11.1596895737 1.27300349445 1.80205389757 -4.04325276172 2.9668 -0.453799902786 -0.832539135065 -1.69358035743 1.72191622975 -0.285013049545 2.65677784606
11.1777976523 1.26911030091 1.80465789248 -4.04262568201 2.9668 -0.45567518431 -0.833284347207 -1.69534939392 1.72171948105 -0.282748918904 2.65569228409
11.1965567612 1.26513106849 1.8071433586 -4.04197748614 2.9668 -0.457513970889 -0.834056470519 -1.69709303282 1.72152590782 -0.28047562895 2.6546222185
11.2145255748 1.26115075615 1.80962998733 -4.04132669579 2.9668 -0.4593497932 -0.834830098056 -1.69883704334 1.72132902776 -0.2782056181 2.65355445242
11.2317979207 1.2571693677 1.81211778813 -4.04067334058 2.9668 -0.46118264245 -0.835605222716 -1.70058141212 1.72112883039 -0.275938892161 2.65248899573
11.2495984553 1.2531869011 1.8146067596 -4.0400174414 2.9668 -0.463012507199 -0.836381830418 -1.70232612164 1.72092530477 -0.273675447857 2.65142585843
11.2683120698 1.24920335434 1.81709690025 -4.03935901916 2.9668 -0.464839376029 -0.837159907078 -1.70407115444 1.72071844017 -0.27141528188 2.65036505052
11.2879856095 1.2452187254 1.81958820853 -4.03869809478 2.9668 -0.466663237548 -0.837939438612 -1.70581649307 1.72050822608 -0.269158390887 2.64930658196
11.3088751513 1.24123301229 1.82208068283 -4.03803468922 2.9668 -0.468484080387 -0.83872041094 -1.70756212018 1.72029465218 -0.266904771507 2.64825046269
11.3312776704 1.23724621299 1.82457432148 -4.03736882346 2.9668 -0.470301893202 -0.83950280998 -1.70930801844 1.72007770838 -0.264654420333 2.64719670266
11.3555169677 1.23325832551 1.82706912272 -4.03670051848 2.9668 -0.472116664673 -0.840286621653 -1.7110541706 1.71985738477 -0.262407333925 2.64614531175
11.3779317279 1.22926934786 1.82956508475 -4.03602979529 2.9668 -0.473928383504 -0.841071831885 -1.71280055944 1.71963367168 -0.260163508812 2.64509629985
11.4019699645 1.22527927806 1.8320622057 -4.03535667493 2.9668 -0.475737038427 -0.841858426607 -1.71454716782 1.71940655962 -0.257922941489 2.64404967682
11.4285304131 1.22128811413 1.83456048361 -4.03468117843 2.9668 -0.477542618197 -0.842646391751 -1.71629397863 1.71917603931 -0.255685628417 2.64300545249
11.4590040447 1.2172958541 1.8370599165 -4.03400332684 2.9668 -0.479345111594 -0.843435713257 -1.71804097484 1.71894210167 -0.253451566026 2.64196363668
11.4862539955 1.21322132821 1.83943843419 -4.0333028495 2.9668 -0.481110207937 -0.844250716537 -1.71976047465 1.71871131624 -0.251210269217 2.64093726652
11.5108075353 1.20914572389 1.84181806163 -4.03260000891 2.9668 -0.482872321098 -0.84506701559 -1.72148010203 1.71847703428 -0.248972189965 2.63991323536
11.5334882906 1.205069046 1.84419880936 -4.03189483597 2.9668 -0.484631443158 -0.845884604422 -1.72319984571 1.71823924839 -0.246737334853 2.63889155301
11.5546486213 1.20099129262 1.84658067516 -4.03118735175 2.9668 -0.486387563333 -0.846703469251 -1.72491968922 1.7179979504 -0.244505700245 2.63787222926
11.5745878769 1.19691246184 1.84896365677 -4.0304775773 2.9668 -0.488140670859 -0.847523596305 -1.72663961612 1.71775313237 -0.242277282471 2.6368552739
11.5945324089 1.19283255176 1.85134775189 -4.02976553368 2.9668 -0.489890754993 -0.848344971823 -1.72835961004 1.71750478652 -0.240052077826 2.63584069666
11.6158002319 1.18875156048 1.85373295812 -4.02905124195 2.9668 -0.491637805011 -0.849167582056 -1.73007965466 1.71725290529 -0.237830082573 2.63482850729
11.6357553441 1.18466948612 1.85611927303 -4.02833472319 2.9668 -0.493381810208 -0.849991413268 -1.73179973372 1.71699748128 -0.23561129294 2.63381871549
11.6553224607 1.18058632682 1.85850669413 -4.02761599846 2.9668 -0.4951227599 -0.850816451736 -1.73351983101 1.71673850731 -0.233395705123 2.63281133095
11.6760988776 1.17650208071 1.86089521886 -4.02689508884 2.9668 -0.496860643424 -0.851642683752 -1.73523993039 1.71647597636 -0.231183315283 2.63180636332
11.6983799465 1.17241674596 1.86328484462 -4.02617201538 2.9668 -0.498595450138 -0.852470095619 -1.73696001577 1.71620988161 -0.228974119548 2.63080382224
11.7225135907 1.16833032073 1.86567556873 -4.02544679916 2.9668 -0.500327169421 -0.853298673658 -1.73868007112 1.71594021644 -0.226768114009 2.62980371732
11.7490462127 1.16424280319 1.86806738846 -4.02471946123 2.9668 -0.502055790675 -0.854128404207 -1.74040008046 1.71566697438 -0.224565294727 2.62880605815
11.7734572923 1.16007690003 1.87033599183 -4.02396811611 2.9668 -0.503746257453 -0.85498250383 -1.74209061915 1.71539699147 -0.222357093688 2.62782376453
11.7959586174 1.155909923 1.87260564023 -4.02321464735 2.9668 -0.505433742061 -0.855837691091 -1.74378106456 1.71512336607 -0.220152040468 2.62684384419
11.8169513888 1.15174187805 1.8748763455 -4.0224590869 2.9668 -0.507118237278 -0.856693961333 -1.74547140759 1.71484609356 -0.217950142437 2.62586630695
11.8367326043 1.14757276341 1.87714810479 -4.02170145569 2.9668 -0.508799732848 -0.857551301268 -1.74716163282 1.71456516829 -0.215751395596 2.62489116243
11.8555585885 1.14340257732 1.87942091518 -4.02094177462 2.9668 -0.510478218532 -0.858409697627 -1.74885172487 1.71428058477 -0.213555795909 2.62391842021
11.873654646 1.13923131803 1.88169477373 -4.02018006462 2.9668 -0.512153684106 -0.859269137164 -1.75054166845 1.71399233769 -0.211363339306 2.62294808984
11.8919363735 1.13505898383 1.88396967741 -4.01941634658 2.9668 -0.513826119364 -0.860129606647 -1.75223144828 1.71370042193 -0.209174021683 2.62198018088
11.9111556107 1.130885573 1.88624562316 -4.01865064137 2.9668 -0.51549551412 -0.86099109287 -1.75392104918 1.71340483251 -0.206987838899 2.62101470283
11.9313604417 1.12671108384 1.88852260786 -4.01788296988 2.9668 -0.517161858203 -0.861853582645 -1.75561045601 1.71310556465 -0.204804786782 2.62005166517
11.9528138256 1.12253551467 1.89080062837 -4.01711335296 2.9668 -0.518825141464 -0.862717062807 -1.75729965367 1.71280261373 -0.202624861121 2.61909107736
11.9758207157 1.11835886382 1.89307968144 -4.01634181145 2.9668 -0.520485353771 -0.863581520212 -1.75898862715 1.71249597529 -0.200448057671 2.61813294884
12.0009879738 1.11418112966 1.89535976384 -4.01556836617 2.9668 -0.522142485013 -0.864446941737 -1.76067736149 1.71218564505 -0.198274372154 2.61717728901
12.0240068073 1.11000231055 1.89764087222 -4.01479303794 2.9668 -0.5237965251 -0.865313314286 -1.76236584178 1.71187161888 -0.196103800254 2.61622410724
12.0458034494 1.10574908682 1.89979655511 -4.01399243683 2.9668 -0.525411789809 -0.86620267542 -1.76402300792 1.71156108006 -0.193929625307 2.61528618851
12.0663945209 1.10149479714 1.90195320856 -4.01318995565 2.9668 -0.527024090866 -0.867092920015 -1.76567988347 1.7112467921 -0.191758520053 2.61435067302
12.0859910943 1.09723944861 1.9041108459 -4.01238562718 2.9668 -0.52863342161 -0.867984044928 -1.76733646157 1.71092875286 -0.189590492638 2.61341757062
12.1046412087 1.09298303964 1.90626946377 -4.01157947198 2.9668 -0.530239772212 -0.868876037515 -1.76899272785 1.71060695886 -0.187425538692 2.61248689075
12.1225680734 1.08872556869 1.90842905872 -4.0107715106 2.9668 -0.531843132854 -0.869768885159 -1.77064866797 1.7102814068 -0.185263653811 2.6115586428
12.1401460986 1.08446703421 1.91058962729 -4.00996176356 2.9668 -0.533443493737 -0.870662575265 -1.77230426766 1.70995209354 -0.183104833552 2.61063283616
12.1584424358 1.08020743468 1.91275116594 -4.00915025136 2.9668 -0.535040845079 -0.871557095266 -1.77395951271 1.70961901608 -0.180949073438 2.60970948017
12.1776768853 1.07594676859 1.91491367113 -4.00833699448 2.9668 -0.536635177115 -0.87245243262 -1.77561438895 1.70928217158 -0.178796368955 2.60878858414
12.197897553 1.07168503448 1.91707713923 -4.00752201336 2.9668 -0.538226480098 -0.873348574813 -1.77726888229 1.70894155735 -0.176646715554 2.60787015736
12.2193675852 1.06742223088 1.91924156659 -4.00670532843 2.9668 -0.539814744301 -0.874245509355 -1.77892297868 1.70859717086 -0.174500108648 2.60695420909
12.2423921488 1.06315835635 1.92140694951 -4.0058869601 2.9668 -0.541399960014 -0.875143223784 -1.78057666415 1.70824900973 -0.172356543615 2.60604074855
12.2674047594 1.05889340947 1.92357328426 -4.00506692873 2.9668 -0.542982117548 -0.876041705668 -1.78222992475 1.70789707171 -0.170216015796 2.60512978493
12.290440912 1.05462738885 1.92574056706 -4.00424525466 2.9668 -0.544561207236 -0.876940942598 -1.78388274664 1.70754135473 -0.168078520496 2.60422132741
12.3123546665 1.05029103903 1.9277803139 -4.00339714634 2.9668 -0.546101029106 -0.877861734184 -1.78550254532 1.70718946433 -0.165939125526 2.60332801386
12.3329343655 1.04595363489 1.92982094899 -4.00254740183 2.9668 -0.547637921297 -0.878783211983 -1.78712187947 1.70683375284 -0.163802713533 2.60243712966
12.3525199654 1.04161518468 1.9318624874 -4.00169605456 2.9668 -0.549171877591 -0.879705374493 -1.78874074447 1.70647422024 -0.161669293409 2.60154868475
12.3711594906 1.03727568706 1.9339049253 -4.00084312456 2.9668 -0.550702888505 -0.880628209823 -1.79035912694 1.70611086498 -0.159538860409 2.60066268837
12.3890760378 1.03293514071 1.93594825888 -3.99998863179 2.9668 -0.552230944574 -0.881551706109 -1.79197701355 1.70574368563 -0.157411409754 2.59977914972
12.4068194839 1.02859354433 1.93799248426 -3.99913259622 2.9668 -0.55375603635 -0.882475851517 -1.79359439101 1.7053726809 -0.155286936622 2.59889807797
12.4252878555 1.02425089666 1.94003759751 -3.99827503778 2.9668 -0.555278154404 -0.88340063424 -1.79521124612 1.70499784965 -0.153165436159 2.59801948227
12.4445107763 1.01990719644 1.9420835947 -3.99741597635 2.9668 -0.556797289323 -0.884326042504 -1.7968275657 1.70461919087 -0.151046903471 2.59714337172
12.4647191592 1.01556244245 1.94413047182 -3.99655543179 2.9668 -0.558313431717 -0.885252064561 -1.79844333665 1.70423670368 -0.148931333627 2.5962697554
12.4861759747 1.01121663349 1.94617822485 -3.99569342393 2.9668 -0.559826572213 -0.886178688695 -1.80005854591 1.70385038733 -0.14681872166 2.59539864234
12.5091861755 1.00686976839 1.94822684972 -3.99482997255 2.9668 -0.561336701458 -0.887105903221 -1.8016731805 1.70346024123 -0.144709062565 2.59453004156
12.5341881985 1.002521846 1.95027634233 -3.99396509741 2.9668 -0.562843810123 -0.888033696482 -1.80328722746 1.7030662649 -0.142602351299 2.59366396202
12.5572095984 0.998172865194 1.95232669855 -3.99309881824 2.9668 -0.564347888899 -0.888962056853 -1.80490067393 1.70266845799 -0.140498582784 2.59280041266
12.5790065949 0.993757718707 1.95424751335 -3.99220503741 2.9668 -0.565812327987 -0.889910497644 -1.80647952422 1.70227491694 -0.138394541696 2.59195187636
12.5995472204 0.989341533515 1.95616912811 -3.99130986166 2.9668 -0.567273885073 -0.890859436686 -1.8080577587 1.70187751288 -0.136293388111 2.59110579196
12.6190954752 0.984924319013 1.95809155974 -3.99041332491 2.9668 -0.568732554284 -0.891808874207 -1.80963537502 1.70147624769 -0.134195131634 2.59026216949
12.6376993087 0.980506074134 1.96001480413 -3.98951544649 2.9668 -0.570188326434 -0.892758799139 -1.81121236072 1.70107112141 -0.13209976714 2.58942101796
12.6555813995 0.976086797835 1.96193885716 -3.98861624568 2.9668 -0.571641192357 -0.893709200444 -1.81278870341 1.70066213421 -0.13000728947 2.58858234636
12.6732905768 0.9716664891 1.96386371465 -3.98771574175 2.9668 -0.573091142904 -0.894660067114 -1.81436439075 1.70024928638 -0.127917693423 2.58774616363
12.6917231261 0.96724514694 1.96578937239 -3.9868139539 2.9668 -0.574538168948 -0.895611388174 -1.81593941045 1.69983257834 -0.125830973765 2.58691247869
12.7109085985 0.962822770393 1.96771582617 -3.9859109013 2.9668 -0.57598226138 -0.896563152679 -1.81751375029 1.69941201063 -0.123747125219 2.58608130043
12.7310774428 0.958399358524 1.9696430717 -3.98500660311 2.9668 -0.577423411116 -0.897515349716 -1.81908739807 1.6989875839 -0.121666142473 2.58525263766
12.7524920928 0.953974910425 1.97157110469 -3.9841010784 2.9668 -0.578861609091 -0.898467968403 -1.82066034169 1.69855929893 -0.119588020175 2.58442649921
12.7754568786 0.949549425217 1.97349992082 -3.98319434623 2.9668 -0.580296846263 -0.899420997889 -1.82223256906 1.6981271566 -0.117512752938 2.58360289382
12.8004257176 0.945122902048 1.97542951572 -3.98228642563 2.9668 -0.581729113616 -0.900374427359 -1.82380406818 1.69769115794 -0.115440335334 2.58278183022
12.8234012794 0.940695340096 1.97735988501 -3.98137733556 2.9668 -0.583158402154 -0.901328246025 -1.82537482709 1.69725130406 -0.113370761899 2.5819633171
12.8452827951 0.936205857808 1.97915881834 -3.9804397613 2.9668 -0.584547791987 -0.902300642466 -1.82690955271 1.69681624398 -0.111302466262 2.581159678
12.8659622849 0.931715356632 1.98095845902 -3.97950102844 2.9668 -0.585934359706 -0.903273360302 -1.82844353297 1.69637730461 -0.109236953817 2.58035850986
12.8856425289 0.92722384707 1.98275882595 -3.97856117133 2.9668 -0.587318099704 -0.904246401545 -1.82997676772 1.69593448938 -0.107174234833 2.57955982277
12.9045591052 0.922731328357 1.98455991481 -3.9776202085 2.9668 -0.588699003053 -0.905219755992 -1.83150924536 1.69548779969 -0.105114303812 2.5787636255
12.92274165 0.918237799753 1.98636172126 -3.97667815844 2.9668 -0.590077060849 -0.906193413473 -1.83304095438 1.69503723703 -0.103057155213 2.57796992679
12.9405699359 0.913743260549 1.98816424096 -3.9757350396 2.9668 -0.591452264207 -0.907167363846 -1.83457188329 1.69458280302 -0.101002783462 2.57717873534
12.9591262953 0.909247710065 1.98996746949 -3.97479087039 2.9668 -0.592824604266 -0.908141597006 -1.83610202066 1.69412449937 -0.0989511829416 2.57639005981
12.9784404642 0.90475114765 1.99177140244 -3.97384566918 2.9668 -0.59419407219 -0.909116102877 -1.83763135514 1.69366232789 -0.0969023479997 2.57560390881
12.9987444208 0.900253572683 1.99357603537 -3.97289945429 2.9668 -0.595560659163 -0.910090871413 -1.83915987538 1.69319629052 -0.0948562729436 2.57482029091
13.020302335 0.895754984572 1.99538136381 -3.971952244 2.9668 -0.596924356399 -0.911065892604 -1.84068757014 1.69272638929 -0.0928129520436 2.57403921466
13.0431916516 0.891255382756 1.99718738326 -3.97100405654 2.9668 -0.598285155132 -0.912041156471 -1.84221442818 1.69225262633 -0.0907723795305 2.57326068853
13.067940574 0.886754766704 1.99899408919 -3.9700549101 2.9668 -0.599643046627 -0.913016653065 -1.84374043834 1.69177500388 -0.0887345495972 2.57248472099
13.0908402121 0.882253135917 2.00080147706 -3.96910482283 2.9668 -0.600998022172 -0.913992372473 -1.84526558952 1.69129352428 -0.0866994563994 2.57171132042
13.1125732996 0.877693905643 2.00247565093 -3.96812534562 2.9668 -0.602312945317 -0.914985149271 -1.84675340459 1.69081744379 -0.0846671147562 2.57095264956
13.1331600846 0.873133680611 2.00415043673 -3.96714493954 2.9668 -0.60362511715 -0.915978083072 -1.84824036523 1.6903374891 -0.0826374431794 2.57019646515
13.1527519285 0.868572472374 2.00582585546 -3.96616363926 2.9668 -0.604934532263 -0.916971177689 -1.84972647341 1.68985366495 -0.0806104525542 2.56944277732
13.1715833643 0.864010280486 2.0075019027 -3.96518146245 2.9668 -0.606241181963 -0.917964423804 -1.85121171835 1.68936597382 -0.0785861370128 2.56869159459
13.1896839083 0.859447104533 2.009178574 -3.96419842675 2.9668 -0.60754505758 -0.91895781213 -1.8526960893 1.6888744183 -0.0765644906459 2.56794292541
13.2076091047 0.85488294413 2.01085586487 -3.96321454974 2.9668 -0.608846150473 -0.919951333413 -1.85417957557 1.68837900106 -0.0745455075081 2.5671967782
13.2262661613 0.850317798922 2.01253377084 -3.96222984896 2.9668 -0.610144452023 -0.920944978428 -1.85566216652 1.68787972489 -0.0725291816144 2.56645316133
13.2456849588 0.845751668587 2.01421228737 -3.9612443419 2.9668 -0.61143995364 -0.921938737984 -1.85714385156 1.68737659265 -0.070515506941 2.56571208312
13.2660987146 0.841184552835 2.01589140994 -3.96025804603 2.9668 -0.612732646759 -0.922932602919 -1.85862462014 1.6868696073 -0.068504477427 2.56497355186
13.2877730042 0.836616451404 2.01757113399 -3.95927097874 2.9668 -0.614022522844 -0.923926564104 -1.86010446178 1.68635877188 -0.0664960869711 2.56423757578
13.3107856647 0.832047364066 2.01925145493 -3.9582831574 2.9668 -0.615309573388 -0.924920612442 -1.86158336601 1.68584408954 -0.0644903294357 2.56350416308
13.3354591585 0.827477290627 2.02093236817 -3.95729459931 2.9668 -0.616593789912 -0.925914738867 -1.86306132246 1.6853255635 -0.0624871986441 2.5627733219
13.3584817531 0.82290623092 2.02261386909 -3.95630532174 2.9668 -0.617875163967 -0.926908934347 -1.86453832077 1.6848031971 -0.0604866883818 2.56204506033
13.3802676919 0.818281961724 2.02416049954 -3.95528581829 2.9668 -0.619116429893 -0.927918658575 -1.86597681163 1.68428690149 -0.0584903275179 2.5613313809
13.4009412269 0.813656726222 2.02570764509 -3.95426560792 2.9668 -0.620355025078 -0.928928388823 -1.86741435806 1.68376675423 -0.0564965149231 2.56062019969
13.4206154425 0.809030536945 2.02725532892 -3.95324472554 2.9668 -0.621590944258 -0.929938130702 -1.86885096411 1.68324276111 -0.0545052620515 2.55991152688
13.4395258748 0.804403393778 2.02880354656 -3.95222318792 2.9668 -0.622824178955 -0.930947875778 -1.87028661968 1.68271492549 -0.0525165626789 2.55920537068
13.4577021756 0.79977529664 2.03035229354 -3.95120101181 2.9668 -0.624054720725 -0.931957615647 -1.87172131474 1.68218325082 -0.0505304105416 2.55850173923
13.4757022224 0.79514624548 2.03190156536 -3.95017821388 2.9668 -0.625282561146 -0.932967341935 -1.87315503931 1.68164774063 -0.0485467993388 2.55780064065
13.4944370038 0.790516240281 2.03345135748 -3.94915481077 2.9668 -0.62650769183 -0.933977046299 -1.87458778345 1.68110839854 -0.0465657227302 2.55710208298
13.5139365097 0.785885281056 2.03500166539 -3.94813081909 2.9668 -0.627730104416 -0.934986720425 -1.87601953725 1.68056522824 -0.0445871743381 2.55640607424
13.5344349078 0.781253367852 2.03655248452 -3.94710625538 2.9668 -0.628949790575 -0.93599635603 -1.87745029087 1.68001823351 -0.042611147747 2.55571262238
13.555983368 0.776620500747 2.03810381031 -3.94608113615 2.9668 -0.630166742008 -0.937005944863 -1.87888003451 1.67946741819 -0.0406376365034 2.55502173532
13.5788622011 0.771986679852 2.03965563817 -3.94505547784 2.9668 -0.631380950447 -0.938015478701 -1.88030875841 1.67891278623 -0.0386666341155 2.55433342093
13.6034400948 0.767351905311 2.0412079635 -3.94402929686 2.9668 -0.632592407658 -0.939024949354 -1.88173645287 1.67835434164 -0.0366981340538 2.55364768701
13.6263283446 0.7627161773 2.04276078169 -3.94300260957 2.9668 -0.633801105438 -0.940034348661 -1.88316310821 1.67779208851 -0.0347321297527 2.55296454133
13.6480606125 0.758031692528 2.04417719921 -3.94194492429 2.9668 -0.63496973013 -0.941057748156 -1.88455021251 1.67723663378 -0.0327715980758 2.55229582833
13.6685904974 0.75334627414 2.04559403478 -3.94088674545 2.9668 -0.636135773389 -0.942081016699 -1.88593629993 1.67667736385 -0.0308134844725 2.55162962143
13.6881278152 0.748659935544 2.04701131386 -3.93982810819 2.9668 -0.637299230042 -0.943104161678 -1.88732137649 1.67611428531 -0.0288578009185 2.55096593084
13.7069064798 0.743972676964 2.04842903199 -3.93876902835 2.9668 -0.638460091822 -0.944127175523 -1.88870543276 1.67554740222 -0.0269045408537 2.55030476443
13.7249559473 0.739284498653 2.04984718475 -3.93770952177 2.9668 -0.639618350491 -0.945150050696 -1.8900884593 1.67497671868 -0.0249536976802 2.54964613003
13.7428302126 0.734595400896 2.05126576766 -3.93664960421 2.9668 -0.640773997845 -0.946172779685 -1.89147044676 1.67440223889 -0.0230052647618 2.54899003538
13.7614338908 0.729905384014 2.05268477625 -3.93558929141 2.9668 -0.641927025711 -0.947195355008 -1.8928513858 1.6738239671 -0.0210592354264 2.54833648822
13.780796745 0.725214448355 2.05410420604 -3.93452859906 2.9668 -0.643077425949 -0.948217769211 -1.89423126714 1.67324190765 -0.0191156029628 2.5476854962
13.801151284 0.720522594305 2.05552405252 -3.93346754278 2.9668 -0.644225190453 -0.94924001487 -1.89561008154 1.67265606495 -0.0171743606238 2.54703706693
13.8225482935 0.715829822279 2.0569443112 -3.93240613816 2.9668 -0.64537031115 -0.950262084588 -1.89698781981 1.67206644345 -0.0152355016248 2.546391208
13.8452660922 0.711136132725 2.05836497753 -3.93134440075 2.9668 -0.646512780004 -0.951283971 -1.89836447279 1.6714730477 -0.0132990191442 2.54574792689
13.8695685814 0.706441526126 2.059786047 -3.93028234604 2.9668 -0.647652589012 -0.952305666767 -1.89974003139 1.67087588231 -0.0113649063237 2.54510723109
13.892295254 0.701746002995 2.06120751505 -3.92921998947 2.9668 -0.648789730207 -0.953327164579 -1.90111448653 1.67027495195 -0.00943315626743 2.54446912798
13.913834618 0.697006232105 2.06249118271 -3.92812592147 2.9668 -0.649886917081 -0.954361141342 -1.9024484703 1.6696815938 -0.00750812932278 2.54384530703
13.9341972973 0.692265564334 2.06377517226 -3.92703156428 2.9668 -0.650981619611 -0.955394864502 -1.9037813807 1.66908446757 -0.00558538225618 2.54322399597
13.9535752951 0.687524013865 2.06505951144 -3.92593695321 2.9668 -0.652073832672 -0.95642834318 -1.90511322566 1.66848358047 -0.00366492751966 2.54260520504
13.9722006343 0.682781581254 2.0663441959 -3.92484210322 2.9668 -0.653163548197 -0.957461570642 -1.90644399628 1.66787893705 -0.00174675824426 2.54198894175
13.9910157244 0.678038267084 2.0676292213 -3.92374702922 2.9668 -0.654250758154 -0.958494540183 -1.90777368368 1.66727054194 0.000169132477046 2.54137521355
14.0105984191 0.673294071972 2.06891458328 -3.92265174607 2.9668 -0.655335454543 -0.959527245124 -1.90910227901 1.6666583998 0.00208275158629 2.54076402787
14.0311838466 0.668548996568 2.07020027748 -3.92155626861 2.9668 -0.656417629401 -0.960559678812 -1.91042977349 1.66604251536 0.0039941060632 2.54015539204
14.0528233475 0.663803041552 2.07148629951 -3.92046061161 2.9668 -0.657497274801 -0.961591834622 -1.91175615835 1.66542289344 0.00590320292291 2.53954931337
14.075798369 0.659056207638 2.07277264499 -3.9193647898 2.9668 -0.658574382853 -0.962623705956 -1.91308142489 1.6647995389 0.00781004921671 2.5389457991
14.100435258 0.654308495573 2.07405930953 -3.91826881786 2.9668 -0.659648945702 -0.963655286241 -1.91440556443 1.66417245664 0.00971465203238 2.53834485644
14.1273852406 0.649559906134 2.07534628873 -3.91717271044 2.9668 -0.660720955533 -0.964686568932 -1.91572856835 1.66354165166 0.0116170184924 2.53774649253
14.1573770497 0.644810440131 2.07663357816 -3.91607648213 2.9668 -0.661790404568 -0.965717547513 -1.91705042804 1.662907129 0.013517155756 2.53715071445
14.1920098476 0.640060098408 2.07792117343 -3.91498014746 2.9668 -0.662857285067 -0.966748215491 -1.91837113497 1.66226889376 0.0154150710174 2.53655752923
14.2222309479 0.635270067695 2.07906970282 -3.91385144211 2.9668 -0.663884406843 -0.967789854723 -1.91965056844 1.66163904179 0.0173050829885 2.53597847489
14.2494209845 0.630479180618 2.08021845974 -3.91272264282 2.9668 -0.664909148243 -0.968831132074 -1.92092888639 1.66100547671 0.0191929607635 2.53540192999
14.2742862848 0.625687452019 2.08136747424 -3.91159378504 2.9668 -0.665931504155 -0.969872058342 -1.92220609857 1.66036820618 0.021078691456 2.53482790477
14.2974826679 0.620894882772 2.08251674213 -3.91046488283 2.9668 -0.666951466706 -0.970912627593 -1.92348219653 1.6597272351 0.0229622822121 2.53425640637
14.3193385392 0.61610147378 2.08366625921 -3.90933595021 2.9668 -0.66796902806 -0.971952833912 -1.92475717183 1.65908256843 0.0248437402146 2.53368744188
14.3401372905 0.611307225981 2.08481602129 -3.90820700118 2.9668 -0.66898418042 -0.972992671413 -1.9260310161 1.6584342112 0.026723072682 2.53312101832
14.3599300463 0.606512140341 2.08596602415 -3.90707804966 2.9668 -0.669996916026 -0.974032134231 -1.92730372098 1.65778216846 0.0286002868665 2.53255714267
14.3793361929 0.601716217861 2.08711626357 -3.90594910955 2.9668 -0.671007227157 -0.975071216528 -1.92857527816 1.65712644535 0.0304753900565 2.53199582185
14.3995338263 0.59691945957 2.08826673533 -3.9048201947 2.9668 -0.672015106132 -0.976109912489 -1.92984567939 1.65646704705 0.0323483895746 2.53143706272
14.4207654355 0.592121866531 2.08941743522 -3.9036913189 2.9668 -0.673020545308 -0.977148216326 -1.93111491641 1.65580397878 0.0342192927769 2.53088087211
14.4433071339 0.587323439837 2.09056835899 -3.90256249592 2.9668 -0.674023537085 -0.978186122274 -1.93238298104 1.65513724584 0.0360881070553 2.53032725676
14.4673273615 0.582524180613 2.0917195024 -3.90143373946 2.9668 -0.675024073902 -0.979223624592 -1.93364986512 1.65446685355 0.0379548398353 2.52977622338
14.4937060945 0.577724090017 2.09287086124 -3.90030506319 2.9668 -0.676022148239 -0.980260717564 -1.93491556053 1.6537928073 0.0398194985762 2.52922777862
14.5181184771 0.572888912449 2.09388202628 -3.89914340739 2.9668 -0.676980729528 -0.981307292881 -1.93613929322 1.6531279846 0.0416751412177 2.52869331267
14.5408366369 0.568052922484 2.09489332706 -3.89798184381 2.9668 -0.677937040435 -0.982353412251 -1.93736188096 1.65245950916 0.0435288022171 2.52816135131
14.5622416982 0.563216135493 2.09590479598 -3.89682040802 2.9668 -0.678891075819 -0.983399088091 -1.9385833352 1.65178738892 0.0453804682889 2.52763190479
14.5826112305 0.558378552657 2.09691642905 -3.89565911323 2.9668 -0.679842827999 -0.984444315212 -1.93980364786 1.65111162902 0.0472301468217 2.52710497988
14.6021891669 0.553540175182 2.09792822226 -3.8944979726 2.9668 -0.680792289333 -0.985489088445 -1.9410228109 1.65043223464 0.0490778452392 2.52658058326
14.621006263 0.54870100431 2.0989401716 -3.89333699926 2.9668 -0.681739452217 -0.986533402644 -1.94224081629 1.64974921101 0.0509235709987 2.52605872158
14.6396401019 0.543861041308 2.09995227307 -3.89217620628 2.9668 -0.682684309092 -0.987577252688 -1.94345765605 1.64906256342 0.0527673315902 2.52553940142
14.6590337168 0.539020287477 2.10096452265 -3.8910156067 2.9668 -0.683626852437 -0.988620633474 -1.94467332225 1.6483722972 0.0546091345377 2.52502262931
14.6792180822 0.534178744148 2.10197691633 -3.88985521351 2.9668 -0.684567074773 -0.989663539925 -1.94588780696 1.64767841772 0.0564489873977 2.52450841174
14.7004355062 0.52933641268 2.1029894501 -3.88869503967 2.9668 -0.685504968664 -0.990705966984 -1.94710110231 1.6469809304 0.0582868977602 2.52399675511
14.7229618892 0.524493294464 2.10400211993 -3.88753509808 2.9668 -0.686440526718 -0.991747909618 -1.94831320048 1.64627984071 0.060122873247 2.5234876658
14.7471171366 0.519649390921 2.10501492181 -3.8863754016 2.9668 -0.687373741583 -0.992789362815 -1.94952409364 1.64557515417 0.0619569215131 2.52298115011
14.7733039069 0.514804703502 2.10602785172 -3.88521596305 2.9668 -0.688304605954 -0.993830321586 -1.95073377403 1.64486687633 0.0637890502453 2.52247721431
14.7980791843 0.509929567861 2.10689960037 -3.88402298316 2.9668 -0.689196306434 -0.994879296923 -1.95190090963 1.64416868436 0.0656111140512 2.52198710408
14.8249378609 0.505053666855 2.10777139622 -3.88283027278 2.9668 -0.690085851722 -0.995927736124 -1.95306688191 1.64346690334 0.0674313549419 2.52149948914
14.8545681988 0.500177016257 2.10864327403 -3.8816378676 2.9668 -0.690973236617 -0.996975653149 -1.95423170397 1.64276154134 0.0692497592649 2.52101437974
14.8812932933 0.495299617532 2.10951523 -3.88044578 2.9668 -0.691858453622 -0.998023043501 -1.95539536802 1.64205260362 0.0710663346141 2.52053178223
14.9058625559 0.490421472174 2.11038726038 -3.87925402231 2.9668 -0.692741495285 -0.999069902704 -1.95655786631 1.6413400955 0.0728810886138 2.52005170291
14.9287822506 0.485542581705 2.11125936139 -3.87806260684 2.9668 -0.693622354195 -1.0001162263 -1.95771919111 1.64062402231 0.0746940289221 2.51957414803
14.9503769306 0.480662947677 2.11213152926 -3.87687154584 2.9668 -0.694501022983 -1.00116200985 -1.95887933472 1.63990438945 0.076505163227 2.51909912378
14.9709266514 0.475782571668 2.11300376021 -3.87568085153 2.9668 -0.695377494324 -1.00220724894 -1.9600382895 1.63918120235 0.0783144992494 2.51862663631
14.9910745179 0.470901455287 2.11387605048 -3.87449053607 2.9668 -0.696251760939 -1.00325193917 -1.96119604781 1.6384544665 0.080122044741 2.51815669168
15.0122533328 0.466019600173 2.1147483963 -3.87330061161 2.9668 -0.697123815591 -1.00429607616 -1.96235260206 1.63772418739 0.0819278074839 2.51768929592
15.0347384658 0.461137007993 2.11562079389 -3.87211109025 2.9668 -0.697993651088 -1.00533965556 -1.96350794468 1.63699037058 0.0837317952919 2.51722445502
15.0586104825 0.45625368044 2.11649323948 -3.87092198402 2.9668 -0.698861260284 -1.00638267303 -1.96466206816 1.63625302168 0.0855340160093 2.51676217487
15.0844114938 0.451369619239 2.11736572932 -3.86973330494 2.9668 -0.699726636077 -1.00742512425 -1.96581496498 1.63551214632 0.0873344775105 2.51630246134
15.1084180114 0.4464597788 2.11809619334 -3.86851056682 2.9668 -0.700553234186 -1.0084741529 -1.9669248363 1.63478223496 0.0891238854654 2.51585641845
15.1310319227 0.441549222678 2.11882661983 -3.86728826695 2.9668 -0.701377796692 -1.00952257861 -1.96803353548 1.63404879978 0.090911634641 2.51541285702
15.1523382856 0.43663796692 2.11955704583 -3.86606644113 2.9668 -0.702200318303 -1.0105704168 -1.96914107712 1.63331184889 0.0926977110497 2.51497178729
15.1732643973 0.431726013255 2.12028746782 -3.86484510094 2.9668 -0.703020791704 -1.01161766362 -1.97024745368 1.63257138757 0.0944821224472 2.51453321523
15.195663956 0.426813363437 2.1210178823 -3.86362425793 2.9668 -0.703839209628 -1.01266431522 -1.97135265761 1.63182742119 0.0962648766207 2.51409714673
15.2194448989 0.42190001925 2.12174828575 -3.86240392363 2.9668 -0.704655564849 -1.01371036777 -1.97245668141 1.63107995511 0.0980459813862 2.51366358765
15.244944882 0.416985982504 2.12247867467 -3.8611841095 2.9668 -0.705469850189 -1.01475581746 -1.9735595176 1.63032899476 0.0998254445903 2.51323254379
15.2728377583 0.412071255036 2.12320904557 -3.85996482697 2.9668 -0.706282058513 -1.0158006605 -1.97466115873 1.62957454559 0.10160327411 2.51280402089
15.3042725553 0.407155838712 2.12393939493 -3.85874608745 2.9668 -0.707092182732 -1.01684489311 -1.97576159739 1.6288166131 0.103379477849 2.51237802464
15.3407724788 0.402239735423 2.12466971926 -3.8575279023 2.9668 -0.707900215804 -1.01788851153 -1.97686082619 1.62805520281 0.105154063743 2.51195456067
15.3869838649 0.397322947088 2.12540001506 -3.85631028283 2.9668 -0.708706150734 -1.01893151204 -1.97795883778 1.62729032029 0.106927039757 2.51153363455
15.4669913718 0.392405475652 2.12613027885 -3.85509324032 2.9668 -0.709509980572 -1.0199738909 -1.97905562481 1.62652197113 0.108698413881 2.51111525181
15.5134965383 0.387487323088 2.12686050713 -3.853876786 2.9668 -0.710311698418 -1.02101564441 -1.98015118001 1.62575016097 0.110468194138 2.5106994179
15.5504508163 0.382548084056 2.12744801003 -3.85262579641 2.9668 -0.711075075572 -1.0220625656 -1.98120332453 1.6249902034 0.112225988341 2.51029709724
15.5820422074 0.377608181249 2.12803539485 -3.85137540565 2.9668 -0.711836540351 -1.02310882983 -1.98225429609 1.62422678736 0.113982292506 2.50989723971
15.6100816389 0.372667630851 2.12862270091 -3.8501256496 2.9668 -0.712596087338 -1.0241544539 -1.98330411073 1.62345992089 0.115737092336 2.50949985552
15.6356601144 0.367726434832 2.12920992497 -3.84887653911 2.9668 -0.713353709398 -1.02519943452 -1.98435276103 1.62268960925 0.117490395706 2.50910495025
15.6591076812 0.362784595188 2.12979706381 -3.84762808497 2.9668 -0.714109399444 -1.02624376841 -1.98540023961 1.62191585776 0.119242210525 2.50871252941
15.6811992174 0.357842113937 2.13038411422 -3.84638029797 2.9668 -0.714863150433 -1.02728745231 -1.98644653911 1.62113867178 0.120992544727 2.50832259848
15.7022212762 0.352898993126 2.13097107296 -3.84513318883 2.9668 -0.71561495537 -1.02833048298 -1.98749165221 1.62035805668 0.122741406276 2.50793516284
15.7224256667 0.347955234826 2.13155793684 -3.84388676825 2.9668 -0.716364807306 -1.02937285719 -1.9885355716 1.61957401787 0.124488803161 2.50755022787
15.7436634142 0.343010841133 2.13214470264 -3.8426410469 2.9668 -0.71711269934 -1.03041457174 -1.98957829 1.61878656081 0.126234743401 2.50716779884
15.7662105972 0.338065814169 2.13273136715 -3.84139603538 2.9668 -0.717858624619 -1.03145562341 -1.99061980016 1.61799569097 0.127979235041 2.50678788102
15.7901479425 0.333120156081 2.13331792718 -3.8401517443 2.9668 -0.718602576337 -1.03249600903 -1.99166009487 1.61720141388 0.129722286154 2.50641047957
15.8159965436 0.328173869041 2.13390437953 -3.8389081842 2.9668 -0.719344547737 -1.03353572543 -1.99269916691 1.61640373506 0.131463904839 2.50603559965
15.8409937371 0.323226955246 2.13449072102 -3.83766536559 2.9668 -0.720084532112 -1.03457476946 -1.99373700913 1.61560266011 0.133204099221 2.50566324631
15.8644424102 0.318263665159 2.13493378421 -3.83638757448 2.9668 -0.720786657515 -1.03561760288 -1.99473114532 1.61481433222 0.134931426816 2.5053042455
15.8866296828 0.313299764995 2.1353766533 -3.83511053504 2.9668 -0.721486996677 -1.03665973737 -1.99572411428 1.6140226102 0.136657436888 2.50494768501
15.9077426378 0.308335270949 2.13581936982 -3.83383428322 2.9668 -0.72218554403 -1.03770119102 -1.99671593338 1.61322750191 0.138382114853 2.50459357505
15.9278332838 0.303370185207 2.13626193084 -3.83255882915 2.9668 -0.722882292615 -1.03874196105 -1.9977065953 1.61242901255 0.140105468671 2.5042419208
15.9485351543 0.29840450998 2.13670433345 -3.83128418295 2.9668 -0.723577235521 -1.03978204471 -1.99869609275 1.61162714737 0.141827506327 2.5038927274
15.9702956015 0.293438247501 2.13714657472 -3.83001035467 2.9668 -0.724270365887 -1.04082143922 -1.99968441845 1.61082191162 0.143548235835 2.50354599992
15.9933974752 0.288471400028 2.13758865173 -3.82873735436 2.9668 -0.724961676895 -1.04186014187 -2.00067156515 1.6100133106 0.145267665231 2.5032017434
16.0181687172 0.28350396984 2.13803056159 -3.82746519201 2.9668 -0.72565116178 -1.0428981499 -2.00165752562 1.60920134964 0.146985802582 2.5028599628
16.0449955567 0.278535959241 2.13847230139 -3.8261938776 2.9668 -0.726338813823 -1.04393546062 -2.00264229267 1.6083860341 0.148702655976 2.50252066304
16.0746325244 0.273567370561 2.13891386823 -3.82492342104 2.9668 -0.727024626354 -1.04497207132 -2.00362585911 1.60756736937 0.150418233529 2.50218384898
16.1083054078 0.268598206147 2.13935525923 -3.82365383224 2.9668 -0.727708592755 -1.0460079793 -2.0046082178 1.60674536085 0.152132543381 2.50184952543
16.1489305616 0.263628468377 2.1397964715 -3.82238512105 2.9668 -0.728390706456 -1.0470431819 -2.00558936161 1.605920014 0.153845593699 2.50151769714
16.1828427446 0.258658159644 2.14023750218 -3.8211172973 2.9668 -0.729070960935 -1.04807767646 -2.00656928342 1.60509133429 0.155557392672 2.50118836881
16.212733464 0.25367619591 2.14053484961 -3.81981410059 2.9668 -0.729713877038 -1.04911461497 -2.00750528802 1.60427629826 0.157255491369 2.50087222804
16.2451368099 0.248693677164 2.14083193165 -3.81851180106 2.9668 -0.730355135254 -1.05015082387 -2.00844013632 1.60345793054 0.158952448001 2.50055850039
16.2737708252 0.24371061949 2.141128792 -3.81721043473 2.9668 -0.730994729838 -1.05118632244 -2.00937384694 1.60263623875 0.160648247718 2.50024719606
16.2998903665 0.238727025269 2.14142542804 -3.81591001107 2.9668 -0.731632654005 -1.05222110836 -2.01030641258 1.60181122798 0.162342898522 2.49993831987
