liuchen18/hilsys_new/sim_sys/data/fwx_planned_trajectory_hou.txt
this is the FWX joint values,the following info is time,x,y,theta,joint1,joint2,joint3,joint4,joint5,joint6,joint7
0.0 0.599365457859 -2.49596823985 0.0207691989141 0.0347113567846 0.644106140934 -0.414001145458 -1.33871229664 -1.38807482103 -1.92124690503 1.20660623683
0.218964184845 0.599292533886 -2.4919376109 0.0215505785029 0.0362741159622 0.644016334425 -0.413744693978 -1.33908181847 -1.38698566625 -1.91818792004 1.20654181342
0.388909244633 0.599220746301 -2.48790787743 0.0223320700162 0.0378370989887 0.643930262942 -0.413486948605 -1.33944552329 -1.38589400299 -1.91512709972 1.2064754109
0.533059515762 0.599149590409 -2.48387888297 0.0231136780333 0.0394003150229 0.643848060323 -0.413227981486 -1.33980416434 -1.38480011498 -1.91206447789 1.20640754891
0.66095110362 0.599080341783 -2.47985097384 0.0238953636995 0.0409636863554 0.643769364578 -0.412967621629 -1.34015582504 -1.38370330049 -1.90900008336 1.20633694857
0.777862549167 0.599012241215 -2.4758239232 0.02467713835 0.0425272356564 0.643694380854 -0.412705982051 -1.34050163577 -1.38260399654 -1.90593394836 1.20626438498
0.885811210801 0.598944527197 -2.47179751041 0.0254590143065 0.0440909875694 0.643623317695 -0.412443166751 -1.34084273844 -1.38150262484 -1.90286610167 1.2061906367
0.987477495799 0.59887873534 -2.46777213632 0.0262409433235 0.0456548456034 0.643555732158 -0.412178973095 -1.34117682186 -1.38039834202 -1.89979658281 1.20611416468
1.08323220506 0.598814102825 -2.46374758321 0.0270229384154 0.0472188357872 0.643491834816 -0.411913513619 -1.3415050244 -1.37929158797 -1.89672541822 1.20603574701
1.17432572159 0.598749864654 -2.4597236397 0.0278050135823 0.0487829861209 0.643431838013 -0.411646891659 -1.34182849434 -1.37818278637 -1.89365263114 1.20595616364
1.26184324314 0.598687563016 -2.45570068734 0.028587117113 0.0503471931823 0.643375289186 -0.41137890672 -1.34214490785 -1.3770710911 -1.89057827265 1.20587387358
1.34592949119 0.598626431625 -2.45167851774 0.0293692637214 0.0519114863992 0.643322402807 -0.411109670874 -1.34245540959 -1.37595694445 -1.88750236358 1.20578965603
1.42753099124 0.598565702118 -2.44765692902 0.0301514690942 0.0534758971448 0.643273395736 -0.41083928667 -1.34276115477 -1.37484077211 -1.8844249216 1.20570429284
1.50671404029 0.598506922989 -2.44363628302 0.0309336780554 0.0550403150672 0.643227805375 -0.410567556055 -1.34305980674 -1.37372172558 -1.88134600922 1.205616241
1.5835541045 0.598449324614 -2.4396163809 0.0317159070106 0.0566047729775 0.643185850365 -0.41029459038 -1.3433525167 -1.37260024917 -1.87826564173 1.20552628095
1.65738576501 0.598392135402 -2.4355970304 0.0324981733228 0.0581693056019 0.643147752561 -0.410020491114 -1.34364044722 -1.37147677033 -1.87518383128 1.20543519674
1.72974656071 0.598336909866 -2.43157857338 0.0332804183862 0.0597337957288 0.643113038049 -0.409745063291 -1.3439212476 -1.37035043874 -1.87210065168 1.20534144228
1.80066912839 0.598282875183 -2.42756082067 0.0340626602803 0.0612982795169 0.64308193067 -0.40946841716 -1.34419607661 -1.36922170052 -1.8690161127 1.20524580017
1.87018521407 0.59822925667 -2.42354358985 0.0348449180413 0.062862795039 0.643054657168 -0.409190652898 -1.34446610399 -1.36809098448 -1.86593022111 1.20514905636
1.93831724958 0.598177614568 -2.41952720242 0.0356271296533 0.064427218263 0.643030732273 -0.408911579091 -1.34472896509 -1.36695743921 -1.86284306173 1.20504966191
2.00509577109 0.598127172992 -2.41551147909 0.0364093148644 0.0659915886852 0.643010385066 -0.408631304649 -1.34498582621 -1.36582151228 -1.85975463893 1.20494840144
2.07055047367 0.598077154317 -2.41149624744 0.037191494382 0.0675559477204 0.642993846907 -0.408349928278 -1.34523786394 -1.36468363347 -1.8566649542 1.20484606234
2.13470279889 0.598029124204 -2.40748180829 0.0379736027946 0.0691201645456 0.642980621704 -0.408067262486 -1.34548270032 -1.36354295111 -1.85357410311 1.20474109368
2.19821009033 0.597982303854 -2.40346799241 0.0387556615182 0.0706842819927 0.642970943389 -0.407783414677 -1.34572150874 -1.36239991377 -1.85048208476 1.20463428148
2.26108137624 0.597935912849 -2.39945463753 0.0395376929223 0.0722483448009 0.642965048118 -0.407498481828 -1.34595547277 -1.36125495188 -1.84738889545 1.2045264146
2.32331868269 0.59789152196 -2.39544202349 0.0403196282261 0.0738122154085 0.642962428753 -0.407212280867 -1.34618220102 -1.36010721421 -1.84429464124 1.20441594011
2.38493084322 0.597848349625 -2.39142999127 0.0411014905061 0.0753759399685 0.642963324093 -0.406924917459 -1.34640287392 -1.35895714999 -1.84119931607 1.20430364532
2.44592644274 0.59780561278 -2.38741838894 0.0418833037843 0.076939566525 0.642967975313 -0.406636486582 -1.34661868217 -1.35780518989 -1.83810291115 1.20419032064
2.50630776836 0.597764886992 -2.38340747503 0.0426649959335 0.0785029508234 0.642975864412 -0.406346810021 -1.34682722131 -1.35665048397 -1.83500554277 1.20407441154
2.56608320613 0.597725388086 -2.37939710091 0.0434465916837 0.0800661423238 0.642987234997 -0.406055991473 -1.34702967866 -1.35549348167 -1.83190719982 1.20395670639
2.62526093493 0.597686330512 -2.37538712513 0.0442281167018 0.08162919236 0.643002333244 -0.405764123688 -1.34722725198 -1.35433461359 -1.82880786853 1.203837997
2.68384346147 0.597649294309 -2.37137778463 0.045009495546 0.0831919500484 0.64302062976 -0.405471033864 -1.34741752329 -1.3531730317 -1.82570767517 1.20371672688
2.74183876989 0.597613492847 -2.36736894134 0.0457907545887 0.0847544681337 0.643042373225 -0.405176823452 -1.34760168702 -1.35200918537 -1.82260660368 1.20359368558
2.79925462059 0.59757813824 -2.36336046442 0.0465719211257 0.0863168012077 0.643067815533 -0.404881582611 -1.34778094869 -1.35084350475 -1.81950463539 1.20346966699
2.85609374817 0.597544814682 -2.35935256898 0.0473529164383 0.0878787918329 0.643096414879 -0.404585144605 -1.34795287584 -1.34967514446 -1.81640190634 1.20334311166
2.91236373901 0.597512733236 -2.35534512758 0.0481337685219 0.0894404960002 0.643128426101 -0.404287608205 -1.34811867112 -1.34850455347 -1.81329839556 1.20321481145
2.96807195576 0.597481103854 -2.35133802022 0.0489145063033 0.0910019715629 0.643164105676 -0.403989060941 -1.34827954649 -1.347332161 -1.81019407968 1.2030855609
3.0232213526 0.597451514534 -2.34733143984 0.049695047802 0.0925630545603 0.643202900775 -0.403689342368 -1.34843305666 -1.34615712519 -1.80708910413 1.20295379933
3.07781912644 0.597423174211 -2.34332526986 0.0504754226393 0.094123804235 0.643245071101 -0.403388548568 -1.34858041103 -1.34497989412 -1.80398344325 1.20282031929
3.13187225877 0.597395290828 -2.33931940119 0.051255661356 0.0956842816684 0.643290878472 -0.403086764073 -1.34872282877 -1.34380089577 -1.80087706903 1.20268591679
3.18538390677 0.597369455856 -2.33531400438 0.0520356787435 0.0972443164433 0.643339758668 -0.402783835259 -1.34885785147 -1.34261929254 -1.79777013603 1.20254902956
3.23783636869 0.597344876261 -2.33130897383 0.0528155060371 0.0988039710306 0.64339197642 -0.402479855252 -1.3489866954 -1.34143553121 -1.79466261401 1.20241045097
3.29028531709 0.597320758148 -2.32730421153 0.0535951753803 0.100363309717 0.643447799011 -0.402174905327 -1.349110587 -1.34025003816 -1.79155447044 1.2022709785
3.34272881704 0.597298696114 -2.32329986536 0.0543745983691 0.101922155695 0.643506650623 -0.401868839184 -1.34922705466 -1.33906198079 -1.78844586874 1.20212904816
3.39516810325 0.597277895323 -2.31929584085 0.0551538078385 0.103480574633 0.643568801479 -0.401561746665 -1.34933732195 -1.33787180424 -1.78533677417 1.20198545459
3.44760431513 0.597257560214 -2.31529205118 0.0559328375263 0.105038634009 0.64363452402 -0.401253705613 -1.34944262215 -1.33667993288 -1.78222714983 1.20184099627
3.50003581193 0.597239288162 -2.31128862137 0.0567115958664 0.106596150689 0.643703230675 -0.400944577544 -1.34954047046 -1.33548553983 -1.77911716771 1.20169410744
3.55246368748 0.5972222827 -2.30728546818 0.0574901172824 0.108153193521 0.643775197149 -0.400634448783 -1.34963209766 -1.33428906821 -1.77600678872 1.20154558387
3.60488892789 0.59720574677 -2.30328251611 0.0582684370929 0.109709833142 0.643850701358 -0.400323393439 -1.34971874413 -1.33309094001 -1.77289597169 1.20139622537
3.65731019901 0.597191280173 -2.29927986709 0.0590464606021 0.111265880161 0.643929143969 -0.400011281309 -1.34979791202 -1.33189033483 -1.76978489688 1.2012444644
3.70972844138 0.597178084983 -2.29527744925 0.0598242238106 0.112821406578 0.644010806238 -0.399698194944 -1.34987083931 -1.33068769338 -1.76667352096 1.20109109789
3.76214449608 0.597165362825 -2.29127519853 0.0606017636096 0.114376486176 0.644095971052 -0.399384204599 -1.34993877285 -1.32948343488 -1.76356179866 1.20093692635
3.81455733558 0.597154715559 -2.28727319355 0.0613789822006 0.115930923358 0.644184028283 -0.399069188593 -1.34999920297 -1.32827674617 -1.76044991818 1.20078038157
3.86696774296 0.597145343985 -2.28327137394 0.062155917155 0.117484793266 0.644275263854 -0.398753225659 -1.35005337379 -1.32706806511 -1.75733783211 1.20062226059
3.92042982875 0.597136448579 -2.27926968718 0.06293260692 0.119038172796 0.644369966353 -0.398436381813 -1.35010253934 -1.32585780784 -1.75422549116 1.20046336539
3.97442399771 0.59712963291 -2.27526818839 0.063708950635 0.120590860226 0.644467513884 -0.39811854455 -1.35014417725 -1.3246451691 -1.75111309123 1.200302126
4.0289562079 0.597124096672 -2.27126682881 0.0644849874243 0.122142933805 0.644568197905 -0.397799788369 -1.35017953864 -1.32343058358 -1.74800058092 1.20013934049
4.08403238841 0.597119039376 -2.26726556757 0.0652607572804 0.123694473517 0.644672312472 -0.397480174868 -1.35020988435 -1.32221446393 -1.74488790707 1.19997581202
4.13965752776 0.597116065932 -2.26326443613 0.0660361563153 0.125245271587 0.644779223868 -0.397159601169 -1.35023267946 -1.3209960135 -1.74177527295 1.19980996879
4.19583761718 0.597114375108 -2.2592633974 0.0668112251922 0.126795409341 0.644889229361 -0.396838137245 -1.35024918227 -1.31977566346 -1.73866262333 1.19964261017
4.2525786023 0.597113165634 -2.25526242229 0.0675860054383 0.128344969833 0.645002628165 -0.396515840124 -1.35026066004 -1.31855382261 -1.73554990129 1.19947454011
4.30988598129 0.597114043391 -2.25126151842 0.0683603901718 0.1298937393 0.645118774998 -0.396192616925 -1.35026456571 -1.31732970358 -1.7324373172 1.19930418522
4.36776576609 0.597116206405 -2.24726066051 0.0691344215839 0.131441802124 0.645237972601 -0.395868532949 -1.35026216434 -1.31610373365 -1.7293248121 1.1991323458
4.41160938589 0.5971181912 -2.24426003857 0.0697147124345 0.132602383825 0.645329887978 -0.395624863364 -1.35025658908 -1.31518317149 -1.7269904471 1.19900295727
4.45545288138 0.59712135152 -2.24125942536 0.0702947677571 0.133762494471 0.645423321517 -0.395380692193 -1.35024674277 -1.31426135767 -1.72465621162 1.1988722985
4.49929632716 0.597125235863 -2.23825881562 0.0708746131108 0.134922185178 0.645518449738 -0.395136051139 -1.35023334296 -1.31333852665 -1.72232206656 1.19874082053
4.54313981851 0.597129844523 -2.23525820263 0.0714542451714 0.136081449299 0.645615266059 -0.394890943683 -1.35021638807 -1.31241468405 -1.71998802546 1.19860852803
4.58698336373 0.597134637779 -2.23225758624 0.0720336954529 0.137240349862 0.645714088723 -0.394645373424 -1.35019685363 -1.31149009762 -1.71765403395 1.19847607916
4.63082724869 0.597140608619 -2.2292569464 0.0726128973936 0.138398753744 0.645814190192 -0.394399374721 -1.35017280906 -1.31056428836 -1.71532023254 1.19834213865
4.67467147756 0.597147303898 -2.22625628299 0.0731918760181 0.139556710992 0.645916067356 -0.394152896509 -1.35014531894 -1.30963749165 -1.7129865709 1.19820751645
4.71851614146 0.597154724345 -2.2232555898 0.0737706284319 0.14071421582 0.646019607062 -0.393905968766 -1.35011426695 -1.30870971139 -1.71065306585 1.19807209732
4.76236114512 0.597162417946 -2.22025487316 0.0743491812778 0.141871321512 0.646125096082 -0.393658587467 -1.35008049265 -1.30778117074 -1.70831967215 1.19793645424
4.80620698987 0.597171289721 -2.21725409928 0.0749274719662 0.143027902889 0.64623183526 -0.393410800001 -1.35004219783 -1.30685144179 -1.70598652244 1.19779933569
4.85005356384 0.597180886554 -2.21425327534 0.0755055264947 0.144184011946 0.646340324778 -0.393162549803 -1.35000045169 -1.30592075419 -1.70365356512 1.19766155381
4.89390096648 0.59719120906 -2.21125239493 0.0760833419354 0.145339642827 0.646450451559 -0.3929138677 -1.34995513797 -1.30498911298 -1.70132081673 1.19752299311
4.93774899475 0.597201805273 -2.20825147135 0.0766609458039 0.146494850564 0.64656250531 -0.392664745744 -1.34990709984 -1.30405673734 -1.69898823049 1.19738422748
4.98159835716 0.597213579818 -2.20525045661 0.0772382737758 0.147649506508 0.64667578045 -0.392415240438 -1.34985453177 -1.30312320909 -1.69665594168 1.19724400273
5.02544883827 0.597226079724 -2.20224936523 0.0778153527976 0.148803664552 0.646790780025 -0.392165289494 -1.3497985072 -1.30218875164 -1.69432389763 1.19710313294
5.06930053751 0.597239305487 -2.1992481906 0.0783921799143 0.149957318785 0.646907391485 -0.391914924532 -1.34973891037 -1.3012533713 -1.69199211456 1.19696150278
5.11315315656 0.597252805303 -2.19624695303 0.0789687835025 0.151110525961 0.647025907144 -0.391664133595 -1.34967658767 -1.30031728294 -1.68966054424 1.19681968674
5.15700760281 0.597267483178 -2.19324559028 0.0795450975285 0.152263154013 0.647145614886 -0.391412982667 -1.34960972621 -1.29938007866 -1.68732932438 1.1966764277
5.20086356137 0.597282886397 -2.19024412423 0.0801211498759 0.153415258708 0.647267021531 -0.391161403292 -1.3495394046 -1.29844197534 -1.68499840134 1.19653254277
5.24472112753 0.59729901534 -2.1872425481 0.080696937568 0.154566834092 0.647390013801 -0.39090942825 -1.34946550625 -1.29750298055 -1.68266779102 1.19638791533
5.28857989939 0.597315418465 -2.1842408892 0.0812724898317 0.15571793862 0.647514887426 -0.390657041221 -1.34938888155 -1.2965633047 -1.6803374438 1.19624312146
5.33244100393 0.597332998946 -2.18123907103 0.0818477389444 0.156868436845 0.647640923885 -0.390404317917 -1.3493077105 -1.29562255055 -1.67800749965 1.19609690105
5.3763040061 0.597351304436 -2.17823712285 0.08242271372 0.158018386396 0.64776863301 -0.390151183734 -1.34922307605 -1.29468092817 -1.67567790406 1.19595007352
5.42016900535 0.597370335195 -2.1752350377 0.0829974111599 0.159167781276 0.647897901528 -0.389897672435 -1.34913486151 -1.29373844646 -1.67334867259 1.19580252175
5.46403550861 0.597389640054 -2.17223284995 0.0835718613343 0.160316681625 0.648029028141 -0.389643763333 -1.34904392076 -1.29279531115 -1.67101975432 1.19565482292
5.50790483761 0.597410121133 -2.16923046876 0.084145994852 0.16146494866 0.648161288013 -0.389389542116 -1.34894842691 -1.29185113606 -1.6686912913 1.19550571391
5.55177645786 0.597431326568 -2.16622793083 0.0847198414477 0.162612641852 0.648295194196 -0.389134927787 -1.3488494674 -1.29090612419 -1.66636322821 1.19535601681
5.59565046879 0.597453256496 -2.16322522901 0.0852933981031 0.163759755162 0.64843063326 -0.388879955164 -1.34874692528 -1.28996028577 -1.6640355803 1.19520561373
5.63952627378 0.597475460228 -2.16022240474 0.0858666957231 0.164906350403 0.648567906922 -0.388624599055 -1.34864165789 -1.28901382168 -1.66170829543 1.19505508307
5.68340540169 0.597498838614 -2.15721935283 0.0864396632682 0.166052285493 0.648706284163 -0.388368955349 -1.34853183169 -1.28806635718 -1.65938151749 1.19490315869
5.72728721033 0.597522940383 -2.15421611744 0.0870123313857 0.167197621728 0.648846281215 -0.388112936488 -1.34841853857 -1.28711808795 -1.65705519053 1.19475066541
5.7711718074 0.597547765548 -2.15121269123 0.0875846970389 0.168342353034 0.648987784299 -0.387856578427 -1.34830166106 -1.28616902559 -1.65472932943 1.19459748432
5.81505848442 0.597572864009 -2.14820912271 0.0881567919598 0.169486542876 0.649131098186 -0.38759985134 -1.34818205994 -1.28521936593 -1.6524038809 1.19444419513
5.85894898985 0.597599135127 -2.14520529236 0.0887285434801 0.170630045917 0.649275485819 -0.387342861521 -1.34805789534 -1.28426874604 -1.65007899052 1.1942895287
5.90284256132 0.597626128339 -2.14220125179 0.0892999831517 0.17177292526 0.649421466385 -0.387085514751 -1.34793026324 -1.28331735403 -1.64775460178 1.1941343124
5.946739319 0.597653843529 -2.13919699346 0.0898711079204 0.172915174797 0.649568926053 -0.386827848053 -1.34779904602 -1.28236520289 -1.64543072919 1.19397842664
5.9906384425 0.597681831294 -2.13619257301 0.0904419503376 0.174056859632 0.649718172525 -0.386569826891 -1.34766510767 -1.28141248325 -1.64310731839 1.19382245232
6.03454189576 0.597710989291 -2.13318785653 0.0910124361256 0.175197831208 0.649868462935 -0.386311568132 -1.34752660235 -1.2804588443 -1.64078451647 1.1936651174
6.07844880867 0.597740867774 -2.13018290312 0.0915825977332 0.176338154423 0.650020319077 -0.386052970837 -1.34738462975 -1.27950446636 -1.63846226646 1.19350725155
6.12235929311 0.5977714665 -2.12717770505 0.0921524320901 0.177477823137 0.650173627204 -0.385794073083 -1.34723907218 -1.27854936385 -1.63614058247 1.19334873458
6.16627243756 0.59780233687 -2.12417232507 0.0927219725589 0.178616904074 0.650328697873 -0.385534835536 -1.3470907967 -1.27759372203 -1.63381940919 1.19319014856
6.21019040895 0.597834374617 -2.12116661488 0.0932911432722 0.179755245501 0.650484782454 -0.385275385847 -1.34693795172 -1.27663720253 -1.63149889498 1.19303021845
6.25411222948 0.597867130928 -2.11816064111 0.0938599775675 0.180892914091 0.650642405439 -0.385015616178 -1.34678164063 -1.27567997767 -1.62917898255 1.19286977641
6.29803801929 0.597900605428 -2.11515439583 0.0944284723597 0.182029903676 0.6508014532 -0.384755565659 -1.34662174575 -1.27472206328 -1.62685968559 1.19270870168
6.34196675499 0.597934350432 -2.11214794888 0.0949966618148 0.183166282586 0.650962238991 -0.384495190116 -1.34645913693 -1.27376363915 -1.62454094789 1.19254757735
6.38590081484 0.597969259533 -2.10914113763 0.095564468495 0.184301895946 0.651124008499 -0.384234628168 -1.34629195705 -1.27280437961 -1.62222291896 1.19238512532
6.42983911328 0.598004884963 -2.10613403619 0.0961319266188 0.185436812194 0.651287288899 -0.383973764932 -1.34612131315 -1.2718444488 -1.61990554124 1.19222218036
6.47378176634 0.598041226213 -2.10312663646 0.096699033087 0.18657102513 0.65145196694 -0.383712640523 -1.34594708782 -1.27088386395 -1.617588828 1.19205862139
6.51772765947 0.598077836617 -2.10011901535 0.0972658228618 0.18770460468 0.651618358152 -0.383451205979 -1.34577015315 -1.26992279927 -1.61527272221 1.19189503205
6.56167936979 0.598115607417 -2.09711099595 0.0978322169536 0.188837392863 0.651785703144 -0.383189610874 -1.34558864732 -1.26896094202 -1.61295737433 1.19173013177
6.60563570819 0.598154091998 -2.09410265981 0.0983982504541 0.189969459864 0.651954531161 -0.382927733354 -1.34540368028 -1.26799844801 -1.61064272668 1.19156475731
6.64959679895 0.598193289719 -2.09109399869 0.098963920252 0.19110079946 0.652124729122 -0.382665614609 -1.34521513462 -1.26703533592 -1.60832879204 1.19139878695
6.69356140738 0.598232755035 -2.08808509657 0.0995292620975 0.192231483151 0.652296615481 -0.382403200576 -1.34502388533 -1.26607177419 -1.60601551267 1.19123280577
6.73753233021 0.598273376629 -2.08507576225 0.100094195468 0.193361349892 0.652469425349 -0.382140652113 -1.34482806558 -1.26510746329 -1.60370303981 1.19106553001
6.78150827058 0.598314709147 -2.08206608476 0.10065875632 0.194490471597 0.652643690374 -0.381877840153 -1.34462878852 -1.26414255051 -1.60139131571 1.19089779895
6.8254893445 0.598356751812 -2.07905605569 0.101222941533 0.195618842022 0.65281929778 -0.38161480692 -1.3444259369 -1.26317705596 -1.59908035271 1.19072949041
6.86947422612 0.598399060312 -2.07604576608 0.101786787636 0.196746534228 0.652996568492 -0.381351493334 -1.34422038798 -1.26221114225 -1.59677009239 1.19056119032
6.91346591933 0.598442520553 -2.0730350105 0.102350212592 0.19787338414 0.653174732531 -0.381088071559 -1.34401027059 -1.26124452324 -1.59446068662 1.19039161216
6.95746300713 0.598486688557 -2.07002388545 0.102913253217 0.198999465391 0.653354323793 -0.380824405246 -1.3437967008 -1.26027733754 -1.59215207767 1.19022159761
7.00146562209 0.59853156341 -2.06701238232 0.103475906379 0.200124771714 0.653535229379 -0.380560537833 -1.34357956103 -1.25930960677 -1.58984427742 1.19005102346
7.04547232649 0.598576702133 -2.06400059922 0.10403820938 0.201249377717 0.653717773178 -0.380296404965 -1.34335973127 -1.25834148755 -1.58753722683 1.18988047717
7.0894863314 0.59862298765 -2.06098831653 0.104600078688 0.202373116332 0.653901179935 -0.380032190333 -1.34313533599 -1.25737270736 -1.58523107828 1.18970866906
7.13350611622 0.598669977466 -2.05797563818 0.105161551969 0.203496062895 0.654085985908 -0.379767750148 -1.3429074942 -1.25640339593 -1.58292577411 1.1895364435
7.17753180939 0.598717670529 -2.05496255542 0.105722626082 0.20461821112 0.654272078271 -0.379503129008 -1.34267608823 -1.25543357642 -1.58062132574 1.1893636764
7.22156187788 0.598765625297 -2.05194917336 0.106283339095 0.205739637147 0.654459783457 -0.379238257368 -1.34244200024 -1.25446339939 -1.57831767359 1.18919095632
7.2655997358 0.598814721507 -2.04893525826 0.106843605996 0.206860170949 0.654648321275 -0.378973330462 -1.34220335086 -1.25349260607 -1.57601497037 1.18901699069
7.30964375066 0.598864518253 -2.04592092148 0.107403465298 0.207979889552 0.654838230061 -0.378708197063 -1.34196126168 -1.25252131725 -1.5737131586 1.1888426263
7.35369406334 0.598915014344 -2.04290615409 0.107962913849 0.209098786655 0.655029397276 -0.378442902856 -1.34171561515 -1.25154955756 -1.57141224922 1.18866773847
7.39774902481 0.598965769776 -2.03989106821 0.108521990477 0.21021693991 0.655222151759 -0.378177373108 -1.34146729532 -1.25057747148 -1.56911218216 1.18849291667
7.44181226047 0.599017660899 -2.03687541604 0.109080608707 0.211334176371 0.655415708593 -0.377911814627 -1.34121441946 -1.24960481409 -1.56681311032 1.1883168656
7.4858820384 0.599070248499 -2.03385931632 0.109638807892 0.21245057474 0.655610607953 -0.377646068754 -1.34095811135 -1.24863169717 -1.5645149765 1.18814043429
7.52995848704 0.599123531246 -2.03084275997 0.110196584871 0.213566128698 0.655806737582 -0.377380182278 -1.34069825355 -1.24765814682 -1.56221779111 1.18796349739
7.57403987037 0.599177070778 -2.02782586608 0.110753979222 0.214680917401 0.656004428914 -0.377114075143 -1.3404357321 -1.24668430135 -1.5599214937 1.18778664556
7.61813000435 0.599231739853 -2.02480837288 0.111310903029 0.215794765014 0.656202892308 -0.376847965843 -1.34016866112 -1.24570992979 -1.5576262372 1.18760858069
7.66222705766 0.599287101056 -2.02179040644 0.111867396473 0.216907751902 0.656402669732 -0.376581688214 -1.33989816643 -1.24473513482 -1.55533196474 1.18743015406
7.70633115872 0.599343152916 -2.01877195754 0.112423456388 0.218019871732 0.656603649076 -0.376315290223 -1.33962413052 -1.24375994407 -1.55303868623 1.18725123945
7.75044047206 0.599399458815 -2.0157531522 0.112979123096 0.219131205148 0.656806164481 -0.376048686395 -1.33934744148 -1.24278448956 -1.55074634086 1.1870724289
7.79455901669 0.599456887718 -2.01273371474 0.113534307253 0.220241573461 0.657009421503 -0.375782107034 -1.33906621037 -1.24180855443 -1.54845508148 1.18689242125
7.83868484938 0.599515004116 -2.00971377858 0.114089049865 0.221351058687 0.657213964127 -0.375515378301 -1.3387815652 -1.24083223211 -1.54616485162 1.18671207044
7.88281810688 0.599573806396 -2.00669333434 0.114643347761 0.222459654478 0.65741968043 -0.375248549335 -1.33849338846 -1.23985555174 -1.54387566069 1.18653124939
7.92695684597 0.599632859779 -2.0036725149 0.115197241997 0.223567442951 0.657626906833 -0.374981529387 -1.33820256965 -1.23887863911 -1.54158744755 1.18635055097
7.97110529697 0.599693029245 -2.00065103083 0.115750641821 0.224674242599 0.657834844586 -0.374714560431 -1.33790721756 -1.23790129143 -1.53930036488 1.18616867157
8.01526140479 0.599753881291 -1.99762902278 0.116303589058 0.225780137072 0.658044038933 -0.374447461221 -1.33760846144 -1.23692359295 -1.53701435662 1.18598646686
8.05942530617 0.599815414163 -1.99460648125 0.116856080529 0.226885120015 0.658254378899 -0.374180281737 -1.33730618462 -1.2359455742 -1.53472943171 1.18580380986
8.10359495845 0.599877195018 -1.99158354596 0.117408158022 0.227989275 0.658466202946 -0.373912926036 -1.33700127761 -1.23496735473 -1.53244552876 1.18562129399
8.14777479498 0.59994008466 -1.98855991377 0.11795972939 0.229092417735 0.658678707835 -0.373645647903 -1.336691847 -1.23398874592 -1.53016280009 1.18543761286
8.19196265709 0.600003651693 -1.98553573259 0.11851083727 0.230194633496 0.658892440839 -0.37337825828 -1.33637902399 -1.23300982263 -1.52788119021 1.18525362495
8.23615867736 0.600067894219 -1.98251099277 0.119061478479 0.231295915915 0.659107290868 -0.373110808474 -1.33606269156 -1.23203061699 -1.52560070748 1.18506920197
8.280360722 0.600132381428 -1.97948584079 0.119611695527 0.23239635001 0.659323598947 -0.372843197095 -1.33574374171 -1.23105124217 -1.52332129036 1.18488493858
8.32457341493 0.600197969759 -1.97645995997 0.120161394889 0.233495748735 0.659540557538 -0.372575689688 -1.33542027923 -1.23007152372 -1.52104309071 1.1846995258
8.36879449391 0.60026423002 -1.97343350538 0.120710620011 0.234594198978 0.659758715373 -0.372308089598 -1.33509343656 -1.22909152717 -1.51876605361 1.18451382425
8.41302409567 0.600331160172 -1.97040646723 0.121259367702 0.23569169436 0.659977961618 -0.372040449305 -1.3347630967 -1.22811128619 -1.51649018691 1.18432770479
8.45725998696 0.600398331531 -1.96737899873 0.121807681189 0.236788321333 0.660198639871 -0.371772661944 -1.33443015306 -1.22713090757 -1.51421542891 1.18414176332
8.5015069906 0.600466595987 -1.96435076977 0.122355465587 0.23788389013 0.660419938304 -0.371505004844 -1.33409270888 -1.22615023099 -1.51194193094 1.18395468825
8.54576273661 0.60053552665 -1.96132194252 0.12290276514 0.238978489236 0.660642406975 -0.371237273776 -1.33375189755 -1.22516931267 -1.50966963869 1.18376734222
8.59002737001 0.600605121336 -1.95829250705 0.123449576654 0.240072112265 0.660865935558 -0.370969522282 -1.33340760238 -1.22418818776 -1.50739855948 1.18357959554
8.63429855397 0.600674953581 -1.95526262327 0.123995944064 0.241164847085 0.661090869894 -0.370701638173 -1.33306071768 -1.22320695673 -1.50512863152 1.1833920449
8.67858130604 0.600745870543 -1.95223194773 0.124541771141 0.242256501239 0.661316393954 -0.370433910526 -1.3327093455 -1.22222547339 -1.50286000547 1.18320337623
8.72287315266 0.600817447729 -1.94920064964 0.125087102923 0.243347164802 0.661543059094 -0.370166127532 -1.33235461999 -1.22124378462 -1.50059262772 1.18301445419
8.767174243 0.600889682817 -1.94616871899 0.125631936213 0.244436831382 0.66177075587 -0.369898343609 -1.33199642524 -1.22026192693 -1.49832650505 1.18282514898
8.81148214492 0.600962151647 -1.94313632226 0.126176315645 0.245525590247 0.661999831968 -0.369630441445 -1.33163565583 -1.21927999462 -1.49606157561 1.18263605759
8.85580206658 0.60103569647 -1.94010310282 0.126720143663 0.246613246283 0.662229467359 -0.369362721757 -1.33127041313 -1.21829785549 -1.49379798931 1.1824458637
8.90013143496 0.601109895285 -1.9370692369 0.127263466093 0.247699891142 0.662460214859 -0.369094965055 -1.3309018321 -1.21731554708 -1.49153569326 1.18225543422
8.9444703951 0.601184745625 -1.93403471433 0.127806279734 0.248785518425 0.662691965275 -0.368827226951 -1.33052979687 -1.21633310739 -1.48927469371 1.18206463844
8.98881642372 0.601259825729 -1.93099970816 0.128348629916 0.249870218788 0.662925068591 -0.368559384801 -1.3301552027 -1.21535062447 -1.4870149288 1.18187407418
9.03317491953 0.601335972766 -1.92796384871 0.128890417768 0.250953794492 0.663158700756 -0.368291750944 -1.32977615048 -1.21436798006 -1.48475654758 1.18168242286
9.07754321012 0.601412767316 -1.92492731913 0.129431689898 0.252036338753 0.663393415825 -0.368024098312 -1.32939377562 -1.21338520238 -1.48249949795 1.18149055342
9.1219214405 0.601490206769 -1.92189010913 0.129972443104 0.253117845164 0.663629105001 -0.367756483648 -1.32900796243 -1.21240233094 -1.4802437856 1.18129833434
9.16630698795 0.601567871851 -1.91885239825 0.130512723402 0.25419840576 0.663866120768 -0.367488778884 -1.32861960695 -1.21141944749 -1.47798934871 1.18110636456
9.21070544595 0.601646594479 -1.91581380391 0.131052430625 0.255277820206 0.664103634976 -0.367221307973 -1.32822680979 -1.2104364476 -1.4757363354 1.18091332316
9.25511403432 0.601725957904 -1.9127745161 0.131591612157 0.25635618327 0.664342202833 -0.36695383632 -1.32783070655 -1.20945335028 -1.47348469437 1.180720081
9.29953291051 0.601805959372 -1.90973452443 0.132130264791 0.257433488538 0.664581715931 -0.366686421811 -1.32743118172 -1.20847019652 -1.47123443076 1.18052650576
9.34395935238 0.60188618218 -1.90669401484 0.132668435226 0.258509829409 0.66482252915 -0.366418931029 -1.32702913185 -1.20748706185 -1.46898548284 1.18033319725
9.38839913569 0.601967452828 -1.90365259201 0.133206022013 0.259585002983 0.665063810321 -0.36615169944 -1.32662265764 -1.20650385554 -1.4667379977 1.18013883245
9.43284939327 0.602049357325 -1.9006104527 0.133743073305 0.260659105567 0.665306115675 -0.365884485009 -1.32621289456 -1.20552058746 -1.46449192487 1.17994428393
9.47731027015 0.602131892778 -1.89756758642 0.134279585895 0.261732130746 0.665549337649 -0.365617346512 -1.32579972784 -1.20453729991 -1.46224726898 1.17974941915
9.52177895715 0.602214645132 -1.89452418544 0.134815607154 0.262804173265 0.665793833084 -0.365350145463 -1.32538405389 -1.20355406242 -1.46000396838 1.17955483821
9.56626142064 0.602298435309 -1.89147984185 0.135351034365 0.263875027687 0.666038765752 -0.365083228783 -1.32496397369 -1.20257079785 -1.45776216905 1.17935921595
9.61075468158 0.602382852167 -1.88843475913 0.13588591645 0.264944791857 0.666284693538 -0.364816346663 -1.32454062324 -1.20158750671 -1.45552182146 1.17916342755
9.65525890156 0.602467892667 -1.88538892667 0.136420250195 0.266013459346 0.66653150882 -0.364549559281 -1.32411388739 -1.20060423299 -1.45328292962 1.17896733898
9.69977117198 0.602553145487 -1.88234254299 0.136954083642 0.267081126239 0.666779570985 -0.364282722799 -1.32368466298 -1.19962104002 -1.45104543207 1.17877155135
9.74429763737 0.602639425817 -1.87929518777 0.137487312819 0.268147584594 0.667028039847 -0.364016195435 -1.32325105167 -1.19863786408 -1.4488094736 1.17857473764
9.78883523167 0.602726325439 -1.8762470711 0.138019987407 0.269212933771 0.6672774741 -0.363749720122 -1.32281418881 -1.1976546967 -1.44657500558 1.17837777441
9.83338410818 0.602813841176 -1.87319818229 0.138552104194 0.270277167345 0.667527767225 -0.363483357775 -1.32237396029 -1.1966715831 -1.44434203152 1.17818052778
9.87794127131 0.602901564515 -1.87014872601 0.139083711879 0.271340382715 0.667779280371 -0.363216959709 -1.32193126225 -1.19568858083 -1.44211049009 1.1779835987
9.92251305202 0.602990304759 -1.86709826971 0.139614705254 0.272402369465 0.66803116954 -0.362950895236 -1.32148419754 -1.19470563928 -1.43988052484 1.1777856586
9.96709627653 0.603079656698 -1.86404703 0.140145134754 0.273463228464 0.668283994518 -0.362684899915 -1.32103390102 -1.19372274103 -1.4376520881 1.17758758581
10.0116911064 0.603169617017 -1.8609949961 0.140674997162 0.274522953281 0.668537649304 -0.362419035736 -1.32058025892 -1.1927399327 -1.4354251828 1.17738924573
10.0562944591 0.603259780085 -1.85794237878 0.141204341836 0.275581642628 0.668792497399 -0.362153148886 -1.32012416726 -1.19175726595 -1.43319974786 1.1771912399
10.1009128354 0.603350949178 -1.8548887334 0.141733062341 0.276639083638 0.669047690835 -0.361887619728 -1.31966373014 -1.19077470314 -1.4309759255 1.17699223816
10.1455429746 0.603442722167 -1.85183428304 0.142261209861 0.277695378678 0.669303790296 -0.361622176617 -1.31920008157 -1.18979221804 -1.42875366901 1.17679312029
10.190185034 0.603535095597 -1.84877901681 0.142788781178 0.278750521312 0.669560690457 -0.361356882521 -1.3187331083 -1.18880985863 -1.42653298078 1.17659375115
10.2348358441 0.603627666802 -1.84572315148 0.143315826296 0.279804611549 0.669818757164 -0.361091578578 -1.31826370606 -1.18782767076 -1.42431379997 1.17639473279
10.2795020797 0.60372123288 -1.84266623056 0.143842237575 0.280857434107 0.670077138478 -0.360826656041 -1.31778998052 -1.18684562953 -1.42209626742 1.17619473364
10.3241803889 0.60381539486 -1.83960848343 0.144368066937 0.281909092831 0.670336395893 -0.360561836189 -1.31731306456 -1.18586370006 -1.41988033742 1.17599463469
10.3688709292 0.603910149151 -1.83654989914 0.144893311164 0.282959581285 0.67059642475 -0.360297182976 -1.31683284542 -1.18488193167 -1.41766601179 1.17579430031
10.413570448 0.60400509612 -1.83349070039 0.145418020904 0.284009000763 0.670857593402 -0.360032532457 -1.31635021862 -1.18390036447 -1.41545322999 1.17559433314
10.4582857859 0.604101026552 -1.83043041896 0.145942087317 0.285057133591 0.671119045728 -0.359768286745 -1.3158632914 -1.18291898608 -1.41324213142 1.17539340011
10.503013504 0.60419754471 -1.82736929051 0.146465563067 0.28610408509 0.67138134428 -0.359504159959 -1.31537319569 -1.18193775303 -1.41103267136 1.17519238374
10.5477537556 0.604294646864 -1.82430730401 0.14698844493 0.287149848817 0.671644384991 -0.359240217082 -1.31487981911 -1.18095671598 -1.40882485112 1.17499114773
10.5925032054 0.604391936482 -1.82124468798 0.147510784192 0.28819452734 0.67190853856 -0.358976289283 -1.31438405661 -1.17997590949 -1.40661861042 1.174790295
10.6372688637 0.604490197904 -1.81818096267 0.148032470831 0.289237900618 0.672172944713 -0.358712789318 -1.31388401737 -1.17899533346 -1.40441408718 1.17458849124
10.6820471964 0.604589038701 -1.81511636994 0.148553558242 0.290280075441 0.672438167204 -0.358449424144 -1.31338083234 -1.17801493582 -1.40221123773 1.17438662063
10.7268383651 0.604688455001 -1.81205089864 0.149074043201 0.291321045359 0.672704102405 -0.358186259871 -1.31287438937 -1.17703476869 -1.40001006281 1.17418454597
10.7716389515 0.604788053443 -1.80898478305 0.149593977621 0.292360914198 0.672971123473 -0.357923122804 -1.31236558279 -1.17605486114 -1.39781050247 1.17398287048
10.8164561236 0.604888611793 -1.80591753211 0.150113250313 0.293399459583 0.673238366022 -0.357660436105 -1.3118525241 -1.175075225 -1.39561269311 1.17378025894
10.8612862642 0.604989740992 -1.8028493937 0.150631915398 0.294436789752 0.673506394552 -0.357397899972 -1.31133634253 -1.17409580001 -1.39341659207 1.1735775964
10.9061295391 0.605091437037 -1.79978035666 0.15114996965 0.295472898256 0.673775106425 -0.357135581266 -1.31081692684 -1.17311663945 -1.39122219958 1.17337474558
10.9509824347 0.605193309797 -1.79671066087 0.151667465605 0.296507890166 0.674044877148 -0.356873301615 -1.31029517045 -1.17213776712 -1.38902945602 1.17317230967
10.995852293 0.605296130343 -1.79363980415 0.15218429092 0.297541540797 0.674314837953 -0.356611494533 -1.30976918715 -1.17115920657 -1.38683849619 1.17296895248
11.0407354058 0.605399513056 -1.79056804036 0.152700500438 0.298573959833 0.674585554646 -0.356349853188 -1.309240105 -1.17018088924 -1.38464927854 1.17276556061
11.0856319387 0.605503453797 -1.78749535826 0.15321609093 0.299605140817 0.674856925006 -0.35608844558 -1.30870781294 -1.16920286982 -1.38246180272 1.17256199584
11.1305382995 0.605607565726 -1.78442200328 0.153731115548 0.300635190053 0.675129327073 -0.35582708865 -1.30817320355 -1.16822516693 -1.38027600948 1.17235886147
11.1754619918 0.605712613104 -1.7813474623 0.154245460809 0.301663880575 0.675401887773 -0.355566225962 -1.30763439331 -1.16724781545 -1.378092032 1.17215482074
11.2203992161 0.605818213811 -1.77827199507 0.15475918227 0.302691323496 0.675675173849 -0.355305544028 -1.30709250849 -1.16627073887 -1.37590982978 1.17195076112
11.2653501423 0.605924363575 -1.77519559026 0.1552722767 0.303717512356 0.675949083818 -0.355045111763 -1.30654743861 -1.16529399312 -1.37372940195 1.17174654393
11.3103111036 0.606030678913 -1.77211849877 0.155784797863 0.304742554682 0.67622399841 -0.354784741437 -1.30600007544 -1.16431759175 -1.37155068966 1.17154277264
11.3552897485 0.606137917157 -1.76904019674 0.156296631147 0.305766221251 0.676499039937 -0.354524886607 -1.30544853811 -1.16334158071 -1.36937382439 1.17133810982
11.4002822031 0.60624569975 -1.76596094968 0.15680783282 0.306788624596 0.676774776268 -0.354265227132 -1.30489395112 -1.16236587565 -1.36719876675 1.17113344394
11.445288633 0.606354022288 -1.76288074621 0.157318399649 0.307809758254 0.677051106638 -0.354005832844 -1.30433620457 -1.16139053376 -1.36502551533 1.17092863584
11.4903052927 0.606462504697 -1.75979984258 0.157828386001 0.308829730958 0.677328414383 -0.35374651154 -1.30377618914 -1.1604155637 -1.36285401168 1.17072428881
11.5353399924 0.606571897277 -1.75671770441 0.158337676151 0.309848311258 0.677605817199 -0.353487726483 -1.30321202693 -1.15944102214 -1.36068438558 1.17051906514
11.5803887669 0.606681825088 -1.75363460285 0.158846327068 0.310865613093 0.67788388404 -0.353229151045 -1.30264484047 -1.1584668171 -1.35851659872 1.17031385411
11.6254517861 0.606792283598 -1.75055052649 0.159354335521 0.311881629998 0.678162514913 -0.352970855937 -1.30207452048 -1.15749300695 -1.35635064917 1.17010851609
11.6705252257 0.606902896197 -1.74746573682 0.159861756473 0.312896471902 0.678442095835 -0.35271264457 -1.30150195648 -1.15651959567 -1.35418647888 1.16990365416
11.7156170491 0.60701440605 -1.74437968912 0.160368473098 0.313909905152 0.678721739725 -0.35245498972 -1.30092527368 -1.15554665028 -1.35202421593 1.1696979305
11.7607232084 0.607126441892 -1.74129266013 0.160874543063 0.314922045083 0.679002016756 -0.352197558329 -1.30034559262 -1.15457407129 -1.34986382308 1.16949223516
11.8058438775 0.607238999055 -1.73820463834 0.161379963133 0.315932885222 0.679282827463 -0.351940422161 -1.29976280435 -1.15360191843 -1.34770529786 1.16928642773
11.8509751535 0.607351704454 -1.73511589045 0.161884788867 0.316942536691 0.679564560932 -0.35168338011 -1.29917779752 -1.15263019096 -1.3455485827 1.16908111141
11.8961251448 0.607465294019 -1.73202586159 0.162388902349 0.317950763654 0.679846325032 -0.35142691433 -1.29858870047 -1.15165896594 -1.34339380388 1.16887494833
11.9412897329 0.607579400205 -1.72893483394 0.162892361935 0.318957682827 0.680128690971 -0.351170685647 -1.29799663132 -1.15068813674 -1.34124092525 1.16866882882
11.9864690836 0.607694018233 -1.72584279598 0.163395164395 0.319963287747 0.6804115605 -0.350914766335 -1.29740148232 -1.14971776399 -1.33908994388 1.16846261276
12.0316592235 0.607808778568 -1.72275001942 0.16389736587 0.320967690697 0.680695325174 -0.350658951405 -1.29680414032 -1.14874784283 -1.33694080258 1.16825690229
12.0768684102 0.60792440982 -1.71965593949 0.164398847366 0.321970653688 0.680979087834 -0.350403732016 -1.29620273717 -1.14777845987 -1.33479362587 1.16805036001
12.1220924382 0.608040548228 -1.71656084375 0.164899667932 0.32297229482 0.68126342122 -0.350148762664 -1.29559838901 -1.14680950128 -1.33264837871 1.16784387711
12.1673314774 0.608157188865 -1.71346472056 0.165399824324 0.323972607605 0.681548227167 -0.34989411702 -1.29499098785 -1.14584102926 -1.33050505758 1.16763731193
12.212581488 0.608273965832 -1.71036784666 0.165899373277 0.324971705509 0.681833900933 -0.349639585416 -1.29438142014 -1.14487303432 -1.32836360587 1.16743126727
12.2578508603 0.60839160032 -1.70726964754 0.166398194725 0.325969348407 0.682119539782 -0.349385668068 -1.29376782087 -1.14390561243 -1.3262241462 1.16722440589
12.3031353184 0.608509732386 -1.70417041597 0.1668963484 0.326965655756 0.682405717688 -0.349132013572 -1.29315130366 -1.14293864303 -1.32408664466 1.16701761907
12.3484350363 0.608628356989 -1.70107014033 0.16739383106 0.327960621076 0.682692337538 -0.348878696215 -1.2925317615 -1.14197218927 -1.32195109722 1.16681076521
12.3937458914 0.608747111878 -1.69796910216 0.167890700008 0.328954358973 0.682979797448 -0.348625502515 -1.29191007918 -1.14100623778 -1.31981744773 1.16660444611
12.439076423 0.608866710754 -1.69486671746 0.16838683413 0.329946627216 0.683267189158 -0.348372941297 -1.29128439528 -1.14004089337 -1.31768581699 1.16639732535
12.4844222766 0.608986797538 -1.69176328414 0.16888229383 0.330937546616 0.68355508805 -0.348120655329 -1.2906558209 -1.13907602885 -1.31555617215 1.16619029432
12.5297836178 0.609107367075 -1.68865879053 0.169377075869 0.331927110694 0.683843398007 -0.347868719536 -1.29002424995 -1.13811170839 -1.31342850873 1.16598321138
12.5751562745 0.609228060806 -1.68555352294 0.169871238118 0.332915435192 0.684132520212 -0.347616916662 -1.28939056563 -1.13714791486 -1.31130277106 1.16577667741
12.6205489059 0.609349584863 -1.68244688807 0.170364658418 0.333902275793 0.684421540577 -0.347365763965 -1.28875291011 -1.13618476151 -1.30917907803 1.16556935688
12.6659570914 0.609471587078 -1.67933918883 0.170857397847 0.334887754651 0.68471103612 -0.347114898406 -1.28811239206 -1.13522211472 -1.30705739793 1.16536214142
12.7113809965 0.609594062173 -1.67623041353 0.171349453164 0.335871865283 0.685000911427 -0.346864395785 -1.28746890594 -1.13426003979 -1.30493772577 1.16515488885
12.7568163745 0.609716655329 -1.67312085314 0.171840882803 0.336854724563 0.685291571103 -0.346614034987 -1.28682333363 -1.13329851592 -1.30282000638 1.16494819938
12.8022720298 0.609840065036 -1.67000990524 0.172331563575 0.337836086105 0.685582094917 -0.34636434152 -1.28617382084 -1.13233766442 -1.30070435677 1.16474073856
12.8477434545 0.609963943073 -1.66689787768 0.172821557221 0.338816073399 0.685873061583 -0.346114946711 -1.2855214737 -1.13137734548 -1.29859074631 1.164533398
12.8932308309 0.610088284047 -1.66378475874 0.173310860502 0.33979467996 0.686164376532 -0.345865927105 -1.28486618741 -1.13041762542 -1.29647916954 1.16432603526
12.9387298334 0.61021273691 -1.66067084393 0.17379953241 0.340772023776 0.686456447808 -0.345617057941 -1.28420884233 -1.12945848004 -1.2943695718 1.16411924957
12.9842493992 0.610337992444 -1.65755552195 0.174287448732 0.34174785642 0.686748348785 -0.345368872712 -1.28354758781 -1.12850003829 -1.29226206816 1.16391170781
13.029784954 0.610463706416 -1.65443910545 0.174774671875 0.342722302707 0.687040660093 -0.345120997166 -1.2828835275 -1.12754215431 -1.29015662914 1.16370430165
13.0753366759 0.610589873312 -1.65132158267 0.175261198592 0.34369535614 0.687333287743 -0.344873508809 -1.28221655701 -1.12658489565 -1.28805324873 1.16349688791
13.1209001773 0.610716145894 -1.6482032536 0.175747088435 0.344667135826 0.68762664362 -0.344626179127 -1.2815475555 -1.12562823469 -1.28595187286 1.16329006517
13.1664845194 0.610843207181 -1.64508349824 0.176232216178 0.345637391313 0.687919794437 -0.344379549324 -1.28087467599 -1.12467230758 -1.28385261465 1.16308250196
13.2120850661 0.610970716945 -1.64196263391 0.17671664488 0.346606248716 0.688213322441 -0.344133240087 -1.28019901908 -1.12371696296 -1.28175544566 1.16287508911
13.2577019871 0.611098669569 -1.63884064888 0.177200371296 0.347573701549 0.688507134796 -0.343887329368 -1.27952048151 -1.12276226915 -1.27966035946 1.16266768373
13.3033308366 0.611226721651 -1.63571784747 0.177683455528 0.348539870012 0.688801647063 -0.343641585294 -1.27883994085 -1.12180819558 -1.27756730251 1.16246088306
13.3489808005 0.611355548384 -1.63259360117 0.178165771346 0.349504501649 0.689095918869 -0.343396556631 -1.27815555363 -1.12085488522 -1.27547638595 1.16225335736
13.3946471676 0.611484813594 -1.62946823193 0.178647382462 0.35046772388 0.6893905347 -0.343151858717 -1.277468418 -1.11990218111 -1.27338758247 1.16204599732
13.4403301205 0.611614511547 -1.62634172797 0.179128285628 0.351429530213 0.689685402389 -0.342907570366 -1.27677843119 -1.11895015267 -1.27130088515 1.16183865949
13.4860251386 0.61174430271 -1.62321439789 0.179608541492 0.352390041939 0.689980941535 -0.342663456293 -1.27608646946 -1.11799876645 -1.269216241 1.16163194
13.5317415362 0.611874854403 -1.62008560487 0.18008802283 0.353349004617 0.690276204403 -0.342420072511 -1.27539069291 -1.11704817176 -1.26713375919 1.16142451122
13.5774745401 0.612005834523 -1.61695567535 0.180566793999 0.354306546954 0.690571777608 -0.342177029396 -1.27469219686 -1.11609820644 -1.26505341347 1.16121726309
13.6232243203 0.61213723723 -1.61382459753 0.18104485175 0.355262662456 0.6908675698 -0.341934406482 -1.27399087924 -1.11514894093 -1.26297519647 1.16101005187
13.6689863067 0.612268726888 -1.61069268419 0.181522257275 0.356217473505 0.691164004919 -0.341691965062 -1.27328761517 -1.11420033898 -1.26089905579 1.16080347269
13.7147699294 0.612400962898 -1.60755929041 0.181998882365 0.357170723686 0.691460127423 -0.34145026822 -1.27258056818 -1.11325255584 -1.2588250986 1.16059620016
13.760570349 0.612533617252 -1.60442474699 0.182474792013 0.358122542983 0.691756526183 -0.341208921558 -1.27187083068 -1.11230542448 -1.2567532997 1.16038912324
13.8063877355 0.612666684008 -1.60128904213 0.182949982974 0.359072924905 0.692053110788 -0.340968005191 -1.27115830151 -1.11135901619 -1.25468365128 1.16018209815
13.8522174649 0.612799831444 -1.59815249269 0.183424516975 0.360021992906 0.692350309482 -0.340727277326 -1.27044385433 -1.11041329236 -1.25261610154 1.1599757185
13.8980690751 0.612933710997 -1.59501444579 0.183898264827 0.360969488611 0.69264715844 -0.340487307954 -1.26972565595 -1.10946841377 -1.25055075557 1.15976866121
13.9439376687 0.6130679988 -1.59187523658 0.184371292169 0.361915543294 0.692944249486 -0.34024769754 -1.26900479656 -1.10852420833 -1.24848758934 1.1595618151
13.9898234156 0.613202688789 -1.58873485322 0.184843595746 0.362860150448 0.693241492668 -0.340008527235 -1.26828117524 -1.10758074858 -1.24642659451 1.15935503548
14.0357216338 0.613337453187 -1.58559361654 0.185315237821 0.363803434598 0.693539320943 -0.339769552078 -1.26755566455 -1.10663799359 -1.24436771991 1.15914891466
14.0816419731 0.613472935437 -1.58245086593 0.185786088236 0.364745135429 0.693836761903 -0.339531348598 -1.2668264346 -1.10569610912 -1.24231106859 1.1589421324
14.1275794698 0.613608815807 -1.57930694072 0.186256213258 0.365685385473 0.694134409954 -0.339293512818 -1.26609457266 -1.10475491873 -1.24025661756 1.1587355762
14.1735343063 0.613745088147 -1.57616182908 0.186725609639 0.366624178235 0.694432176269 -0.339056126256 -1.26535997895 -1.10381449564 -1.23820435809 1.15852910167
14.2195017343 0.613881428625 -1.57301585572 0.187194340168 0.367561639292 0.694730498426 -0.338818941206 -1.26462352455 -1.10287479708 -1.23615423959 1.15832329915
14.2654915154 0.614018472662 -1.56986835248 0.187662273724 0.368497506404 0.695028395006 -0.338582540463 -1.26388338277 -1.1019359933 -1.23410636305 1.15811685155
14.3114986321 0.614155904687 -1.56671966277 0.1881294772 0.369431913357 0.695326463331 -0.338346515628 -1.26314063818 -1.10099790367 -1.23206070653 1.15791064512
14.3575232584 0.614293718447 -1.56356977475 0.188595947348 0.370364853652 0.695624615372 -0.338110948898 -1.26239519168 -1.10006060234 -1.23001726088 1.1577045352
14.4035605922 0.61443159409 -1.56041901694 0.189061747487 0.371296453931 0.695923293888 -0.337875589603 -1.2616479134 -1.09912404463 -1.22797597616 1.15749911067
14.449620507 0.614570158982 -1.55726671382 0.189526745536 0.372226450028 0.696221507802 -0.337641026734 -1.26089697948 -1.09818840498 -1.22593695123 1.15729305749
14.4956979273 0.614709101728 -1.55411321276 0.189991009012 0.373154976981 0.696519857643 -0.33740684754 -1.26014347192 -1.09725349875 -1.22390016523 1.15708726069
14.5417930229 0.614848415986 -1.55095850195 0.190454534672 0.3740820283 0.696818256368 -0.33717313468 -1.25938729256 -1.09631940083 -1.22186560862 1.15688157571
14.5879009379 0.614987785879 -1.5478029136 0.190917386353 0.375007731662 0.697117151781 -0.336939635037 -1.25862931013 -1.09538606522 -1.21983323205 1.15667658908
14.6340316535 0.615127830703 -1.54464576498 0.19137943102 0.375931820997 0.697415542775 -0.336706943407 -1.25786770363 -1.09445366993 -1.21780313226 1.1564709904
14.680180032 0.615268243265 -1.54148740738 0.191840736821 0.376854432597 0.697714033562 -0.336474642578 -1.25710355285 -1.09352202635 -1.21577528952 1.15626566376
14.7263462516 0.615409017106 -1.53832782895 0.192301300497 0.37777555995 0.698012537485 -0.33624281629 -1.25633675978 -1.09259121065 -1.21374969378 1.15606046358
14.7725253983 0.615549840366 -1.53516736559 0.192761186421 0.378695331797 0.698311508258 -0.336011208453 -1.25556819267 -1.09166117519 -1.21172629641 1.15585597508
14.8187275569 0.615691324245 -1.53200532748 0.193220260603 0.379613480163 0.69860993405 -0.335780419593 -1.25479603295 -1.09073210121 -1.20970519198 1.15565089147
14.8649475317 0.615833165752 -1.52884206974 0.193678591809 0.380530142575 0.698908422722 -0.335550028471 -1.25402135789 -1.08980379664 -1.20768636183 1.15544609521
14.911185505 0.615975358335 -1.52567758052 0.194136176782 0.381445312521 0.699206888484 -0.335320119385 -1.25324407029 -1.08887633848 -1.20566979551 1.15524144064
14.957436509 0.616117594141 -1.52251219926 0.194593080415 0.382359119787 0.699505790874 -0.335090433771 -1.25246503755 -1.08794967799 -1.20365544506 1.15503751085
15.0037107321 0.616260476266 -1.51934522926 0.19504916777 0.383271294496 0.699804106775 -0.334861577635 -1.25168244328 -1.08702399918 -1.20164340284 1.15483300295
15.0500029206 0.616403705937 -1.51617702937 0.195504508231 0.384181975419 0.700102448188 -0.334633125605 -1.25089736266 -1.08609910657 -1.19963365131 1.15462879807
15.0963132526 0.616547276511 -1.51300758776 0.195959098543 0.385091156042 0.700400730099 -0.334405162619 -1.25010969918 -1.08517507803 -1.19762617959 1.15442475033
15.142636723 0.616690884138 -1.50983724729 0.196413004112 0.385998967181 0.700699418013 -0.334177427915 -1.24932031926 -1.08425186413 -1.1956209404 1.15422144024
15.188983599 0.616835123812 -1.50666530457 0.196866089058 0.386905137072 0.70099747708 -0.333950532567 -1.24852740869 -1.083329651 -1.19361802389 1.15401756942
15.2353485936 0.616979700973 -1.50349212206 0.197318423378 0.387809805713 0.701295523498 -0.33372404746 -1.24773204034 -1.08240824021 -1.19161741359 1.15381401707
15.2817318767 0.617124608895 -1.50031768796 0.19777000382 0.388712966595 0.701593473186 -0.333498057972 -1.24693411859 -1.08148771035 -1.18961909825 1.15361063742
15.3281283853 0.617269547744 -1.49714234852 0.198220896307 0.389614751571 0.701891798031 -0.333272301148 -1.24613450921 -1.08056801143 -1.18762303129 1.1534080085
15.3745484983 0.617415104406 -1.49396539377 0.198670964016 0.390514886989 0.702189450744 -0.333047392959 -1.24533139977 -1.07964933125 -1.18562930059 1.15320483656
15.4209868626 0.617560988536 -1.49078718972 0.199120277555 0.391413514066 0.702487052011 -0.332822900692 -1.24452586092 -1.07873146874 -1.18363789077 1.15300199876
15.4674436563 0.617707193321 -1.48760772455 0.19956883367 0.392310626296 0.702784518548 -0.332598910308 -1.24371779778 -1.07781450332 -1.18164879018 1.15279934914
15.5139137706 0.617853422949 -1.48442734788 0.200016698808 0.393206356572 0.703082329068 -0.332375156629 -1.24290807574 -1.07689838454 -1.17966195299 1.15259746337
15.5604076676 0.618000256203 -1.48124534326 0.200463735198 0.394100429353 0.703379423146 -0.332152260312 -1.24209488383 -1.07598330141 -1.17767746479 1.1523950526
15.6069199526 0.61814740695 -1.4780620802 0.200910014058 0.394992987071 0.703676426246 -0.331929785217 -1.24127929058 -1.0750690505 -1.17569531125 1.15219299171
15.6534507995 0.618294868293 -1.47487754688 0.201355532134 0.395884023224 0.703973255899 -0.331707817848 -1.24046120186 -1.07415571203 -1.17371548036 1.15199113464
15.6999950501 0.618442348446 -1.47169209616 0.201800356395 0.396773671747 0.704270398012 -0.331486090885 -1.2396414829 -1.07324323531 -1.17173792704 1.15179005459
15.7465632655 0.618590418092 -1.46850500531 0.202244348126 0.397661655207 0.704566778263 -0.33126522949 -1.23881832376 -1.07233181012 -1.16976273455 1.15158846785
15.7931499973 0.618738795308 -1.4653166472 0.202687579147 0.398548117251 0.704863027246 -0.331044794215 -1.23799279105 -1.07142123091 -1.16778988966 1.15138724687
15.8397554196 0.618887473125 -1.46212701006 0.203130046213 0.399433051383 0.705159063401 -0.330824871972 -1.2371647915 -1.07051157857 -1.16581937996 1.15118624572
15.8863743284 0.619036163765 -1.45893644993 0.203571816809 0.400316592575 0.705455380014 -0.330605193622 -1.23633519011 -1.06960280262 -1.16385116116 1.15098603463
15.9330173718 0.619185429823 -1.45574423786 0.204012751267 0.401198461491 0.705750888076 -0.330386388647 -1.23550217757 -1.06869509313 -1.16188531413 1.15078533524
15.9796790561 0.619334993602 -1.45255075009 0.204452922027 0.402078803011 0.706046223946 -0.330168014083 -1.23466681908 -1.06778824241 -1.15992182675 1.15058501802
16.0263595509 0.619484848045 -1.44935597485 0.204892325839 0.402957610635 0.706341306746 -0.329950157499 -1.23382902198 -1.06688233222 -1.15796068626 1.15038493673
16.0730536109 0.619634709384 -1.44616027129 0.205331030709 0.403835020375 0.706636637572 -0.329732548 -1.23298965125 -1.06597731252 -1.15600184914 1.15018565857
16.1197719755 0.619785132151 -1.44296290442 0.20576889602 0.404710750997 0.706931112098 -0.329515818946 -1.23214689806 -1.06507337297 -1.15404539384 1.14998591119
16.166509101 0.619935842844 -1.43976425373 0.206205994817 0.405584948591 0.70722537247 -0.329299524419 -1.23130182588 -1.06417030437 -1.15209130935 1.14978656221
16.2132651532 0.620086834326 -1.43656430742 0.206642323848 0.406457606652 0.707519338508 -0.329083752621 -1.23045434267 -1.06326818938 -1.15013958249 1.1495874651
16.2600348451 0.620237826851 -1.43336342777 0.207077951653 0.407328862262 0.707813519863 -0.328868230569 -1.22960531411 -1.06236697819 -1.14819017067 1.14938918463
16.306828999 0.620389366888 -1.4301608738 0.207512736651 0.408198432257 0.708106795721 -0.328653595695 -1.22875293093 -1.06146685995 -1.14624314979 1.14919045409
16.3536420257 0.620541185147 -1.42695702821 0.207946752502 0.40906646396 0.708399814739 -0.328439398842 -1.22789825555 -1.06056762385 -1.14429851001 1.14899213877
16.4004740992 0.620693274403 -1.42375187921 0.208379995951 0.409932950857 0.708692497363 -0.328225728913 -1.22704119644 -1.05966935349 -1.14235623775 1.14879409174
16.4473198787 0.620845358908 -1.42054579209 0.208812536067 0.41079803109 0.708985361957 -0.328012311285 -1.22618261981 -1.05877199989 -1.14041629129 1.14859687463
16.4951323741 0.620997977106 -1.41733802001 0.209244230302 0.41166141956 0.709277270508 -0.32779978701 -1.22532071575 -1.05787575093 -1.13847874398 1.14839922704
16.5434425507 0.621150863902 -1.41412894881 0.209675152933 0.412523264823 0.709568878551 -0.327587703885 -1.22445654576 -1.05698039454 -1.13654358715 1.14820201168
16.5922557618 0.621304011983 -1.4109185667 0.210105300699 0.413383560355 0.709860107078 -0.327376151602 -1.22359001871 -1.05608601533 -1.13461080682 1.14800508108
16.6415715806 0.621457149598 -1.40770724197 0.210534743208 0.414242445372 0.710151483788 -0.327164853776 -1.22272200186 -1.05519256519 -1.13268036219 1.14780899393
16.6914068538 0.621610807193 -1.40449422198 0.210963336934 0.415099632825 0.710441852484 -0.326954454925 -1.22185068404 -1.0543002303 -1.130752324 1.1476124964
16.7417609392 0.621764723844 -1.40127989567 0.211391156772 0.4159552725 0.71073187589 -0.326744500084 -1.22097712591 -1.05340879771 -1.12882668473 1.14741644818
16.792639426 0.62191889217 -1.39806425125 0.211818199458 0.416809357872 0.711021475744 -0.326535079459 -1.22010123702 -1.05251835282 -1.12690343004 1.1472207017
16.8440418254 0.622073044389 -1.39484765995 0.212244535138 0.417662029233 0.71131118938 -0.326325915236 -1.21922388567 -1.05162884886 -1.12498252008 1.14702581217
16.8959857712 0.622227702985 -1.39162936341 0.212670019304 0.418512997564 0.711599841457 -0.326117655137 -1.21834325897 -1.05074046971 -1.12306402289 1.14683053277
16.9484705675 0.622382611196 -1.38840975363 0.213094727466 0.419362413888 0.711888102393 -0.32590984151 -1.21746041703 -1.04985300181 -1.12114793213 1.14663572006
17.0015020272 0.622537761567 -1.38518881881 0.213518656361 0.420210271679 0.712175894604 -0.325702565148 -1.21657526998 -1.04896653138 -1.11923423312 1.14644122628
17.0550796118 0.622692890277 -1.3819669331 0.213941876683 0.421056712322 0.712463765654 -0.325495546777 -1.21568868757 -1.04808101316 -1.11732288698 1.1462476032
17.1092217796 0.622848511882 -1.3787433325 0.214364242922 0.421901444799 0.712750519957 -0.325289437186 -1.21479885456 -1.04719662824 -1.11541395898 1.14605361121
17.1639277558 0.623004373766 -1.37551841198 0.214785831212 0.42274462138 0.713036836113 -0.325083776164 -1.21390683072 -1.04631316276 -1.113507444 1.1458601036
17.2192036063 0.623160468404 -1.37229215977 0.215206638292 0.42358623554 0.713322637253 -0.324878655011 -1.21301252688 -1.04543070368 -1.11160332698 1.14566693252
17.2750487386 0.623316535914 -1.36906495289 0.215626735404 0.424426429764 0.713608481616 -0.324673793213 -1.21211681439 -1.04454920761 -1.1097015701 1.14547464594
17.3314824604 0.623473082965 -1.36583602172 0.216045976025 0.425264911007 0.713893152251 -0.324469844441 -1.21121787501 -1.04366885238 -1.10780223574 1.14528201181
17.3885039265 0.623629861067 -1.36260576422 0.21646443692 0.426101832796 0.714177336496 -0.324266345991 -1.21031676853 -1.042789424 -1.10590532 1.14508988004
17.4461194679 0.623786862644 -1.35937416865 0.216882114835 0.426937188625 0.714460958351 -0.324063389421 -1.20941340671 -1.04191100997 -1.10401080757 1.1448981031
17.5043284175 0.623943831712 -1.35614161484 0.217299081558 0.427771122072 0.714744587055 -0.323860693417 -1.20850866245 -1.04103356937 -1.10211866159 1.14470722443
17.5637392072 0.624101267113 -1.35290732763 0.217715189546 0.428603338048 0.715026983261 -0.323658914124 -1.20760071408 -1.04015727601 -1.10022894154 1.14451602027
17.624369127 0.624258924456 -1.3496717079 0.218130516192 0.429433991341 0.715308843543 -0.323457586537 -1.20669062164 -1.03928191614 -1.09834164477 1.14432533681
17.6862433971 0.624416796105 -1.34643474393 0.218545058249 0.430263075455 0.715590092618 -0.323256802659 -1.20577829759 -1.03840757798 -1.09645675563 1.14413502654
17.7493800948 0.624574629969 -1.34319681838 0.218958888068 0.431090735093 0.715871311515 -0.323056280193 -1.20486461702 -1.03753422308 -1.09457423837 1.14394562867
17.8138204957 0.624732917102 -1.33995715053 0.21937185706 0.431916673076 0.716151237141 -0.322856677728 -1.20394775397 -1.03666202083 -1.09269414941 1.1437559278
17.8795833068 0.624891417192 -1.33671614421 0.219784043258 0.432741045473 0.716430575914 -0.322657528021 -1.20302876908 -1.03579075797 -1.09081648741 1.14356676635
17.9466958988 0.625050122556 -1.33347378771 0.220195443424 0.433563845804 0.716709253355 -0.322458923366 -1.20210757566 -1.0349205233 -1.08894123641 1.14337799706
18.0158626418 0.625208784959 -1.33023046647 0.220606130476 0.434385219908 0.716987862804 -0.322260580739 -1.2011850512 -1.03405128127 -1.08706836181 1.14319015445
18.0871636755 0.625367887728 -1.32698539428 0.221015954762 0.435204868481 0.717265116156 -0.322063160904 -1.20025936475 -1.03318319622 -1.08519791684 1.14300203202
18.1606556347 0.625527194615 -1.32373897786 0.22142499497 0.436022948896 0.717541730387 -0.321866194347 -1.19933157807 -1.03231605554 -1.08332990153 1.14281446845
18.2371636089 0.625686697846 -1.32049120546 0.221833247845 0.436839454647 0.717817631329 -0.321669774368 -1.19840160459 -1.03144994927 -1.08146429951 1.14262731558
18.316801829 0.625846153066 -1.3172424654 0.222240786912 0.437654532781 0.718093425849 -0.321473616463 -1.1974703254 -1.03058484425 -1.07960107752 1.14244110441
18.3997185631 0.626006035918 -1.31399196592 0.222647461424 0.438467881804 0.718367799238 -0.321278383704 -1.19653590347 -1.02972089951 -1.07774028543 1.14225463725
18.4869010736 0.626166114175 -1.31074011663 0.223053350723 0.439279660403 0.71864147955 -0.321083604606 -1.19559940185 -1.02885790357 -1.07588192466 1.14206874851
18.579485811 0.626326380017 -1.30748690578 0.223458451563 0.440089862083 0.718914393358 -0.320889372791 -1.19466073474 -1.02799594705 -1.07402597854 1.14188329026
18.6787787946 0.626486592898 -1.30423272452 0.223862838063 0.440898635082 0.719187161267 -0.320695403106 -1.19372078652 -1.02713500018 -1.07217241507 1.14169878856
18.7863572727 0.626647220852 -1.30097677552 0.224266358362 0.44170567568 0.719458440655 -0.320502360515 -1.19277771347 -1.02627521591 -1.07032128069 1.14151405534
18.9043039021 0.626808035645 -1.29771947127 0.224669092471 0.442511143897 0.719728971366 -0.320309771624 -1.19183258035 -1.02541638408 -1.06847257825 1.14132992064
19.0373014665 0.62696902942 -1.29446080008 0.225071037152 0.443315033261 0.719998680747 -0.320117730286 -1.19088530223 -1.02455859588 -1.0666262908 1.14114623687
19.1674154897 0.627129965397 -1.29120115587 0.225472267127 0.44411749321 0.720268203774 -0.319925950962 -1.18993676699 -1.02370182535 -1.06478238765 1.14096352468
19.3202573448 0.627291304069 -1.28793973574 0.225872629396 0.444918217749 0.720536168359 -0.319735100338 -1.18898512337 -1.02284621877 -1.06294091165 1.14078060605
19.5171877469 0.627452821188 -1.28467695511 0.226272204659 0.445717368274 0.720803327092 -0.319544702835 -1.18803143862 -1.02199156729 -1.0611018672 1.14059830706
20.0 0.627614508817 -1.28141280223 0.226670989667 0.446514938291 0.721069607635 -0.319354853243 -1.18707562795 -1.02113796328 -1.05926523695 1.14041647929
