liuchen18/hilsys_new/sim_sys/data/fwx_planned_trajectory.txt
this is the FWX joint values,the following info is time,x,y,theta,joint1,joint2,joint3,joint4,joint5,joint6,joint7
0.0 1.8426917168 0.435100375258 -0.369144298158 0.00265293492277 1.28162553719 0.741537259571 -0.0561764499982 0.742608335831 -1.21461819565 -0.201121146298
0.0974755206214 1.83864586769 0.435425960365 -0.369205604242 0.00178231638602 1.28157135528 0.741732673296 -0.0562527386743 0.742808544785 -1.21381481546 -0.201106561295
0.173383829672 1.83460064616 0.435752350719 -0.369268964956 0.000910160473311 1.28151703529 0.741928434249 -0.0563295451917 0.743009097754 -1.21300893458 -0.201092278867
0.238110899728 1.83055599641 0.436079361049 -0.369333978026 3.67288475762e-05 1.28146250065 0.742124597191 -0.0564069038477 0.743210018769 -1.21220001626 -0.201077675985
0.295544294225 1.82651195174 0.4364070854 -0.369400848043 -0.00083811774317 1.28140778934 0.74232113554 -0.0564847996181 0.743411296574 -1.21138831856 -0.201063066399
0.348049645058 1.82246854548 0.436735618068 -0.369469794845 -0.00171453418121 1.28135292991 0.742518004069 -0.0565632809428 0.743612905337 -1.21057409175 -0.201048952824
0.405652473951 1.81761700119 0.437130670945 -0.369554503263 -0.00276776295675 1.28128684345 0.742754754209 -0.0566580529843 0.743855298115 -1.20959336459 -0.201031417933
0.458835556869 1.81276656622 0.437526667204 -0.369641897522 -0.00382305802269 1.28122050997 0.74299204511 -0.0567536008279 0.744098204601 -1.20860859651 -0.201013872365
0.507940206687 1.80791702352 0.43792369774 -0.369732031618 -0.00488047762834 1.28115388849 0.743229815608 -0.0568501496387 0.744341577596 -1.20761975869 -0.200996979102
0.554652879156 1.80306838567 0.438321762858 -0.369824807036 -0.00593992875399 1.28108704355 0.743468195075 -0.0569472644944 0.744585518638 -1.20662688671 -0.200979434773
0.599090081066 1.79822065365 0.438720865357 -0.369920328002 -0.00700152211025 1.28101991161 0.743707058819 -0.0570453746376 0.744829930122 -1.20562992148 -0.200962515587
0.641787154652 1.79337362578 0.43912109277 -0.370018500408 -0.00806516639457 1.28095254555 0.743946532881 -0.0571440703961 0.745074911642 -1.20462890275 -0.200944990553
0.682808457094 1.78852774936 0.439522266746 -0.370119378983 -0.00913092811424 1.28088493133 0.744186552269 -0.0572435541008 0.745320411175 -1.20362378057 -0.200927467498
0.722615721897 1.78368279877 0.439924482715 -0.370223023235 -0.010198870354 1.28081702459 0.744427048439 -0.057344074015 0.745566375684 -1.20261452457 -0.200910676016
0.76124476992 1.77883878746 0.44032774114 -0.370329324796 -0.0112688899785 1.28074889567 0.744668165708 -0.0574451497903 0.745812918535 -1.20160117327 -0.200893180306
0.798730469714 1.77399571598 0.440732044425 -0.370438396379 -0.0123411065831 1.28068047613 0.744909766162 -0.0575472502108 0.746059931629 -1.2005836651 -0.200876371536
0.835108333876 1.76915336136 0.441137490655 -0.370550137339 -0.0134154209763 1.28061182187 0.745151987552 -0.0576499326293 0.746307523907 -1.1995620419 -0.200858922333
0.870760626518 1.76431219965 0.441543886026 -0.370664635709 -0.0144919356301 1.2805428991 0.7453947188 -0.0577535486554 0.746555607031 -1.19853623874 -0.200841884646
0.9057034562 1.75947200369 0.441951329923 -0.370781833473 -0.0155705941417 1.28047373693 0.745638043035 -0.0578578386441 0.746804246995 -1.19750627796 -0.200824476173
0.939950925942 1.75463277556 0.442359824209 -0.370901818843 -0.0166514916909 1.28040428265 0.745881852111 -0.0579631682203 0.747053359015 -1.19647211017 -0.200807778628
0.973516775452 1.74979452872 0.44276936969 -0.371024489818 -0.0177345313202 1.28033460209 0.746126285168 -0.0580690805639 0.747303052494 -1.19543376897 -0.200790429931
1.00641621052 1.7449570222 0.443180070627 -0.371149904015 -0.0188197724429 1.28026465205 0.746371276747 -0.0581758126588 0.747553276834 -1.19439122612 -0.20077312415
1.03865915245 1.74012075232 0.443591722116 -0.371278107051 -0.0199072772178 1.28019442577 0.746616767027 -0.0582835403013 0.747803983838 -1.19334443575 -0.20075638955
1.06994736255 1.73528548271 0.444004428926 -0.371409051579 -0.0209969989128 1.28012394542 0.746862827453 -0.0583920459033 0.748055230378 -1.19229341506 -0.200739569079
1.10091933548 1.73045122004 0.444418192329 -0.371542751664 -0.0220889578948 1.28005320454 0.74710944591 -0.0585013749831 0.748307007057 -1.19123814713 -0.200722793179
1.13157822359 1.7256179716 0.444833013542 -0.371679211314 -0.0231831643774 1.27998220294 0.747356623483 -0.0586115293639 0.748559314843 -1.19017861932 -0.200706062497
1.16192872238 1.72078549275 0.445249001908 -0.371818403353 -0.0242795909342 1.27991094996 0.747604407332 -0.0587223750157 0.748812191643 -1.18911483988 -0.200688969043
1.19197074561 1.71595429673 0.44566594124 -0.37196039433 -0.0253783234059 1.27983942639 0.747852706671 -0.0588341858702 0.749065564859 -1.18804675422 -0.200672333032
1.22170893007 1.71112413907 0.446083941887 -0.372105125311 -0.0264793020192 1.27976766106 0.748101610734 -0.0589466891984 0.749319505353 -1.18697438346 -0.200655335355
1.25114633636 1.7062950218 0.446503004859 -0.37225268779 -0.0275826258807 1.27969560018 0.748351003132 -0.0590602702198 0.749573921769 -1.18589767954 -0.200639110756
1.280285915 1.70146695931 0.44692313142 -0.372402975469 -0.0286881932815 1.27962331109 0.748601033473 -0.0591744469398 0.749828931805 -1.18481667413 -0.200622229091
1.30913222938 1.69663969237 0.447344436432 -0.372556049628 -0.0297960653591 1.27955074875 0.748851631314 -0.0592894698226 0.750084480926 -1.18373133973 -0.200605419341
1.33768507582 1.69181375429 0.4477666918 -0.372711954413 -0.0309063080716 1.2794779082 0.749102731978 -0.0594055229566 0.750340516976 -1.1826416312 -0.200589235506
1.36594892414 1.68698889088 0.448190013723 -0.372870641897 -0.0320188715203 1.27940481124 0.749354412349 -0.0595223771715 0.750597101154 -1.18154756469 -0.200572987598
1.39392665879 1.68216510915 0.448614403108 -0.373032126465 -0.0331337766112 1.27933145132 0.749606659336 -0.0596400801664 0.750854223267 -1.18044912339 -0.200556811978
1.4216211312 1.67734241677 0.449039860873 -0.373196412317 -0.0342510339242 1.27925782819 0.749859473653 -0.0597586348115 0.751111883967 -1.17934629443 -0.200540712456
1.44903670108 1.6725205508 0.44946650811 -0.373363472468 -0.0353706135877 1.27918395053 0.750112906233 -0.0598778995107 0.751370124169 -1.17823908534 -0.200524258837
1.47617307487 1.66770006232 0.449894104123 -0.373533372533 -0.0364926063155 1.27910980081 0.750366859232 -0.0599981614999 0.751628865585 -1.17712744285 -0.200508310657
1.50303456088 1.66288068864 0.45032277134 -0.373706052854 -0.0376169487441 1.27903540743 0.750621428289 -0.060119134405 0.751888184144 -1.17601138661 -0.200492010671
1.52962392615 1.6580624317 0.450752509808 -0.373881608154 -0.0387437439223 1.27896071568 0.750876488484 -0.0602412235912 0.752147981748 -1.17489087028 -0.200476547441
1.55594384596 1.65324530687 0.451183321296 -0.3740599279 -0.0398728853903 1.27888579417 0.751132200161 -0.0603639214187 0.752408384516 -1.17376592314 -0.200460422504
1.58199855524 1.64842903569 0.451615332326 -0.374241077234 -0.0410044358606 1.27881059606 0.751388487775 -0.060487492168 0.752669333929 -1.17263651864 -0.20044439989
1.60753232073 1.64361419037 0.45204828924 -0.37442509818 -0.0421384652803 1.27873511853 0.751645281669 -0.0606121280119 0.752930773798 -1.17150261279 -0.200429058943
1.63305997235 1.63880049796 0.452482320821 -0.374611942685 -0.0432749206081 1.27865938265 0.751902664093 -0.0607375887755 0.753192769552 -1.17036422033 -0.200413678693
1.65858147155 1.6339879658 0.45291742756 -0.374801625354 -0.0444138232159 1.27858338191 0.752160621022 -0.0608639241351 0.753455310241 -1.16922132462 -0.200398400737
1.68409677614 1.62917660197 0.453353610036 -0.374994150215 -0.0455551836835 1.27850711617 0.752419153256 -0.0609911364941 0.753718396555 -1.1680739128 -0.200383227606
1.70960737972 1.62436612428 0.453791002267 -0.375189491137 -0.0466989699361 1.27843059303 0.752678315078 -0.0611190783288 0.753982072057 -1.1669219913 -0.20036771177
1.73511015013 1.61955712354 0.454229336553 -0.375387712138 -0.0478452778007 1.27835379707 0.752938001356 -0.0612480502418 0.754246252643 -1.1657655087 -0.20035275227
1.76060659565 1.6147493159 0.454668748171 -0.37558878263 -0.0489940704609 1.27827673861 0.753198272109 -0.0613778850037 0.754510986239 -1.16460447297 -0.200337842709
1.7860966704 1.60994270925 0.455109237474 -0.375792711522 -0.0501453635736 1.27819941457 0.753459121146 -0.0615086071503 0.754776268044 -1.16343886958 -0.200323050644
1.81158033403 1.60513731186 0.455550804853 -0.375999502907 -0.0512991678831 1.27812182478 0.753720549072 -0.0616402196001 0.755042098585 -1.16226868562 -0.200308380172
1.83705913518 1.60033283117 0.455993591152 -0.376209136753 -0.0524554558819 1.27804397295 0.753982603635 -0.0617725972012 0.755308516246 -1.16109392501 -0.200293449074
1.86252982975 1.59552987898 0.456437314276 -0.376421670252 -0.053614320136 1.27796584824 0.75424518444 -0.0619060210858 0.75557544065 -1.15991453942 -0.200279099603
1.88799397741 1.59072816143 0.456882116512 -0.376637073215 -0.0547757224817 1.27788746045 0.754508353482 -0.0620403202433 0.75584292126 -1.15873053616 -0.200264814434
1.91345153595 1.58592768658 0.457327997996 -0.376855354696 -0.0559396788364 1.27780880644 0.754772104138 -0.0621755202751 0.756110952925 -1.15754190074 -0.200250664125
1.93890245767 1.58112846289 0.457774958925 -0.377076518519 -0.0571061997676 1.27772988621 0.755036437282 -0.0623116231361 0.756379536366 -1.1563486203 -0.200236650018
1.96434835177 1.57633018759 0.458223147391 -0.377300545384 -0.0582752566878 1.27765070279 0.755301402096 -0.0624485013726 0.756648711082 -1.15515069819 -0.200222382958
1.98978585856 1.57153349354 0.458672266103 -0.37752749117 -0.0594469448202 1.27757124664 0.755566894615 -0.0625864424053 0.756918393885 -1.15394808722 -0.200208724018
2.01521659275 1.56673807665 0.459122464705 -0.377757326083 -0.0606212245152 1.27749152699 0.755832978974 -0.0627252710074 0.757188635888 -1.15274079405 -0.2001951437
2.04064051212 1.56194394514 0.459573743104 -0.377990059123 -0.0617981117531 1.27741154079 0.75609964838 -0.0628650130051 0.757459431798 -1.15152880427 -0.200181713102
2.06605756715 1.55715110768 0.460026101279 -0.378225694279 -0.062977617373 1.27733128794 0.756366903328 -0.0630056713978 0.757730782023 -1.15031210497 -0.200168436678
2.09146942207 1.552359251 0.460479694928 -0.378464212776 -0.0641597113602 1.27725077092 0.756634794888 -0.0631471150871 0.758002727523 -1.14909069897 -0.200154914411
2.11687260344 1.54756902956 0.460934210827 -0.378705668966 -0.0653444916565 1.27716998158 0.756903215485 -0.0632896377375 0.758275182285 -1.14786454036 -0.200142026085
2.14226878284 1.54278012874 0.461389806324 -0.378950033697 -0.0665319172456 1.27708892848 0.757172231182 -0.063433060625 0.758548198894 -1.14663363503 -0.200129232147
2.1676579144 1.53799255697 0.461846481084 -0.379197315935 -0.0677220041924 1.27700760861 0.757441834973 -0.0635774099263 0.758821771882 -1.14539796869 -0.200116604591
2.19303995042 1.53320632309 0.462304234864 -0.379447519569 -0.0689147633387 1.27692602192 0.757712027343 -0.0637226885209 0.759095901633 -1.14415752844 -0.200104147595
2.21841660835 1.52842110312 0.462763231324 -0.379700626589 -0.0701101633477 1.27684417023 0.757982861052 -0.0638687623396 0.759370630403 -1.14291231647 -0.200091452243
2.24378430281 1.52363757358 0.463223140538 -0.379956689655 -0.0713083050097 1.27676204684 0.758254224791 -0.0640159315307 0.759645869274 -1.1416622883 -0.200079417744
2.2691447586 1.5188554091 0.463684127932 -0.380215680203 -0.072509145736 1.27667965966 0.758526186795 -0.0641640131591 0.759921672486 -1.14040744903 -0.200067492438
2.29449792801 1.51407461828 0.46414619291 -0.380477607239 -0.073712701761 1.2765970057 0.75879873971 -0.0643130341671 0.760198034285 -1.13914778446 -0.200055750416
2.31984376701 1.50929521017 0.464609334997 -0.380742474483 -0.0749189838586 1.276514085 0.7590718841 -0.0644629970233 0.760474955103 -1.13788328178 -0.200044194747
2.34518404811 1.50451684982 0.465073726192 -0.381010264942 -0.0761279594812 1.27643089856 0.759345674196 -0.0646137654106 0.760752478312 -1.13661394242 -0.200032409699
2.37051506664 1.49974023626 0.465539019065 -0.381281029282 -0.0773397322703 1.27634744128 0.759619995019 -0.0647656456161 0.761030512157 -1.1353397235 -0.200021312924
2.3958386043 1.49496503318 0.466005387505 -0.38155473956 -0.0785542579452 1.27626372043 0.759894917102 -0.0649184501679 0.761309112618 -1.13406062928 -0.200010339746
2.42115461705 1.49019124933 0.466472830643 -0.381831404879 -0.079771552971 1.27617973299 0.760170432631 -0.0650722070888 0.761588273573 -1.13277664568 -0.199999567247
2.44646305167 1.48541889394 0.466941347752 -0.382111028841 -0.0809916281146 1.27609547904 0.760446542149 -0.0652269187373 0.761867995419 -1.13148775993 -0.199988998267
2.47176574857 1.48064762089 0.467411119573 -0.382393595414 -0.0822144493967 1.27601095882 0.760723301627 -0.0653824457939 0.762148322839 -1.13019397274 -0.199978208066
2.49705887648 1.47587815219 0.467881780336 -0.382679153069 -0.0834401234362 1.27592616894 0.761000592297 -0.0655391008732 0.762429161181 -1.12889524296 -0.199968133308
2.52234427948 1.47111014031 0.468353512787 -0.382967674755 -0.0846686043767 1.27584111583 0.761278486766 -0.0656966927167 0.762710567965 -1.12759157389 -0.199958198493
2.54762190801 1.46634359418 0.468826315777 -0.383259169428 -0.0858999086669 1.2757557966 0.761556977106 -0.065855249352 0.762992536976 -1.12628295166 -0.19994848058
2.57289171438 1.46157852321 0.469300188312 -0.383553640663 -0.0871340471626 1.27567021132 0.761836063682 -0.0660147734957 0.763275068453 -1.12496936353 -0.19993898354
2.59815559403 1.45681456985 0.469775320281 -0.383851073505 -0.0883709844095 1.27558435941 0.762115804203 -0.0661751228759 0.763558208381 -1.12365080942 -0.199929273761
2.62340959276 1.45205247957 0.47025132671 -0.384151513969 -0.08961083008 1.2754982393 0.762396076086 -0.0663366163827 0.763841859205 -1.12232725007 -0.199920306785
2.6486556152 1.44729189339 0.470728399624 -0.384454935918 -0.090853536593 1.2754118566 0.762676954167 -0.0664990585342 0.764126080099 -1.12099868781 -0.199911495068
2.67389361363 1.4425328204 0.471206537565 -0.384761348393 -0.0920991206289 1.27532520839 0.762958430017 -0.0666624785317 0.764410864449 -1.1196651089 -0.199902918792
2.69912353667 1.43777527021 0.471685739267 -0.385070754714 -0.0933475928995 1.27523829487 0.763240504154 -0.0668268784241 0.764696212596 -1.11832650072 -0.199894580118
2.72434734217 1.43301887359 0.472166204196 -0.385383141169 -0.0945989164683 1.27515111454 0.763523235966 -0.0669921132207 0.764982171765 -1.11698286234 -0.199886037227
2.74956094931 1.42826439992 0.472647527269 -0.385698551042 -0.0958532041442 1.27506366779 0.763806499023 -0.0671585080408 0.765268641504 -1.11563415655 -0.199878264427
2.77476632327 1.42351147854 0.473129910218 -0.386016959363 -0.0971104067066 1.27497595926 0.764090370188 -0.0673258638245 0.765555682462 -1.11428038459 -0.199870664007
2.79996341817 1.41876011872 0.473613351274 -0.386338374934 -0.0983705407321 1.27488798618 0.764374841021 -0.0674942094601 0.765843288012 -1.11292153296 -0.199863315102
2.82515217897 1.41401033023 0.474097848875 -0.386662801077 -0.099633617059 1.27479974875 0.764659911768 -0.0676635475995 0.766131458264 -1.11155758912 -0.199856221715
2.85033462772 1.40926173194 0.474583612507 -0.386990225371 -0.10089959714 1.27471124451 0.764945643615 -0.067833730223 0.766420241762 -1.11018855125 -0.199848932918
2.87550655701 1.4045151176 0.475070216044 -0.387320688159 -0.102168597083 1.27462247592 0.765231906135 -0.0680050889836 0.766709535067 -1.10881438433 -0.199842442678
2.90066999256 1.39977010465 0.475557871382 -0.387654165504 -0.103440565698 1.2745334467 0.765518778648 -0.0681774199927 0.766999400621 -1.1074350885 -0.199836139574
2.92582488667 1.3950267025 0.476046576413 -0.387990666286 -0.104715519792 1.27444415409 0.765806252171 -0.0683507534139 0.767289831371 -1.10605065048 -0.199830106226
2.95097118428 1.39028492109 0.476536329271 -0.388330193642 -0.105993470145 1.27435459836 0.766094326942 -0.068525091685 0.767580827399 -1.10466105783 -0.199824346142
2.97611097351 1.38554436719 0.477027349924 -0.388672736568 -0.107274376529 1.27426477603 0.766383065969 -0.0687002837355 0.767872438576 -1.10326630779 -0.199818399224
3.00123991116 1.38080585933 0.477519190232 -0.389018332129 -0.108558358406 1.2741746918 0.766672334856 -0.0688766675364 0.768164558523 -1.10186636772 -0.199813278495
3.02636009268 1.37606900282 0.478012072716 -0.389366957725 -0.109845362737 1.27408434831 0.766962215111 -0.0690540352088 0.76845725125 -1.10046123657 -0.199808361259
3.05147146669 1.37133380721 0.47850599492 -0.389718622152 -0.111135406396 1.27399374288 0.767252697438 -0.0692324174823 0.768750509456 -1.09905090129 -0.199803731576
3.07657397815 1.36660028263 0.479000954654 -0.39007332837 -0.112428500112 1.27390287583 0.767543782035 -0.0694118166687 0.769044333172 -1.0976353496 -0.199799392724
3.10166977756 1.36186802349 0.479497182848 -0.390431066951 -0.113724601946 1.27381174263 0.767835533696 -0.0695920788005 0.769338773548 -1.09621457771 -0.199794875865
3.12675439327 1.35713787354 0.479994208344 -0.390791871391 -0.115023834829 1.2737203503 0.768127813992 -0.0697735482122 0.769633721254 -1.09478855555 -0.19979121322
3.15182998129 1.35240942574 0.48049226477 -0.391155720517 -0.116326143756 1.27362870038 0.768420706711 -0.0699560127983 0.769929241912 -1.09335728078 -0.199787770191
3.17689649207 1.34768268978 0.480991349304 -0.391522623025 -0.117631545661 1.27353679026 0.768714202238 -0.0701395038703 0.770225327973 -1.09192074067 -0.199784632304
3.20195387057 1.34295767596 0.481491459424 -0.391892581686 -0.118940051214 1.27344462034 0.769008300719 -0.0703240236125 0.770521979406 -1.09047892306 -0.199781802618
3.22700433334 1.33823396613 0.48199283751 -0.392265588836 -0.12025161674 1.27335218492 0.769303068675 -0.0705094153922 0.770819248578 -1.08903182309 -0.199778804196
3.25204326929 1.33351242965 0.482494988345 -0.392641674009 -0.121566368683 1.27325949353 0.769598363713 -0.0706960295736 0.771117023294 -1.08757941343 -0.199776687536
3.27707290598 1.32879264693 0.482998157167 -0.393020817695 -0.122884250094 1.27316654649 0.769894271763 -0.0708836502497 0.771415370663 -1.08612169042 -0.199774807372
3.30209319019 1.3240746278 0.483502340777 -0.393403028355 -0.12420527783 1.27307334133 0.770190783084 -0.071072308726 0.771714283037 -1.08465864161 -0.199773249031
3.3271040669 1.31935838269 0.484007536292 -0.393788308717 -0.125529462661 1.27297987844 0.7704878975 -0.0712620078631 0.772013760111 -1.08319025503 -0.199772017619
3.35210782053 1.31464348072 0.484513998065 -0.394176652873 -0.12685675895 1.27288615098 0.770785683517 -0.0714525876193 0.772313855655 -1.08171652468 -0.199770626001
3.37709970237 1.30993081723 0.48502120574 -0.394568086193 -0.128187296895 1.27279217106 0.771083994526 -0.0716444050107 0.772614454449 -1.08023742617 -0.199770144712
3.40208200606 1.30521995988 0.48552941669 -0.394962590775 -0.129521017323 1.27269793778 0.771382918949 -0.0718372393245 0.772915625335 -1.07875295439 -0.199769915043
3.4270546802 1.30051091862 0.486038627312 -0.395360175066 -0.130857937253 1.27260344874 0.771682446516 -0.0720311230413 0.773217360255 -1.07726309727 -0.199770025428
3.45201766609 1.29580370404 0.486548834361 -0.395760841478 -0.132198067266 1.27250870443 0.771982577158 -0.0722260583977 0.773519658967 -1.07576784301 -0.19977047937
3.47697331789 1.2910978723 0.48706030468 -0.396164586234 -0.133541359925 1.27241369668 0.772283381003 -0.0724218830646 0.773822576336 -1.07426718441 -0.19977078268
3.50191674928 1.28639434508 0.48757249167 -0.396571430016 -0.134887949121 1.27231844043 0.772584707475 -0.0726189598477 0.774125994356 -1.07276110021 -0.199772023524
3.52685032177 1.28169267712 0.488085665364 -0.39698135692 -0.136237773624 1.2722229334 0.772886647111 -0.0728170643594 0.77442998328 -1.07124958381 -0.199773532971
3.5517739803 1.27699287846 0.488599821746 -0.39739437517 -0.137590850399 1.27212717329 0.773189189423 -0.0730162293221 0.774734534888 -1.0697326235 -0.19977539992
3.57668766801 1.27229495983 0.48911495719 -0.397810486946 -0.138947189937 1.27203116069 0.773492334282 -0.0732164568294 0.775039648865 -1.06821020768 -0.199777627637
3.60159380879 1.26759846427 0.489631351584 -0.398229690661 -0.140306742812 1.27193488609 0.773796153613 -0.0734175817813 0.775345381291 -1.06668232792 -0.19977971351
3.62648737501 1.26290434014 0.49014843093 -0.39865200205 -0.141669646844 1.27183836733 0.774100492661 -0.0736199732825 0.775651611248 -1.06514896626 -0.199782764774
3.65137079609 1.25821212905 0.490666478486 -0.399077407191 -0.143035838479 1.27174160073 0.774405444384 -0.0738234023736 0.775958410614 -1.06361011454 -0.199786099823
3.67624401698 1.25352184116 0.491185489803 -0.399505914161 -0.144405334712 1.27164458413 0.774710997925 -0.0740279024673 0.776265770887 -1.06206576144 -0.199789809259
3.70110698262 1.24883348731 0.491705460848 -0.399937524991 -0.145778146037 1.27154731813 0.775017152905 -0.0742334760367 0.776573691536 -1.06051589559 -0.199793897569
3.72596218482 1.24414659723 0.492226685124 -0.400372240391 -0.147154220899 1.27144979183 0.77532398316 -0.0744399549149 0.776882229922 -1.05896050723 -0.199797852891
3.75080445283 1.23946214629 0.492748560056 -0.40081007069 -0.148533701088 1.27135202618 0.775631329856 -0.0746477140939 0.777191262336 -1.05739958196 -0.199802800389
3.77563628578 1.2347796628 0.49327138269 -0.401251004256 -0.14991652079 1.27125401597 0.775939288146 -0.0748565207241 0.777500862077 -1.05583310993 -0.199808047733
3.80045763229 1.23009915701 0.493795148122 -0.401695049036 -0.15130269706 1.27115575911 0.776247846723 -0.0750664091212 0.777811020305 -1.05426108026 -0.199813687789
3.82526843181 1.22542063988 0.494319851919 -0.402142206626 -0.152692240085 1.2710572564 0.776557005442 -0.0752773807128 0.778121736641 -1.05268348184 -0.199819722329
3.85007124953 1.22074362767 0.494845801767 -0.40259248039 -0.1540850963 1.27095849536 0.776866839722 -0.075489265246 0.778433069452 -1.05110030352 -0.19982563295
3.87486077159 1.21606912302 0.495372365295 -0.403045874862 -0.155481411604 1.27085950021 0.777177186609 -0.0757024436229 0.778744892256 -1.04951153463 -0.199832562811
3.89963956683 1.21139664081 0.495899853932 -0.403502380813 -0.156881117768 1.27076026416 0.777488143569 -0.0759166787535 0.779057279832 -1.0479171636 -0.199839807954
3.92440758206 1.20672619135 0.496428262311 -0.403962005913 -0.158284231751 1.27066078528 0.777799699071 -0.0761320051835 0.779370223177 -1.04631717999 -0.199847461628
3.94916475855 1.20205778571 0.496957585555 -0.404424751641 -0.15969076379 1.27056106436 0.778111852595 -0.0763484250558 0.7796837216 -1.04471157299 -0.199855527758
3.97391373489 1.19739092654 0.497488146156 -0.404890623975 -0.161100657973 1.27046108743 0.778424681551 -0.076565764871 0.779997834758 -1.04310032997 -0.199863478192
3.99864904674 1.19272664398 0.498019280688 -0.405359621241 -0.162514064454 1.27036088211 0.778738018827 -0.07678441144 0.78031243342 -1.04148344424 -0.199872474086
4.02337333821 1.18806443937 0.498551315572 -0.405831736813 -0.163930912513 1.27026043993 0.779051964183 -0.0770041234881 0.780627593796 -1.03986090238 -0.19988180007
4.04808655607 1.18340432303 0.499084244944 -0.406306978247 -0.165351219198 1.27015975906 0.779366505528 -0.0772249367698 0.780943306471 -1.03823269447 -0.199891552436
4.07278864161 1.17874630616 0.499618063494 -0.406785346602 -0.166774994467 1.27005884042 0.779681642478 -0.0774468526221 0.781259570825 -1.03659880998 -0.199901733095
4.0974823013 1.17408987763 0.500153109123 -0.407266850798 -0.168202180129 1.26995766839 0.779997454185 -0.0776696950481 0.781576447595 -1.03495923477 -0.199911806201
4.12216192953 1.16943609536 0.500688686067 -0.407751482491 -0.169632930695 1.26985627418 0.78031376941 -0.0778938565882 0.781893804873 -1.03331396632 -0.199922950411
4.14683024012 1.16478444694 0.501225136354 -0.408239237939 -0.17106717296 1.26975464751 0.78063069005 -0.0781190922267 0.782211720153 -1.0316629893 -0.199934440225
4.17148717986 1.16013494277 0.50176245363 -0.408730124304 -0.17250492376 1.26965278677 0.780948203925 -0.0783454375457 0.782530183961 -1.03000629432 -0.199946371178
4.19613269001 1.15548759408 0.502300632112 -0.409224142481 -0.173946193063 1.26955069291 0.781266310276 -0.0785728945456 0.782849195366 -1.02834387118 -0.19995874719
4.2207695523 1.15084187592 0.502840025752 -0.409721304466 -0.175390920232 1.2694483486 0.781585090114 -0.0788012844082 0.783168816243 -1.02667570415 -0.199971023834
4.24539200881 1.1461988741 0.503379905124 -0.410221594778 -0.176839264262 1.2693457888 0.781904368089 -0.0790310052661 0.783488912077 -1.02500179509 -0.199984396883
4.27000285226 1.14155806241 0.503920628518 -0.410725012656 -0.178291149254 1.26924300141 0.782224248421 -0.079261807808 0.783809561749 -1.02332212669 -0.199998129275
4.29460202393 1.13691945127 0.504462189047 -0.411231565118 -0.179746592114 1.26913998491 0.782544718337 -0.0794937289 0.784130755353 -1.02163669012 -0.200012319718
4.31918946693 1.13228305196 0.505004580467 -0.411741252584 -0.181205602481 1.26903674039 0.782865777243 -0.0797267696132 0.784452492048 -1.01994547554 -0.20002696982
4.34376803821 1.12764832559 0.505548173419 -0.412254090459 -0.182668117318 1.2689332487 0.783187507768 -0.0799607490232 0.78477483464 -1.01824846554 -0.200041528514
4.36833183122 1.12301638599 0.50609220347 -0.412770055616 -0.184134300209 1.26882954876 0.783509730511 -0.0801960706049 0.785097646112 -1.01654566663 -0.200057208001
4.39288371025 1.1183866931 0.506637045817 -0.413289150557 -0.185604072538 1.26872562647 0.783832551881 -0.0804324811107 0.785421006592 -1.01483705939 -0.200073260711
4.41742361841 1.11375925729 0.507182693042 -0.413811381998 -0.187077451116 1.26862148051 0.784155958761 -0.0806700179664 0.785744905933 -1.01312263561 -0.200089786527
4.44244450815 1.10913408991 0.507729138403 -0.414336750042 -0.188554445431 1.26851711204 0.784479950387 -0.0809086822632 0.786069343133 -1.01140238582 -0.200106787331
4.46745611697 1.10451063802 0.508276769913 -0.414865273606 -0.190034989827 1.26841250005 0.784804611206 -0.0811482903952 0.786394382048 -1.00967629088 -0.200123703855
4.49245226679 1.09989004361 0.508824786743 -0.41539692144 -0.191519252636 1.26830768756 0.78512975774 -0.0813892511814 0.786719883203 -1.00794436215 -0.20014176472
4.51743595766 1.09527175264 0.509373581669 -0.415931699571 -0.193007152476 1.26820265841 0.7854554985 -0.0816313076711 0.787045927867 -1.00620657806 -0.200160212555
4.54240712902 1.09065577546 0.50992314673 -0.416469614326 -0.194498705971 1.26809741149 0.785781820147 -0.0818744974831 0.787372505746 -1.004462931 -0.200179147406
4.567365724 1.08604212346 0.510473474674 -0.417010665492 -0.195993922463 1.26799194801 0.786108721696 -0.0821188218438 0.787699615642 -1.00271341194 -0.200198571741
4.59231480687 1.08143022959 0.511024971562 -0.417554875758 -0.197492733621 1.26788624502 0.786436289337 -0.082364094708 0.788027322367 -1.00095799992 -0.200217918748
4.61724804908 1.07682126404 0.511576798756 -0.418102205219 -0.198995312647 1.26778034983 0.786764335565 -0.0826107300195 0.788355484097 -0.999196711384 -0.200238432854
4.64216852223 1.07221465874 0.512129367313 -0.418652663586 -0.200501575214 1.26767424415 0.787092971114 -0.0828584667322 0.788684183289 -0.997429522502 -0.200259345931
4.66707617129 1.06761042403 0.512682668695 -0.4192062569 -0.202011537882 1.26756792701 0.787422182173 -0.0831073433857 0.789013409319 -0.995656426361 -0.200280760099
4.69197093387 1.06300857125 0.513236695129 -0.41976298459 -0.203525209804 1.26746139974 0.78775196758 -0.0833573611927 0.789343160824 -0.993877414358 -0.200302678016
4.71685595682 1.05840851928 0.51379187143 -0.420322873294 -0.205042519809 1.26735463735 0.788082415357 -0.0836083313985 0.789673503611 -0.992092463634 -0.200324524615
4.74172475377 1.05381146646 0.514347319711 -0.420885873906 -0.206563646106 1.26724769164 0.788413334021 -0.0838606728855 0.790004293604 -0.990301595978 -0.200347559604
4.76658047524 1.04921683071 0.514903469996 -0.421452000202 -0.208088501474 1.26714054202 0.788744836233 -0.0841141213292 0.79033561419 -0.988504785225 -0.200371006363
4.79142306435 1.04462462227 0.515460313179 -0.422021257736 -0.209617102192 1.26703318777 0.78907690806 -0.0843687151614 0.790667454679 -0.986702025139 -0.200394966322
4.81625246239 1.04003485249 0.516017840943 -0.422593645607 -0.211149457263 1.26692563029 0.789409548054 -0.0846244558792 0.790999813459 -0.98489330761 -0.200419443121
4.84107188777 1.03544692611 0.516576497565 -0.423169194705 -0.21268549264 1.26681784246 0.789742845938 -0.0848811523913 0.791332757199 -0.983078607811 -0.200443854441
4.86587470732 1.0308620696 0.517135364442 -0.423747846151 -0.214225391661 1.26670988075 0.79007660632 -0.0851392282788 0.7916661397 -0.981257953106 -0.200469474598
4.89066414314 1.02627968682 0.517694891294 -0.424329617948 -0.215769064016 1.26660172222 0.790410943933 -0.0853984154553 0.792000045336 -0.979431314888 -0.200495517299
4.91568790082 1.02169978795 0.518255068416 -0.424914515279 -0.217316525839 1.26649336636 0.790745844442 -0.0856587530677 0.792334463149 -0.977598687676 -0.200522085429
4.94069802704 1.01712238427 0.518815886945 -0.425502536818 -0.21886778588 1.26638481465 0.791081306258 -0.0859202424425 0.792669391388 -0.975760063858 -0.200549182408
4.96569784849 1.01254686644 0.519377811339 -0.426093717978 -0.22042276713 1.26627603776 0.791417420743 -0.0861826903292 0.793004897497 -0.973915416571 -0.200576219144
4.99068051181 1.0079744889 0.519939880792 -0.426687989521 -0.221981658199 1.26616709704 0.791753988659 -0.0864465247819 0.793340833279 -0.972064778996 -0.200604483924
5.01564935102 1.00340464155 0.520502565449 -0.427285373954 -0.223544365596 1.26605796705 0.792091126753 -0.0867114740702 0.793677284007 -0.970208119997 -0.200633181205
5.04060431107 0.998837334402 0.521065854989 -0.427885876086 -0.225110905315 1.26594864752 0.79242882024 -0.086977578188 0.794014238422 -0.968345434896 -0.200662415621
5.0655453314 0.994272578699 0.521629740007 -0.428489494034 -0.226681285707 1.26583914005 0.792767067611 -0.0872448376233 0.794351694791 -0.966476716563 -0.200692188646
5.09047581576 0.989709751042 0.52219470586 -0.42909626812 -0.228255426844 1.26572941297 0.793105961577 -0.087513057798 0.794689721091 -0.964601936076 -0.200721906589
5.11538876033 0.985150133677 0.52275974804 -0.429706118094 -0.229833522679 1.26561953269 0.793445299244 -0.0877826706686 0.795028167339 -0.962721132655 -0.200752870171
5.14028757436 0.98059310256 0.523325357849 -0.43031907127 -0.23141547648 1.26550947122 0.793785199256 -0.0880534011232 0.795367119574 -0.960834272555 -0.200784275402
5.16517220281 0.97603866757 0.523891524347 -0.430935132013 -0.233001304027 1.26539922848 0.794125646473 -0.0883252897316 0.79570656631 -0.958941351924 -0.200816227907
5.19004258511 0.971486839839 0.524458237557 -0.431554297983 -0.234591013393 1.26528880621 0.79446663921 -0.0885983368611 0.796046505649 -0.957042364193 -0.200848729102
5.21490220574 0.966936982017 0.525026004505 -0.432176614541 -0.236184521456 1.26517817034 0.794808271793 -0.088872345817 0.796387006245 -0.955137278245 -0.20088117865
5.23974390493 0.962390403892 0.525593775442 -0.432801989856 -0.237782027719 1.26506739253 0.795150337636 -0.0891477525356 0.796727916398 -0.953226139607 -0.200914889857
5.26457117081 0.957846467581 0.526162063581 -0.433430456363 -0.239383432141 1.26495644208 0.795492957167 -0.0894242787967 0.797069322769 -0.95130891185 -0.200949051104
5.28938395019 0.953305182789 0.526730857354 -0.434062017898 -0.240988750197 1.26484531918 0.795836115017 -0.0897019653639 0.797411213749 -0.949385591959 -0.200983767989
5.31418218067 0.948766560511 0.527300146198 -0.434696671691 -0.242597989713 1.26473402567 0.796179809225 -0.0899808127598 0.797753587195 -0.947456173978 -0.201019042575
5.33896942195 0.944229949559 0.527870459565 -0.435334468422 -0.244211064274 1.26462252499 0.796524135678 -0.0902606222971 0.798096512363 -0.945520624519 -0.20105426823
5.3637383693 0.939696686949 0.528440700923 -0.435975304024 -0.24582817905 1.26451089424 0.796868884236 -0.0905418334968 0.798439836017 -0.943578995657 -0.201090769755
5.3884925806 0.935166121078 0.529011406153 -0.436619216365 -0.247449230612 1.26439909994 0.797214177015 -0.0908241652224 0.798783645325 -0.941631248194 -0.201127728522
5.41323200629 0.930638261442 0.529582563049 -0.437266208738 -0.249074234123 1.26428714253 0.797559998385 -0.0911076585319 0.799127928528 -0.939677379999 -0.201165250318
5.43795658584 0.926113118882 0.53015416046 -0.437916277885 -0.250703197098 1.26417502395 0.797906346183 -0.0913923138529 0.799472683299 -0.937717385744 -0.201203337213
5.46266995416 0.92159002851 0.530726751019 -0.438569480126 -0.252336029757 1.26406270508 0.798253317746 -0.0916779308011 0.799817979366 -0.935751229705 -0.201241377062
5.48736465607 0.917070354176 0.53129918986 -0.439225698519 -0.253972943098 1.26395026863 0.798600699456 -0.0919649522814 0.800163662109 -0.933778970762 -0.20128070557
5.51204432835 0.912553430733 0.53187203631 -0.439884976587 -0.255613830113 1.26383767825 0.798948615204 -0.0922530938793 0.800509819201 -0.931800566821 -0.201320496315
5.5367089196 0.908039267419 0.532445277503 -0.440547317142 -0.257258705726 1.26372493463 0.799297048928 -0.0925423974576 0.800856438625 -0.929816016716 -0.201360856522
5.56135837295 0.903527874897 0.533018901698 -0.44121271637 -0.258907577071 1.26361203982 0.799645998355 -0.0928328630546 0.801203517927 -0.927825315754 -0.201401787532
5.58599639306 0.899018574755 0.533593485473 -0.441881236573 -0.260560350941 1.26349895205 0.799995562125 -0.093124288988 0.801551127162 -0.925828425827 -0.201442672714
5.61061538345 0.894512757218 0.534167834075 -0.442552747214 -0.262217244255 1.26338575983 0.800345523353 -0.093417120944 0.801899110568 -0.923825412836 -0.201484857073
5.63521905428 0.890009743776 0.534742531033 -0.443227297874 -0.263878146428 1.26327242381 0.800696007444 -0.0937110719009 0.802247556086 -0.921816231755 -0.201527508228
5.65980735418 0.885509543386 0.535317562832 -0.443904890775 -0.265543072025 1.26315894497 0.801046998082 -0.094006184012 0.802596451565 -0.919800882376 -0.201570733489
5.68438022811 0.881012166502 0.535892917128 -0.444585521544 -0.267212027797 1.26304532546 0.801398492837 -0.09430245703 0.802945794394 -0.917779360682 -0.201614533743
5.7089414541 0.876516921414 0.536469195223 -0.445269258756 -0.268884916984 1.26293152077 0.801750591636 -0.0945996879788 0.803295654894 -0.915751626094 -0.20165828791
5.73348329441 0.872025224164 0.537045150907 -0.445955957618 -0.270561962603 1.26281762542 0.802103074388 -0.0948983251956 0.803645876308 -0.913717751803 -0.201703349869
5.75825479227 0.867536383122 0.537621392696 -0.446645674056 -0.272243050347 1.26270359693 0.802456068008 -0.095198078946 0.803996546774 -0.911677689737 -0.201748881168
5.78350806989 0.86305040693 0.538197906414 -0.447338409687 -0.273928194416 1.2625894366 0.802809555902 -0.0954989917487 0.804347653999 -0.909631440695 -0.201794989344
5.80899753179 0.858567305792 0.538774679112 -0.448034159577 -0.275617401175 1.26247514666 0.803163535442 -0.0958010631697 0.804699195188 -0.907579001376 -0.201841675081
5.83472942763 0.854086374951 0.539352337579 -0.448732998923 -0.277310570245 1.26236067978 0.803518107695 -0.0961040893256 0.805051240773 -0.90552032868 -0.201888313842
5.86069769491 0.849609055647 0.539929582597 -0.449434767938 -0.279007930839 1.26224613665 0.803873049587 -0.0964085205961 0.805403633265 -0.903455503307 -0.201936266759
5.88690861449 0.845134643405 0.540507048445 -0.450139529219 -0.280709364829 1.26213147162 0.804228489455 -0.0967140646765 0.805756460871 -0.901384474055 -0.201984689824
5.91336439559 0.840663146504 0.541084720277 -0.450847283785 -0.282414886059 1.26201668624 0.804584410365 -0.0970207646433 0.806109711123 -0.899307242785 -0.202033691223
5.94006725291 0.836194574866 0.541662584537 -0.451558026118 -0.284124500485 1.26190178288 0.804940809488 -0.097328619861 0.806463381035 -0.897223806946 -0.202083271405
5.96702381595 0.831728211004 0.542241294288 -0.452271838299 -0.285838103928 1.26178671128 0.805297789098 -0.0976374252803 0.806817541147 -0.895134120801 -0.202132801767
5.99422754881 0.827265520634 0.542819495745 -0.452988544846 -0.287555931963 1.26167157852 0.805655123251 -0.0979476330676 0.807172033422 -0.893038272816 -0.202183649956
6.02168511949 0.822805786741 0.543397849715 -0.453708215421 -0.289277862605 1.2615563356 0.806012941484 -0.0982589488669 0.807526945921 -0.890936208607 -0.202234967849
6.0493988308 0.818349017205 0.543976340686 -0.454430850392 -0.291003909285 1.2614409844 0.806371226584 -0.0985714161499 0.807882266046 -0.888827931124 -0.202286863819
6.07737100204 0.813895221645 0.544554954502 -0.455156443596 -0.292734077477 1.2613255274 0.806729975622 -0.0988850337525 0.808237990689 -0.886713438562 -0.202339337291
6.10560865903 0.809443670171 0.545134371261 -0.455885084387 -0.294468259167 1.26120991134 0.807089291855 -0.0991995960547 0.808594190294 -0.884592682519 -0.202391757098
6.13410477413 0.804995852174 0.545713181071 -0.456616580841 -0.296206696412 1.26109424983 0.807448946684 -0.0995155564652 0.808950706533 -0.882465759448 -0.20244549594
6.162866408 0.80055103846 0.546292072043 -0.45735101002 -0.297949263259 1.26097849047 0.807809070754 -0.0998326187093 0.809307627191 -0.880332611703 -0.202499702071
6.19189597722 0.796109236473 0.546871027997 -0.458088371616 -0.299695972703 1.26086263546 0.808169646587 -0.100150826632 0.809664939556 -0.878193243356 -0.202554483941
6.22119590018 0.791670455483 0.547450034177 -0.458828658825 -0.301446829739 1.26074668736 0.80853067109 -0.10047017869 0.810022640355 -0.876047653395 -0.202609840332
6.25077362839 0.787233953588 0.548029798483 -0.459571968594 -0.303201722392 1.26063058986 0.808892248465 -0.100790468755 0.810380799848 -0.873895790671 -0.202665137693
6.28062160392 0.782801242961 0.548608853388 -0.460318091826 -0.304960899355 1.26051446327 0.809254147604 -0.101112151138 0.810739259644 -0.87173775987 -0.202721752828
6.31104857204 0.778371582628 0.549187915076 -0.461067113332 -0.306724230604 1.26039825169 0.809616500162 -0.101434927796 0.811098107106 -0.869573499998 -0.202778830902
6.34206569996 0.773944979575 0.549766966715 -0.46181903205 -0.308491728605 1.26028195762 0.809979288521 -0.10175884256 0.811457329501 -0.86740301624 -0.202836479463
6.37368435668 0.769521442653 0.550345992925 -0.462573840614 -0.310263397978 1.26016558376 0.810342509196 -0.102083894212 0.811816923239 -0.865226308494 -0.202894698334
6.40592168381 0.7651002184 0.550925730185 -0.463331643849 -0.312039122604 1.26004907061 0.810706267378 -0.102409875873 0.812176958368 -0.863043322742 -0.202952851063
6.43877837129 0.760682840783 0.551504651832 -0.464092214727 -0.313819157944 1.2599325454 0.811070329661 -0.102737242257 0.812537276694 -0.860854172127 -0.203012317202
6.47227199925 0.756268557495 0.552083502874 -0.464855646181 -0.315603369827 1.25981594858 0.811434828548 -0.103065693877 0.812897964978 -0.858658792245 -0.203072239797
6.5064148505 0.751857374986 0.552662265812 -0.465621936465 -0.317391770281 1.25969928299 0.811799746074 -0.103395275223 0.813259010339 -0.856457189514 -0.20313272703
6.54191899355 0.747449301716 0.553240924692 -0.466391077448 -0.319184363293 1.25958255145 0.812165078795 -0.103725984016 0.813620409151 -0.854249364604 -0.203193776481
6.57847949052 0.743043573098 0.553820245288 -0.467163182305 -0.320981028654 1.25946569122 0.8125309325 -0.104057613758 0.813982230934 -0.852035260672 -0.203254751534
6.6161144702 0.738641743812 0.554398640331 -0.467938005309 -0.322782028717 1.25934883656 0.812897071714 -0.104390619022 0.814344317973 -0.849814999537 -0.203317033041
6.65486219937 0.73424305072 0.554976884407 -0.468715647857 -0.324587225046 1.25923192424 0.813263629705 -0.104724698937 0.814706756291 -0.847588513288 -0.203379762267
6.69515444032 0.729847499724 0.555554959374 -0.469496107414 -0.326396629094 1.25911495743 0.813630588374 -0.105059898012 0.815069533006 -0.845355809533 -0.20344304646
6.73705265843 0.72545509879 0.55613284867 -0.470279375246 -0.328210244426 1.25899793903 0.813997943884 -0.105396214257 0.815432644176 -0.843116889913 -0.203506884136
6.7810643 0.721065072771 0.556711348128 -0.471065573118 -0.330027946492 1.25888080303 0.814365802791 -0.105733440909 0.815796158837 -0.840871694588 -0.203570637057
6.82727936489 0.716678995878 0.55728880843 -0.471854435844 -0.331850004685 1.25876369086 0.814733927752 -0.106072031961 0.816159920017 -0.838620354278 -0.203635686178
6.8763020682 0.712296094678 0.557866034466 -0.472646073676 -0.333676276231 1.25864653551 0.815102452619 -0.10641168553 0.816524012807 -0.83636279751 -0.203701172051
6.92882289456 0.707916374465 0.558443007454 -0.473440483306 -0.335506772038 1.25852934047 0.81547135907 -0.106752446453 0.816888424271 -0.834099033158 -0.203767201654
6.98565402078 0.703539842707 0.559019710259 -0.474237655283 -0.3373414951 1.25841210876 0.815840643108 -0.107094312263 0.817253150304 -0.831829063766 -0.20383377266
7.04839646615 0.699165714246 0.559596969469 -0.47503772039 -0.339180316515 1.25829477101 0.81621041178 -0.107437076697 0.817618259215 -0.829552826499 -0.203900247044
7.12045140874 0.694795581556 0.560173072331 -0.475840393191 -0.341023512819 1.25817747597 0.816580426163 -0.107781192475 0.817983595098 -0.827270461171 -0.203968004082
7.20777472818 0.690428661493 0.56074885475 -0.476645793174 -0.342870936821 1.25806015274 0.816950820521 -0.108126357032 0.818349241915 -0.82498189269 -0.204036184589
7.33281420498 0.686064958702 0.561324297316 -0.477453916232 -0.344722598855 1.25794280517 0.817321576333 -0.108472615485 0.818715186707 -0.822687131221 -0.204104895085
7.51395700342 0.681704480105 0.561899382331 -0.478264752203 -0.346578501347 1.25782543639 0.817692689395 -0.108819965027 0.819081425171 -0.82038618026 -0.204174132729
7.66137277498 0.679875140286 0.565860100207 -0.477063987146 -0.343505681322 1.25874553946 0.817886827155 -0.110364377103 0.81912988355 -0.819644394979 -0.203453281754
7.75152985811 0.678048402372 0.569806156116 -0.475852231557 -0.340427256005 1.25963557235 0.818088352304 -0.111908278071 0.819184378612 -0.81891898742 -0.202753816533
7.8231331995 0.676224365102 0.573737584766 -0.474629528921 -0.337343207191 1.26049608092 0.818296957604 -0.113451511015 0.81924458659 -0.818209755759 -0.202075033206
7.88457977082 0.674403127491 0.577654420627 -0.473395923709 -0.334253518252 1.26132761201 0.818512347528 -0.114993926001 0.8193101959 -0.817516506283 -0.201416246863
7.93945107649 0.672584788873 0.581556697934 -0.472151461365 -0.331158174129 1.26213071241 0.818734237772 -0.116535379939 0.819380906679 -0.816839052905 -0.200776791692
7.98960545442 0.670639917909 0.585457680857 -0.470919210029 -0.328113172767 1.26290092629 0.818973303068 -0.11808621424 0.819467257997 -0.81610887096 -0.200159406422
8.03621355243 0.668697928488 0.589344337727 -0.469676201163 -0.325062412399 1.26364371057 0.819218318786 -0.119635956613 0.819558121868 -0.815394292172 -0.199560232803
8.0799589963 0.666758917503 0.593216699043 -0.468422478731 -0.322005879425 1.26435960185 0.819469033485 -0.121184482309 0.819653233099 -0.814695158345 -0.198978659938
8.12142795308 0.664822982449 0.597074795121 -0.467158087497 -0.31894356151 1.26504913321 0.819725205675 -0.122731672292 0.819752336944 -0.814011317168 -0.198414094772
8.16073866354 0.662890221447 0.600918656107 -0.465883073025 -0.315875447577 1.26571283354 0.819986603447 -0.124277413043 0.819855188732 -0.813342621824 -0.197865961841
8.19846408163 0.660831250197 0.604757287081 -0.464619407724 -0.312858556377 1.26634501402 0.82026384821 -0.125832223514 0.819972324422 -0.812620611176 -0.197338378461
8.23458511158 0.658775426136 0.608581903743 -0.463345220215 -0.309835774858 1.26695235493 0.820545864096 -0.127385507152 0.820092721 -0.811913625476 -0.196826247294
8.26951560892 0.656722845899 0.612392532701 -0.462060554218 -0.306807092656 1.26753536492 0.820832447381 -0.128937165299 0.820216163803 -0.81122153999 -0.196329043907
8.30329459273 0.654673606914 0.616189200498 -0.460765454127 -0.303772500422 1.26809454656 0.821123402646 -0.130487103802 0.820342446933 -0.810544234089 -0.19584625978
8.33595981053 0.652627807401 0.619971933644 -0.459459965015 -0.300731989811 1.26863039599 0.821418542443 -0.132035232826 0.820471372924 -0.809881590945 -0.195377401933
8.36854724337 0.65045606476 0.623745659262 -0.458165011932 -0.297743552215 1.26913615379 0.821728414647 -0.133592186017 0.820613449523 -0.809165190803 -0.194927695398
8.4010161547 0.648287728333 0.627505659389 -0.456859770761 -0.294749108906 1.26961952816 0.822042100013 -0.135147295777 0.820757771507 -0.808463389337 -0.194491067237
8.4343469961 0.646122895457 0.63125195734 -0.455544284487 -0.291748651649 1.27008098964 0.822359434787 -0.136700483964 0.820904166812 -0.807776087135 -0.194067070094
8.46856240836 0.643961664343 0.634984576516 -0.454218596713 -0.288742173056 1.27052100145 0.822680261762 -0.138251676087 0.821052470345 -0.807103187491 -0.193655270847
8.5036856176 0.641804134074 0.638703540437 -0.452882751635 -0.285729666549 1.27094001941 0.823004430317 -0.139800800915 0.821202523987 -0.806444596194 -0.193255249631
8.53974856938 0.639521041756 0.642409706937 -0.451556647824 -0.282770077634 1.27133038502 0.823342386764 -0.141358583012 0.82136478248 -0.805731926719 -0.192873191919
8.57713956096 0.637241612665 0.646102416575 -0.45022048692 -0.279804378772 1.27170064599 0.823683384157 -0.142914298793 0.821528470581 -0.805033545183 -0.192502182856
8.61590720427 0.634965945347 0.649781690078 -0.448874310901 -0.276832563051 1.27205123028 0.824027291296 -0.144467886169 0.821693451145 -0.804349371123 -0.192141842805
8.65650382528 0.63269413925 0.65344754842 -0.447518162291 -0.273854624231 1.27238255819 0.824373982447 -0.146019285674 0.821859592829 -0.803679325737 -0.191791803834
8.6990153871 0.630426294706 0.657100012844 -0.446152084188 -0.270870556774 1.27269504243 0.824723336882 -0.147568440525 0.822026769642 -0.803023331706 -0.191451709789
8.74414039101 0.628033387959 0.660735882973 -0.444794970504 -0.267940242414 1.27298027934 0.825085680986 -0.149126148835 0.822205368926 -0.802313032023 -0.191128581724
8.78630511141 0.625644402091 0.664358547827 -0.443428026449 -0.265003721432 1.27324749402 0.82545044695 -0.150681641153 0.822384747855 -0.801616796573 -0.190814773562
8.82627736465 0.623259437081 0.667968026265 -0.442051292803 -0.262060987587 1.27349707104 0.825817530138 -0.152234867446 0.822564797863 -0.800934558971 -0.190509963401
8.86417085565 0.620878593793 0.671564337542 -0.440664810885 -0.259112035225 1.27372938756 0.826186830057 -0.153785779794 0.822745414812 -0.800266253692 -0.190213839539
8.90045262808 0.618501973954 0.675147501333 -0.439268622548 -0.256156859268 1.27394481337 0.826558250336 -0.155334332168 0.822926498947 -0.799611815953 -0.189926099846
8.93617073298 0.616000913594 0.678710272797 -0.437880639649 -0.253256260229 1.27413433605 0.826941985943 -0.156891384194 0.82311836333 -0.798902917352 -0.189654496386
8.97037019998 0.613504033756 0.68226007671 -0.436483048158 -0.250349362712 1.2743077192 0.827327649605 -0.158446126586 0.823310493815 -0.798207924352 -0.189390742524
9.00344277227 0.611011435879 0.685796930738 -0.435075887603 -0.247436160717 1.2744653055 0.827715157721 -0.159998518521 0.823502804571 -0.797526780932 -0.189134565871
9.03542532028 0.60852322225 0.68932085308 -0.43365919802 -0.244516648735 1.27460743066 0.828104430148 -0.161548520586 0.823695213422 -0.796859431356 -0.18888570214
9.06604729576 0.606039495971 0.692831862486 -0.432233019984 -0.241590821773 1.27473442363 0.82849538982 -0.163096094885 0.823887641479 -0.796205820067 -0.188643895293
9.09706959625 0.603432074519 0.696318686348 -0.430814306441 -0.238720381783 1.27483678293 0.828898095107 -0.164652153645 0.824090327361 -0.795497648039 -0.188417538758
9.12706951409 0.600829095694 0.6997927695 -0.429386200894 -0.235843554345 1.27492469206 0.829302335719 -0.166205851874 0.824292876489 -0.794803271264 -0.188197782326
9.15756034765 0.598230662323 0.703254129032 -0.427948741576 -0.232960333344 1.27499845448 0.829708045089 -0.167757155294 0.824495221414 -0.794122641321 -0.187984394772
9.18885976897 0.595636878015 0.706702782679 -0.426501967247 -0.230070713125 1.27505836736 0.8301151591 -0.169306030833 0.824697297293 -0.793455709631 -0.187777152019
9.22098895462 0.593047847137 0.710138748845 -0.425045917198 -0.227174688493 1.27510472176 0.830523616115 -0.17085244646 0.824899041904 -0.792802427389 -0.187575836638
9.25382223798 0.590335990953 0.713546746982 -0.423596609141 -0.224334845628 1.2751276317 0.830943336129 -0.172407361356 0.825110623052 -0.792094526506 -0.187389408644
9.28752610661 0.587628841931 0.716942223076 -0.422138120407 -0.221488527776 1.27513759922 0.831364280582 -0.173959896431 0.825321754504 -0.791400346128 -0.187208517163
9.32246932346 0.584926504116 0.720325194168 -0.420670487982 -0.218635728519 1.27513489195 0.83178639605 -0.175510022355 0.825532383037 -0.790719843341 -0.187032966092
9.35869715359 0.582229082278 0.723695678053 -0.419193749375 -0.215776441843 1.27511977192 0.832209631164 -0.177057710543 0.825742457568 -0.790052974765 -0.18686256491
9.39625651716 0.57953668189 0.727053693297 -0.417707942627 -0.212910662157 1.27509249573 0.83263393645 -0.178602933166 0.825951928992 -0.789399696501 -0.186697128601
9.43549627949 0.576722450772 0.730379974557 -0.416228174274 -0.2101018426 1.27504288368 0.833069094899 -0.180156692512 0.826170901276 -0.788691773218 -0.186546119852
9.4725630209 0.573913193369 0.733693946635 -0.414739431464 -0.207286461029 1.27498166999 0.833505232141 -0.181708076305 0.826389182899 -0.787997521681 -0.186399741279
9.50805131227 0.571109014762 0.736995626989 -0.413241749975 -0.204464510555 1.27490908994 0.83394230522 -0.183257058593 0.82660673191 -0.787316902947 -0.186257825902
9.54202809066 0.568310020697 0.740285033924 -0.411735166112 -0.201635984664 1.27482537398 0.834380272796 -0.184803613909 0.826823508007 -0.786649877386 -0.186120211251
9.57488276158 0.565516317547 0.743562186595 -0.410219716736 -0.198800877256 1.27473074778 0.834819094858 -0.186347717415 0.827039472268 -0.785996404621 -0.185986739595
9.60770674568 0.56260190261 0.746803861489 -0.408709621578 -0.196023491062 1.27461481666 0.83526842086 -0.187900412016 0.827264673996 -0.785288283788 -0.185867321573
9.63913220976 0.559692729387 0.750033436312 -0.407190753288 -0.193239455686 1.27448847315 0.835718532231 -0.189450752332 0.827489001819 -0.784593804726 -0.185751759327
9.66951934961 0.556788903791 0.753250929341 -0.405663146497 -0.190448763672 1.27435192375 0.836169394231 -0.190998714675 0.827712422575 -0.783912931331 -0.185639910155
9.6989022356 0.553890532336 0.756456359769 -0.404126836375 -0.187651407924 1.27420537072 0.836620973363 -0.192544275669 0.827934904337 -0.78324562664 -0.185531635035
9.72876311046 0.550997722099 0.759649747714 -0.402581858657 -0.184847381739 1.27404901226 0.83707323712 -0.194087412394 0.828156416178 -0.782591852794 -0.185426798851
9.75915119711 0.547985442625 0.762803941667 -0.401041570945 -0.182101819987 1.27387230691 0.837535705798 -0.1956392072 0.828386962903 -0.781883444707 -0.185335713909
9.79034202372 0.544978673639 0.765946242683 -0.399492706796 -0.179349521341 1.27368624228 0.837998808173 -0.197188680937 0.828616498644 -0.781188661811 -0.185247820828
9.82235653197 0.541977521676 0.769076670184 -0.397935299765 -0.176590477724 1.2734909994 0.838462515871 -0.198735811387 0.828844996986 -0.780507469994 -0.185162997245
9.85554481837 0.538982093807 0.772195244572 -0.396369383959 -0.17382468141 1.27328675564 0.838926801478 -0.200280576513 0.82907243243 -0.779839834171 -0.185081123776
9.88994965256 0.535992497605 0.775301987238 -0.394794994059 -0.171052125057 1.27307368491 0.839391638292 -0.201822954611 0.829298780168 -0.779185718251 -0.185002084281
9.92540791584 0.532884797258 0.778365852513 -0.39322465042 -0.168338758055 1.27284115805 0.839866422831 -0.203374066834 0.829534011617 -0.77847699373 -0.184936552457
9.96260560102 0.529782876222 0.78141803149 -0.391645922703 -0.165618565695 1.27260020358 0.840341722514 -0.204922899491 0.829768131622 -0.777781887167 -0.184873641467
10.0016265555 0.526686841451 0.784458545016 -0.390058843457 -0.162891539246 1.27235098007 0.840817513919 -0.206469431204 0.830001118933 -0.777100365829 -0.184813245907
10.0429678971 0.523596800375 0.787487414976 -0.388463445796 -0.160157670328 1.27209364298 0.84129377439 -0.208013640655 0.830232952988 -0.776432395933 -0.184755262741
10.0872038878 0.520512860862 0.790504664286 -0.386859763415 -0.157416950937 1.27182834487 0.841770481725 -0.209555506807 0.83046361364 -0.775777942606 -0.184699591704
10.134891076 0.517312303508 0.793475390664 -0.385259504488 -0.154736127224 1.27154442005 0.842256914476 -0.211106189408 0.830703050364 -0.775068914148 -0.184657232846
10.1784891464 0.514117793621 0.796434638141 -0.383651049791 -0.152048388838 1.27125289135 0.842743770144 -0.212654639382 0.83094130422 -0.774373502751 -0.184617001738
10.2190755104 0.510929438383 0.799382429229 -0.382034430933 -0.149353726383 1.27095389762 0.843231029257 -0.21420083563 0.83117835796 -0.773691676627 -0.184578806945
10.2572346045 0.507747345377 0.802318787508 -0.380409680104 -0.146652130822 1.27064757517 0.8437186727 -0.215744757235 0.831414194631 -0.773023402861 -0.184542559341
10.2945669271 0.504571622583 0.805243737642 -0.378776830082 -0.143943593483 1.27033405776 0.844206681848 -0.217286383333 0.831648797676 -0.772368647411 -0.18450817178
10.3336381211 0.501280887907 0.808118562 -0.377146802068 -0.141295639389 1.2700026877 0.844704222987 -0.218836912547 0.831892105864 -0.77165935495 -0.184486940437
10.3754473522 0.497996467484 0.810982116663 -0.375508762809 -0.13864068045 1.26966444187 0.845202115787 -0.220385259322 0.832134182753 -0.770963682764 -0.184467409127
10.4206322417 0.494718468527 0.813834425987 -0.373862743042 -0.135978706617 1.26931944191 0.845700343683 -0.221931402627 0.832375013967 -0.770281599674 -0.184449498346
10.4704450572 0.491446998606 0.816675515442 -0.372208774093 -0.133309708195 1.26896780728 0.846198890463 -0.223475321455 0.832614585379 -0.769613073347 -0.184433130303
10.5270216758 0.488182165627 0.819505411615 -0.370546887885 -0.130633675849 1.26860965532 0.846697740235 -0.225016994841 0.832852883074 -0.768958070282 -0.184418228888
10.5932067258 0.484804044655 0.822281626549 -0.368887243963 -0.128018895435 1.26823437495 0.847205952893 -0.226567660533 0.833099846317 -0.768248570488 -0.184416359407
10.6499142221 0.481432502671 0.825046783653 -0.367219769782 -0.125397019215 1.26785286241 0.847714462449 -0.22811619576 0.833345547806 -0.76755269663 -0.184415817482
10.7088072479 0.478067646763 0.827800909304 -0.365544495269 -0.122768036483 1.26746522418 0.848223254813 -0.229662579085 0.833589975469 -0.766870417931 -0.184416533173
10.777781279 0.474709584301 0.830544030996 -0.363861450943 -0.12013193691 1.26707156505 0.848732315848 -0.231206789328 0.833833117104 -0.766201702409 -0.184418438475
10.8358538893 0.471358422936 0.833276177372 -0.362170667933 -0.117488710523 1.26667198806 0.849241631638 -0.232748805316 0.834074960613 -0.765546516892 -0.18442146677
10.9051857363 0.467874154086 0.835931492409 -0.360439577369 -0.114883626274 1.26624724645 0.849770841579 -0.234331722683 0.834328642266 -0.764771385028 -0.184440874511
10.9645416974 0.464396946785 0.838575642406 -0.358700736259 -0.112271274569 1.26581686153 0.850300348555 -0.235912547022 0.834581009155 -0.764010085927 -0.184461235361
11.0173779408 0.460926912402 0.84120865753 -0.356954174924 -0.109651644124 1.26538092743 0.850830139882 -0.237491256069 0.834832050554 -0.763262587341 -0.184482487614
11.0655868067 0.45746416257 0.843830569185 -0.35519992432 -0.107024724012 1.26493953668 0.851360203224 -0.239067827355 0.835081755915 -0.762528855794 -0.184504570413
11.1151503551 0.454008809103 0.846441409981 -0.353438016036 -0.104390503711 1.26449278059 0.851890525876 -0.240642238853 0.835330114261 -0.761808856508 -0.184527424975
11.1715874335 0.450465253084 0.849011637488 -0.351719302447 -0.101842405976 1.26403890599 0.85241907448 -0.242194005043 0.83558395242 -0.761100222805 -0.184559667417
11.2223141929 0.446928805641 0.851571244334 -0.349993112468 -0.0992870281387 1.26357987233 0.852947847051 -0.243743743065 0.835836507171 -0.76040522607 -0.184592622447
11.2690639321 0.443399573092 0.854120261349 -0.348259474606 -0.0967243583029 1.26311576141 0.853476832504 -0.245291430567 0.836087768919 -0.759723835769 -0.184626235582
11.3143446399 0.439877661927 0.856658720511 -0.346518417971 -0.0941543849469 1.26264665401 0.85400601947 -0.246837045524 0.836337727703 -0.759056020127 -0.184660453999
11.3633458841 0.436363178829 0.859186654999 -0.344769972293 -0.091577096907 1.26217262968 0.85453539679 -0.248380565765 0.836586373605 -0.758401746171 -0.184695225616
11.4099699457 0.432736782154 0.861652111135 -0.343022426993 -0.089063246395 1.26168496897 0.855073845047 -0.24993439023 0.836844096915 -0.757693503176 -0.184743034241
11.4533148903 0.429122240321 0.864105651194 -0.341267381792 -0.0865417670436 1.26119100664 0.855612358868 -0.251485139017 0.837100142154 -0.756998649124 -0.184791062525
11.4940634224 0.425515166536 0.866548828496 -0.339505060733 -0.084012903349 1.26069241175 0.856151064184 -0.253033890271 0.83735490007 -0.756317409784 -0.184839499484
11.5327032743 0.421920278458 0.868980233389 -0.337735330456 -0.0814763653719 1.26018778795 0.856689819174 -0.254579521185 0.837607964648 -0.755649496677 -0.184888008596
11.5713098081 0.418328490068 0.871402807427 -0.335958550119 -0.0789326897542 1.25968014434 0.857228877246 -0.256124203438 0.837860118752 -0.754995386715 -0.184937115908
11.6122226957 0.414626947726 0.873759441906 -0.334182130195 -0.0764530618124 1.25915924446 0.857776886994 -0.257679250812 0.838121378914 -0.754287328488 -0.18499926857
11.6510972805 0.410937524818 0.876104529956 -0.332398430361 -0.0739656962271 1.25863263367 0.858324959 -0.25923130135 0.838380988456 -0.753592678908 -0.185061356552
11.6883768497 0.407255819293 0.878439486685 -0.330607622767 -0.071470852819 1.25810177258 0.858873206665 -0.260781403105 0.838639320554 -0.752911649701 -0.185123632952
11.7241256616 0.403581936823 0.880764348191 -0.32880973439 -0.0689685183215 1.25756671482 0.859421619958 -0.262329530523 0.838896364796 -0.752244207776 -0.185186056609
11.7587482284 0.399915982548 0.883079152361 -0.327004793682 -0.0664586804431 1.257027522 0.859970189317 -0.263875660105 0.839152112093 -0.7515903202 -0.185248585746
11.7940240791 0.396143505048 0.88532438826 -0.325199684514 -0.0640134156984 1.25647520956 0.860527577469 -0.265431998854 0.839416929752 -0.750882449388 -0.185324090148
11.8306118481 0.392383403362 0.88755845287 -0.323387512559 -0.0615603059258 1.25591771579 0.86108502998 -0.266985416166 0.83968012924 -0.750188001565 -0.185399276257
11.8686046089 0.388631263369 0.889782624035 -0.321568400186 -0.0590996269598 1.25535631297 0.861642647753 -0.268536932284 0.839942066462 -0.749507175507 -0.1854744533
11.9080550357 0.384887189762 0.891996940338 -0.319742373909 -0.0566313651058 1.25479104842 0.862200421372 -0.270086521207 0.840202731289 -0.748839938245 -0.185549584032
11.9494273485 0.381151286697 0.894201442084 -0.317909461591 -0.0541555075554 1.25422197631 0.862758341754 -0.271634158735 0.840462114662 -0.748186256796 -0.185624630758
11.9945801144 0.377310307788 0.896333336364 -0.316075912797 -0.0517448449529 1.25364042057 0.8633250066 -0.273192287081 0.840730705242 -0.747478670315 -0.185712730519
12.0428308912 0.373481952446 0.89845443719 -0.314235511381 -0.0493262270061 1.25305414838 0.863891740872 -0.274747563978 0.840997711686 -0.746784521591 -0.185800285754
12.0948312948 0.369661797576 0.900565886208 -0.312388332213 -0.0468999463755 1.25246426486 0.864458633354 -0.276300984817 0.841263473725 -0.746103998024 -0.185887654601
12.1428740548 0.365849946795 0.90266772449 -0.310534401352 -0.0444659889355 1.25187081182 0.865025675105 -0.277852523106 0.841527981332 -0.745437066766 -0.185974803143
12.1875855739 0.362046503171 0.904759994773 -0.308673746096 -0.0420243413706 1.25127383696 0.865592857393 -0.279402153929 0.841791225328 -0.744783694799 -0.186061697156
12.230728177 0.358140465002 0.906776415222 -0.306811987097 -0.0396484443796 1.25066473267 0.866168691749 -0.280962338082 0.842063743632 -0.744076424821 -0.186161657063
12.2717496611 0.354247288961 0.908782424435 -0.304943581093 -0.0372644813522 1.25005132468 0.866744603277 -0.282519736438 0.84233471336 -0.743382604892 -0.186260868926
12.310695649 0.350362546271 0.910779028772 -0.303068557415 -0.0348727623846 1.24943456792 0.867320669034 -0.284075321906 0.842604458967 -0.742702412198 -0.186359733904
12.3495560611 0.346486339364 0.912766271801 -0.301186941678 -0.0324732729302 1.24881449935 0.867896880437 -0.285629067473 0.842872970387 -0.742035813992 -0.186458220932
12.3903077327 0.342618770117 0.914744198693 -0.299298760641 -0.0300659991871 1.24819116099 0.868473229006 -0.2871809475 0.84314023819 -0.741382777221 -0.186556298765
12.434245694 0.338651189967 0.916643113249 -0.297409032619 -0.0277250136639 1.24755604247 0.869058143926 -0.288743443402 0.843416857198 -0.740675843947 -0.186667454018
12.4807328338 0.334696700856 0.918532003239 -0.29551285881 -0.0253758512566 1.24691698658 0.869643145718 -0.290303214896 0.843691963833 -0.739982370584 -0.186777677129
12.5304641945 0.330750871697 0.920411740626 -0.293610224845 -0.0230188400295 1.24627481312 0.870228300174 -0.291861214633 0.843965868266 -0.739302525153 -0.186887407264
12.584545355 0.326813803638 0.922282371469 -0.291701155908 -0.0206539650252 1.24562955473 0.870813598983 -0.293417415056 0.844238560271 -0.738636275003 -0.186996615816
12.6340546069 0.322885597256 0.92414394337 -0.289785678241 -0.0182812119746 1.24498124847 0.871399033843 -0.294971789803 0.844510030079 -0.737983587049 -0.187105274096
12.6813028088 0.318860063212 0.92592342361 -0.287868234095 -0.0159752668461 1.24432150668 0.871992955113 -0.296536842548 0.844790936423 -0.737276998113 -0.18722701925
12.7257351703 0.314847839055 0.927693270408 -0.285944541101 -0.0136610340376 1.24365815243 0.872586974347 -0.29809922811 0.84507036655 -0.736583876594 -0.187347664797
12.7679174708 0.310844494824 0.929454222216 -0.284014542929 -0.0113388600437 1.24299188373 0.873181146584 -0.299659880964 0.845348617394 -0.735904382303 -0.187467683634
12.8079624575 0.306850130282 0.931206327565 -0.282078264335 -0.00900872950614 1.24232272944 0.873775463722 -0.301218773 0.845625678482 -0.735238482681 -0.187587049274
12.847916426 0.302864844609 0.932949636481 -0.280135731067 -0.00667062770633 1.24165072219 0.874369917581 -0.302775877135 0.845901539628 -0.734586144624 -0.187705735239
12.8909046739 0.298785011242 0.934607860822 -0.278190835305 -0.00439983565703 1.24096761998 0.874972782921 -0.304343720622 0.846186929912 -0.733879894775 -0.18783751481
12.9363863653 0.294718696172 0.936256847233 -0.276239883455 -0.00212064537751 1.24028119317 0.875575758288 -0.3059089501 0.846470879556 -0.733187117589 -0.187968041574
12.9845581351 0.290661474045 0.937897201561 -0.274282778858 0.000166577808258 1.23959202985 0.876178888503 -0.307472483823 0.846753673327 -0.732507965532 -0.188097818506
13.0366030882 0.286613443152 0.939528974789 -0.27231954586 0.00246184965007 1.23890015555 0.87678216562 -0.309034293114 0.847035300438 -0.731842406138 -0.188226820954
13.0938620446 0.282574701182 0.941152219345 -0.270350209726 0.00476518529977 1.23820559895 0.877385581544 -0.310594350183 0.847315750232 -0.731190406292 -0.188355024355
13.1472772695 0.278444285238 0.942687475933 -0.268378138268 0.00700072716617 1.2375002844 0.877997338386 -0.312165206865 0.847605827992 -0.730484477242 -0.188496324843
13.196644005 0.274327585224 0.944213894384 -0.266400199372 0.00924477738596 1.23679189987 0.87860921797 -0.313733498778 0.847894499692 -0.72979202395 -0.188636231564
13.2425852445 0.270220183919 0.945731948873 -0.26441625761 0.0114969514648 1.23608093415 0.879221255437 -0.315300129786 0.848182039018 -0.729113192315 -0.18877527445
13.2857649731 0.266122178051 0.947241692806 -0.262426336922 0.013757265535 1.23536740976 0.879833442966 -0.31686507064 0.848468434812 -0.728447949967 -0.188913430448
13.3267538456 0.262033663732 0.948743180986 -0.260430462111 0.016025735167 1.23465135194 0.880445772523 -0.318428292849 0.848753675906 -0.727796263796 -0.189050676656
13.37033249 0.257856439847 0.950153870327 -0.25843150201 0.0182259446931 1.23392487006 0.88106637624 -0.320002373536 0.84904864908 -0.727090624186 -0.189201019734
13.4164381381 0.253693118451 0.951556125448 -0.256426859069 0.0204347721002 1.23319554293 0.881687115833 -0.321573934872 0.849342249457 -0.726398461391 -0.189349838592
13.4652685717 0.249539293997 0.952950289828 -0.254416360572 0.0226518134349 1.23246376949 0.882308017298 -0.323143868051 0.849634740719 -0.725719915443 -0.189497687456
13.5175005119 0.24539506157 0.954336419264 -0.252400030064 0.0248770852038 1.23172956961 0.882929072916 -0.32471214325 0.849926111296 -0.725054954072 -0.189644544662
13.5745109791 0.24126051562 0.9557145709 -0.250377891898 0.0271106033823 1.23099296542 0.883550274697 -0.326278731285 0.85021634948 -0.724403544188 -0.189790388759
13.6277438924 0.237040312061 0.956999208231 -0.248352341003 0.0292754127517 1.23024626842 0.884179687208 -0.327856234964 0.85051642829 -0.723698149642 -0.189949325447
13.6766995999 0.232834186196 0.958275819187 -0.246321287849 0.031448948778 1.2294969239 0.884809248983 -0.329431260995 0.850815165998 -0.723006231037 -0.190106616476
13.722711872 0.228637747724 0.959544617586 -0.244284523856 0.0336307878072 1.22874524946 0.885438977393 -0.331004689515 0.851112817349 -0.722327923173 -0.190262838086
13.765956488 0.224451090008 0.960805661575 -0.242242072179 0.0358209467126 1.2279912626 0.886068864805 -0.332576490127 0.851409370325 -0.721663193884 -0.190417969833
13.8070052203 0.220274305755 0.962059010601 -0.240193956736 0.0380194418626 1.22723498269 0.886698903264 -0.334146632963 0.851704812662 -0.721012010114 -0.190571991536
13.8505646332 0.216015000162 0.963216228028 -0.23814212329 0.0401487970244 1.22646893892 0.887337091947 -0.335727746625 0.852010207823 -0.720306803342 -0.190739097179
13.8961929383 0.211769935883 0.964365830628 -0.236084964182 0.0422869867231 1.22570042092 0.887975443423 -0.337306420708 0.852314291816 -0.719615069811 -0.190904443445
13.9445156926 0.207534741432 0.965507903653 -0.234022236324 0.0444335674051 1.22492967261 0.888613966936 -0.338883525827 0.852617311493 -0.718936939658 -0.191068626648
13.9962023674 0.203309508374 0.966642507554 -0.231953962492 0.0465885563033 1.22415670935 0.889252654931 -0.340459031007 0.852919254367 -0.718272380831 -0.191231627413
14.0524288602 0.199094327599 0.967769704043 -0.229880166182 0.0487519701686 1.22338154802 0.88989149949 -0.342032905706 0.853220107598 -0.717621360316 -0.191393426674
14.1048354275 0.194799842762 0.968798252458 -0.227802368385 0.0508458302925 1.22259694986 0.890538436336 -0.343617804133 0.85353102879 -0.716916271252 -0.191568296601
14.1615313732 0.190519751061 0.969819601043 -0.22571941755 0.0529486318044 1.22181002856 0.89118554958 -0.345200297494 0.853840666833 -0.716224650993 -0.191741300025
14.2246368071 0.186249703396 0.970833707648 -0.223631037397 0.0550599110904 1.22102096124 0.891832840807 -0.346781248327 0.854149261709 -0.715546625537 -0.191913051685
14.2977263876 0.181989789462 0.971840634983 -0.221537250327 0.057179685737 1.22022976134 0.892480302539 -0.348360625081 0.854456800445 -0.714882162947 -0.192083533151
14.3874424752 0.177740098261 0.972840446974 -0.219438079429 0.0593079728675 1.21943644351 0.893127926895 -0.349938396548 0.854763269615 -0.714231230265 -0.192252726338
14.5247039667 0.173414397906 0.973739197766 -0.217334644956 0.0613663098294 1.21863401427 0.893783587877 -0.351527242074 0.855079924155 -0.713526176213 -0.192434972077
14.6149062158 0.16910323053 0.974631166897 -0.215226226109 0.0634336938789 1.2178293927 0.894439438901 -0.353113713539 0.855395321529 -0.712834584879 -0.192615249785
14.687969372 0.164802272979 0.975516186055 -0.213112514675 0.0655096412164 1.21702269541 0.895095474336 -0.354698666788 0.855709695849 -0.712156578592 -0.192794191242
14.7520135282 0.160511613007 0.976394320157 -0.210993532698 0.067594169776 1.21621393408 0.895751686782 -0.356282069692 0.85602303364 -0.711492125537 -0.192971778848
14.8256731378 0.156231337664 0.977265635296 -0.208869302865 0.0696872970448 1.21540312133 0.896408068401 -0.357863890379 0.856335320881 -0.710841192819 -0.193147995385
14.9049816616 0.151878422258 0.978033581871 -0.206740568361 0.0717100949424 1.21458352126 0.897072433005 -0.359456832593 0.856657912558 -0.7101360786 -0.193337241342
14.9717484565 0.147540167539 0.978795167826 -0.204607014185 0.0737420443638 1.21376184113 0.897737001332 -0.361047428269 0.856979270916 -0.709444419421 -0.19352442246
15.0308146562 0.143212279842 0.979550100013 -0.202468301423 0.0757826412291 1.21293814269 0.89840176094 -0.36263652789 0.857299625169 -0.708766334384 -0.1937101864
15.0946204079 0.138894844915 0.980298445501 -0.200324451762 0.0778319038146 1.21211243603 0.89906670451 -0.364224098742 0.85761896133 -0.708101791797 -0.193894516298
15.1677770851 0.134587947789 0.981040272491 -0.198175487506 0.0798898499639 1.21128473193 0.89973182426 -0.365810108299 0.85793726478 -0.707450758838 -0.194077395705
15.2472148169 0.130211850363 0.981676531603 -0.196021798055 0.0818771046623 1.21044856352 0.900404875166 -0.367407283677 0.858265992808 -0.706745476911 -0.194273276217
15.3142151758 0.125850529071 0.9823068537 -0.193863449672 0.083873613955 1.20961041026 0.901078143525 -0.369002136566 0.858593509134 -0.706053640804 -0.194466999021
15.3735941575 0.121499723245 0.982930822198 -0.191700073931 0.0858788534148 1.2087702842 0.901751610458 -0.370595513365 0.858920039035 -0.705375366804 -0.1946592267
15.436472589 0.117159516571 0.983548506263 -0.189531692173 0.087892841656 1.207928194 0.902425268742 -0.372187380775 0.859245567998 -0.704710623345 -0.194849943043
15.5087429338 0.112829991999 0.984159976151 -0.18735832633 0.0899155968714 1.20708414874 0.903099110655 -0.373777705615 0.859570080803 -0.704059377678 -0.19503913228
15.5882872364 0.10843477399 0.984663789065 -0.185180034911 0.0918673155785 1.20623196134 0.903780833524 -0.375379237086 0.859905138855 -0.703353808235 -0.195241288992
15.6554801586 0.104054435192 0.985162090804 -0.182997241334 0.0938283904912 1.2053778685 0.904462787665 -0.376978466616 0.860239004513 -0.70266167388 -0.195441198351
15.7151167837 0.0996847514191 0.985654342843 -0.180809548815 0.0957982767935 1.20452183737 0.905144948101 -0.37857623777 0.86057190005 -0.701983088475 -0.195639537094
15.7770224133 0.0953258042317 0.986140616381 -0.178616978362 0.0977769934332 1.20366387524 0.905827307709 -0.380172516659 0.860903810424 -0.701318020577 -0.195836289588
15.8477117209 0.0909776744418 0.986620983674 -0.176419551547 0.099764558947 1.20280398967 0.906509858845 -0.381767269446 0.861234719805 -0.700666437516 -0.196031440668
15.9273398232 0.086567421552 0.98699171716 -0.17421701848 0.101680759817 1.20193628351 0.907200242222 -0.38337326586 0.861576295107 -0.699960448536 -0.196239520147
15.9946840657 0.0821721384978 0.987357367214 -0.172010136055 0.10360641696 1.20106673664 0.907890870828 -0.384976977333 0.861916694927 -0.699267882404 -0.196445265203
16.0545228653 0.0777876410175 0.987717274944 -0.169798480259 0.105540965153 1.2001952757 0.90858171389 -0.386579245817 0.862256139463 -0.698588850937 -0.196649366129
16.1091002829 0.0734140084898 0.988071513527 -0.167582071776 0.107484423672 1.19932190675 0.909272764399 -0.388180036826 0.86259461313 -0.697923322813 -0.196851807806
16.1595778761 0.069051319534 0.988420157151 -0.165360931829 0.109436811393 1.19844663589 0.909964014802 -0.389779315867 0.862932099485 -0.697271265441 -0.197052575602
16.213855343 0.0646301376079 0.988657304328 -0.163134524217 0.11131752316 1.19756386553 0.910663050094 -0.391389871375 0.863280371936 -0.696564712682 -0.197266227154
16.2728045552 0.0602240036289 0.988889797371 -0.160903916066 0.113207789647 1.19667930551 0.911362344775 -0.392998155306 0.863627483334 -0.69587156901 -0.197477459188
16.3384095207 0.0558287766546 0.989116858695 -0.158668657236 0.115107025223 1.195792846 0.912061862545 -0.394605009218 0.863973652715 -0.695191944569 -0.197686975111
16.4145158904 0.0514445338294 0.989338563386 -0.156428768094 0.117015249493 1.19490449191 0.912761596518 -0.396210398015 0.864318863945 -0.694525808156 -0.197894760256
16.5094096723 0.0470713515271 0.989554987505 -0.154184269532 0.118932481665 1.194014248 0.913461539247 -0.39781428654 0.864663099962 -0.693873127253 -0.198100800466
16.6072412455 0.0426433624472 0.989658168526 -0.1519343607 0.1207777433 1.19311682539 0.914169220784 -0.399429479861 0.865018241261 -0.693165854185 -0.198319674107
16.6892674299 0.0382304868724 0.989757125927 -0.149680396163 0.122632656414 1.19221765128 0.914877176151 -0.401042411217 0.86537223335 -0.692471974879 -0.198536044541
16.7580331873 0.0338286305223 0.989850965177 -0.147421900726 0.124496614987 1.19131658321 0.915585363748 -0.402653922985 0.865725295022 -0.691791598188 -0.198750627997
16.8326219155 0.0294378682565 0.989939763209 -0.145158894455 0.126369638946 1.19041362495 0.916293776828 -0.404263979452 0.866077409578 -0.691124693015 -0.19896341021
16.9251585941 0.0250582741541 0.990023597892 -0.142891397919 0.128251747831 1.18950878004 0.917002408065 -0.405872544786 0.866428559328 -0.690471226912 -0.199174377439
17.0702353471 0.0206276117552 0.9899925605 -0.140618366862 0.130061608231 1.18859707708 0.917718733226 -0.407492438347 0.866790732084 -0.689763064572 -0.199398121969
17.1630297883 0.0162121158437 0.98995773086 -0.138341420943 0.13188121512 1.18768364862 0.918435347028 -0.40911007565 0.867151764772 -0.689068279037 -0.199619280467
17.2375407554 0.0118077420876 0.989918099342 -0.136060060964 0.13370994212 1.18676832308 0.919152202758 -0.410726301121 0.867511876858 -0.688386978258 -0.19983858184
17.3018155398 0.00741456301279 0.989873744658 -0.1337743067 0.135547809482 1.18585110323 0.919869293825 -0.412341078411 0.867871051069 -0.687719131236 -0.200056012169
17.3592855497 0.00303265035685 0.98982474642 -0.131484178414 0.137394837068 1.18493199139 0.920586613039 -0.413954371003 0.868229269076 -0.687064705583 -0.200271558081
17.412399657 -0.00139654364225 0.989659366357 -0.129188409251 0.13916935477 1.18400634213 0.921311582443 -0.415579009954 0.868598625875 -0.68635547234 -0.200499819235
17.4702903317 -0.00581053075141 0.989490625927 -0.126888862075 0.140953712165 1.18307898177 0.922036855761 -0.417201394254 0.868966848908 -0.68565959721 -0.200725411866
17.5347130125 -0.0102133021308 0.989317402331 -0.124585014714 0.142747262568 1.18214971303 0.922762381327 -0.41882237163 0.869334159247 -0.684977187659 -0.200949077556
17.6085754021 -0.0146047876336 0.989139775993 -0.122276886668 0.144550026547 1.18121853766 0.923488152715 -0.420441905084 0.869700539029 -0.68430821277 -0.201170802686
17.6994971015 -0.0189849179091 0.9889578282 -0.119964497907 0.146362024288 1.18028545686 0.92421416289 -0.422059957392 0.870065969271 -0.683652640203 -0.201390574199
17.8365562534 -0.0234084979572 0.98865810949 -0.117646379343 0.148101267204 1.17934615933 0.924947780638 -0.423689368459 0.870442651683 -0.682942141414 -0.201622992829
17.9277723051 -0.0278168432802 0.988355462456 -0.115324615624 0.149850441165 1.17840515401 0.92568171815 -0.425316522142 0.870818203627 -0.68224498018 -0.201852660254
18.0015498546 -0.0322138887097 0.988048653141 -0.112998662612 0.151608879239 1.17746222111 0.926415918913 -0.426942270767 0.871192848734 -0.681561263927 -0.202080330871
18.0650870453 -0.0365995665223 0.98773776361 -0.110668539544 0.153376602306 1.17651736141 0.927150376684 -0.428566576658 0.871566568534 -0.680890961803 -0.202305991316
18.1218884554 -0.0409738097963 0.987422876761 -0.10833426611 0.155153630876 1.17557057504 0.927885084601 -0.43018940187 0.871939343367 -0.680234041493 -0.202529628799
18.1742941529 -0.0453876305454 0.986988951873 -0.105994190921 0.156857676057 1.17461789277 0.928627358582 -0.431823592045 0.872323480868 -0.679522069049 -0.202765839051
18.22300501 -0.049786201274 0.986552530517 -0.103650599445 0.158571741745 1.17366349531 0.929369968868 -0.433455517474 0.872706487996 -0.678823411561 -0.202999214698
18.2687741765 -0.0541733974007 0.986112269671 -0.10130292657 0.160295140822 1.17270714343 0.930112854168 -0.43508603643 0.873088591928 -0.678138176905 -0.203230523236
18.3122084145 -0.058549153667 0.985668252975 -0.0989511912819 0.162027894486 1.171748837 0.930856008444 -0.436715110536 0.873469773562 -0.67746633427 -0.20345975151
18.3534259519 -0.0629134056205 0.985220564868 -0.09659541301 0.163770023562 1.17078857508 0.931599425017 -0.438342701093 0.87385001254 -0.676807851348 -0.203686886947
18.3933589145 -0.0673133259469 0.984652694753 -0.0942337775359 0.165438956986 1.16982273829 0.932350367259 -0.439981656129 0.874241721322 -0.676094183069 -0.20392651441
18.4316006763 -0.071697993457 0.984082759497 -0.0918687506648 0.167117998448 1.16885516852 0.933101663168 -0.441618334079 0.874632296383 -0.675393804895 -0.204163222604
18.468620914 -0.0760712211464 0.983509309187 -0.0894997472786 0.168806440726 1.16788561005 0.933853246703 -0.443253600588 0.875021969481 -0.674706825692 -0.20439779256
18.5044578836 -0.0804329462614 0.982932428967 -0.087126786128 0.170504305329 1.16691406187 0.934605112042 -0.444887416545 0.875410720852 -0.674033214663 -0.204630211285
18.53914867 -0.0847831068581 0.982352204748 -0.084749886396 0.172211613397 1.165940522 0.935357252711 -0.446519742465 0.87579852941 -0.673372939475 -0.204860466376
18.5727289675 -0.0891649938715 0.981650778767 -0.0823670900621 0.173845529776 1.16496172855 0.936116879794 -0.44816342515 0.876197911045 -0.672657338361 -0.205103126149
18.605533087 -0.0935316377206 0.980947718106 -0.079981023256 0.175489639766 1.16398117409 0.936876878865 -0.449804813023 0.876596151889 -0.671954999981 -0.205342780158
18.6376061798 -0.0978867860462 0.98024146821 -0.0775910818039 0.177143216123 1.1629985894 0.937637179114 -0.451444780612 0.876993489364 -0.671266034801 -0.205580223562
18.6689638793 -0.102230378638 0.979532115656 -0.0751972842375 0.178806280664 1.16201397256 0.938397774954 -0.453083288037 0.877389903014 -0.670590412006 -0.205815443482
18.6996215087 -0.106562356098 0.978819747757 -0.0727996495096 0.180478854844 1.16102732057 0.939158660132 -0.454720294986 0.877785370984 -0.669928099202 -0.206048427632
18.7298676183 -0.110922089142 0.977985283498 -0.0703960943678 0.182077857455 1.16003573657 0.93992699365 -0.456368643174 0.878192510928 -0.669210312483 -0.206293722287
18.7594142432 -0.115266601059 0.977149613824 -0.0679893857326 0.183687137266 1.15904235347 0.940695718587 -0.458014672951 0.878598498944 -0.668505758293 -0.206535922249
18.7891770556 -0.119599571287 0.976311081859 -0.0655789013069 0.1853059471 1.15804689141 0.9414647593 -0.459659269359 0.879003579283 -0.667814549384 -0.206775837564
18.8194568228 -0.123920942194 0.975469775542 -0.0631646594199 0.186934309079 1.15704934755 0.942234110451 -0.4613023917 0.879407730751 -0.667136654881 -0.207013455418
18.850261899 -0.128230656964 0.974625783521 -0.0607466788115 0.18857224497 1.15604971793 0.943003766024 -0.462943998787 0.879810930679 -0.666472042291 -0.207248763584
18.8818594012 -0.13256413161 0.973658926509 -0.0583227691091 0.190136445505 1.15504547814 0.943780833107 -0.464596923139 0.880225896559 -0.665751800276 -0.207496280972
18.9139790546 -0.136882419485 0.972691291831 -0.0558958189719 0.191711004826 1.15403939112 0.944558312318 -0.466247499044 0.880639694899 -0.665044757365 -0.207740611649
18.9466564597 -0.141189129054 0.971721122677 -0.0534651888935 0.193295155912 1.15303116925 0.945336123058 -0.467896623818 0.881052578035 -0.664351029383 -0.207982581497
18.9799006408 -0.145484205303 0.970748508279 -0.0510308970173 0.19488892119 1.15202080882 0.946114260255 -0.469544255893 0.88146452398 -0.663670585346 -0.208222177708
19.0144005318 -0.149767594031 0.969773538545 -0.048592961889 0.196492322735 1.15100830482 0.946892718152 -0.471190353149 0.8818755092 -0.663003392609 -0.208459388058
19.050109642 -0.154070726074 0.968675061855 -0.0461491036676 0.198021841172 1.14999151278 0.947678552046 -0.472847734548 0.882298348848 -0.662280407277 -0.208708698914
19.0867713281 -0.158358717945 0.967576233417 -0.0437023141824 0.199561797958 1.14897281531 0.948464820236 -0.474502730366 0.882720000389 -0.66157058395 -0.208954727243
19.1244416681 -0.162635104455 0.966475198943 -0.0412519376127 0.201111406327 1.14795191995 0.949251436985 -0.476156252114 0.883140725599 -0.660874042422 -0.209198315907
19.1635347139 -0.166899833243 0.965372048882 -0.0387979919351 0.202670689005 1.14692882207 0.950038397511 -0.477808257291 0.883560501644 -0.660190751546 -0.209439452044
19.2041034022 -0.171152852759 0.964266874339 -0.0363404955194 0.204239668372 1.14590351566 0.950825696327 -0.479458702773 0.88397930405 -0.659520678462 -0.209678123363
19.2468990006 -0.175421582217 0.963037678103 -0.0338770962471 0.205734632856 1.14487424356 0.951620337044 -0.481120389366 0.884410043241 -0.658794641763 -0.209928778664
19.2917186942 -0.179675230268 0.961808553909 -0.0314108710345 0.207240113222 1.14384299767 0.952415435877 -0.482779645367 0.884839568218 -0.658081725752 -0.210176051031
19.3391656998 -0.183917255479 0.960577552499 -0.0289411486238 0.208755303049 1.14280948361 0.953210901715 -0.484437398602 0.885268151699 -0.657382055228 -0.210420801681
19.3898953381 -0.188147608173 0.959344765471 -0.0264679468435 0.210280225361 1.14177369584 0.954006730079 -0.48609360556 0.885695769923 -0.656695598808 -0.210663017623
19.4446760604 -0.192366239484 0.958110285051 -0.0239912839075 0.21181490284 1.14073562732 0.954802915776 -0.487748222034 0.886122397397 -0.656022323351 -0.210902686426
19.5053553622 -0.196596534611 0.956751395881 -0.0215087521486 0.213275449588 1.13969391567 0.955606410806 -0.489414025824 0.886561037214 -0.655292905161 -0.21115421443
19.5744256961 -0.200811819191 0.955393000124 -0.0190234959748 0.214746587709 1.13865015148 0.956410389641 -0.491077345232 0.88699843048 -0.654576561481 -0.211402253624
19.6570518826 -0.205015473036 0.954033056116 -0.0165348295483 0.216227491221 1.13760404151 0.957214755488 -0.492739126744 0.887434862515 -0.653873423307 -0.211647685193
19.7573349407 -0.209207449189 0.95267165653 -0.0140427705702 0.217718183441 1.13655557931 0.95801950419 -0.494399325753 0.887870308542 -0.653183458944 -0.211890495944
20.0 -0.213387701504 0.951308894645 -0.0115473371196 0.219218687352 1.13550475675 0.958824630864 -0.496057896868 0.888304741949 -0.652506634877 -0.212130673215
