liuchen18/hilsys_new/sim_sys/data/fwx_planned_trajectory_he.txt
this is the FWX joint values,the following info is time,x,y,theta,joint1,joint2,joint3,joint4,joint5,joint6,joint7
0.0 2.48165326908 0.0163172000038 -8.64672984192 -0.858234560222 -1.21895244419 0.0546296573504 -1.88107712331 0.0773277128007 0.907327423832 -0.466566525022
0.0833731420329 2.47713946788 0.0163200184661 -8.64679963822 -0.858304356519 -1.2174575368 0.0548134397443 -1.88195998614 0.0774703180118 0.904942225807 -0.466610839326
0.148058735161 2.47262556411 0.0163227353997 -8.64686939419 -0.858374112494 -1.21595797282 0.0549974324311 -1.88283705287 0.0776127246313 0.902558168043 -0.4666552863
0.203301724849 2.46811155579 0.0163253511218 -8.64693911008 -0.858443828384 -1.21445376767 0.0551816343993 -1.88370832147 0.0777549293957 0.900175266282 -0.466699865247
0.252122946956 2.46359744214 0.0163278658076 -8.64700878563 -0.858513503934 -1.21294493533 0.0553660442844 -1.88457379007 0.0778969298274 0.897793537895 -0.466744574811
0.296763187261 2.45908322207 0.0163302797924 -8.64707842114 -0.858583139443 -1.21143149083 0.0555506609948 -1.88543345629 0.0780387225713 0.895412999026 -0.466789414331
0.332455553486 2.45521348766 0.0163327707113 -8.64713781568 -0.858642533977 -1.21013204786 0.0557088515847 -1.88616816409 0.0781602586286 0.893373205975 -0.466827838158
0.36574732668 2.45134365343 0.0163351249891 -8.647197207 -0.858701925304 -1.20882748513 0.0558671064763 -1.88689651691 0.0782816086253 0.891334653563 -0.466866395538
0.397423975398 2.44747373748 0.0163374255511 -8.6472564552 -0.858761173499 -1.20751955563 0.0560256966021 -1.88762058844 0.0784027738821 0.889297019066 -0.466905222027
0.427865227646 2.44360374327 0.016339633582 -8.64731578593 -0.858820504232 -1.20620827867 0.0561842491238 -1.88834040186 0.0785238042397 0.887260291757 -0.466943968812
0.457119284583 2.43973366812 0.0163417686245 -8.64737508648 -0.858879804783 -1.20489365835 0.0563429495529 -1.88905594429 0.0786446721934 0.885224492092 -0.466982809145
0.485513602892 2.43586350853 0.0163438583615 -8.64743420155 -0.858938919855 -1.20357569676 0.0565020539102 -1.88976719827 0.0787653375652 0.88318964455 -0.46702198369
0.513073410458 2.43199327017 0.0163458481705 -8.6474934418 -0.858998160103 -1.20225441696 0.0566610471301 -1.89047419598 0.078885874774 0.881155730243 -0.46706100985
0.539823110451 2.42812297067 0.0163478314696 -8.64755262315 -0.85905734145 -1.20093163427 0.0568202773835 -1.89117912035 0.079006275833 0.879122380647 -0.467100088168
0.565786801969 2.4242525673 0.0163496798286 -8.64761180188 -0.859116520176 -1.1996038236 0.0569795652308 -1.89187767983 0.079126477066 0.877090373672 -0.46713929519
0.59123946568 2.420382079 0.0163514788792 -8.64767082502 -0.85917554332 -1.19827270907 0.0571392060867 -1.89257195045 0.0792464727892 0.875059356159 -0.467178789573
0.616191131625 2.41651150982 0.0163531832231 -8.64772994399 -0.859234662287 -1.19693831129 0.0572987804826 -1.89326195897 0.0793663287317 0.873029313441 -0.467218177411
0.640651694867 2.41264085482 0.0163548362725 -8.64778892162 -0.859293639924 -1.19560062843 0.0574586837685 -1.89394767923 0.0794859778475 0.871000278025 -0.467257830372
0.664630793857 2.40877011804 0.016356397147 -8.64784798119 -0.859352699487 -1.19425967972 0.0576185416584 -1.89462913485 0.0796054812813 0.868972237836 -0.467297396535
0.688137935035 2.4048992949 0.0163579071592 -8.64790690039 -0.859411618693 -1.19291546396 0.0577787260058 -1.89530630121 0.0797247732341 0.866945224083 -0.467337226017
0.711182259947 2.40102841003 0.0163593872853 -8.64796587324 -0.859470591539 -1.19156969575 0.0579389523954 -1.89598129675 0.0798439480103 0.864918819557 -0.467376931017
0.733773141535 2.39715741861 0.0163607341289 -8.64802484429 -0.859529562592 -1.19021899117 0.0580992296231 -1.89664992094 0.0799629093025 0.862893856009 -0.467416759974
0.756140850988 2.39328634084 0.0163620292851 -8.64808368493 -0.859588403226 -1.1888650467 0.0582598159437 -1.8973142553 0.080081654271 0.860869946667 -0.46745683686
0.778287573197 2.38941517988 0.0163632342275 -8.64814259755 -0.859647315852 -1.18750788078 0.0584203686038 -1.89797432213 0.0802002449033 0.858847080062 -0.467496838158
0.800215504924 2.38554393363 0.0163643683457 -8.64820148117 -0.859706199469 -1.18614749758 0.0585810580119 -1.8986301101 0.0803186476482 0.856825275574 -0.467536924555
0.821926822163 2.38167259925 0.0163654594977 -8.64826019466 -0.859764912958 -1.18478389933 0.0587421231228 -1.89928160332 0.0804368132276 0.854804556786 -0.467577322927
0.843423635642 2.37780118199 0.0163664526429 -8.64831902054 -0.859823738837 -1.18341710813 0.0589030829793 -1.89992883301 0.0805548343954 0.852784903743 -0.467617578308
0.864707967093 2.37392970001 0.0163674369497 -8.64837778987 -0.85988250817 -1.18204879278 0.0590642664727 -1.90057388008 0.080672694285 0.85076590412 -0.467657880505
0.885782148255 2.37005811006 0.0163682895693 -8.64843655846 -0.859941276764 -1.18067563208 0.0592254939938 -1.9012125525 0.0807903271642 0.848748440138 -0.467698302046
0.906648147462 2.36618643253 0.0163690959306 -8.64849518062 -0.859999898918 -1.17929929257 0.0593870563655 -1.90184693189 0.0809077201643 0.846732095932 -0.467738998252
0.92730799831 2.36231467134 0.0163698086732 -8.64855389254 -0.860058610845 -1.17791979431 0.0595485478616 -1.90247704519 0.0810249571385 0.844716854993 -0.467779584114
0.947763759615 2.35844282224 0.0163704730674 -8.6486124715 -0.860117189804 -1.17653713539 0.0597103510698 -1.9031028673 0.08114195383 0.842702749767 -0.467820423321
0.968017429373 2.35457088917 0.0163710464139 -8.64867112737 -0.860175845668 -1.17515133454 0.0598721033711 -1.9037244221 0.0812587878103 0.840689766402 -0.4678611712
0.988071023383 2.35069886819 0.0163715718583 -8.64872965113 -0.860234369427 -1.17376239044 0.0600341654185 -1.90434168593 0.0813753767929 0.838677936063 -0.467902171258
1.00792638835 2.34682678436 0.0163720673183 -8.64878822342 -0.860292941718 -1.17237195912 0.0601962656555 -1.9049567808 0.0814918335405 0.836666778269 -0.467943042932
1.0275857151 2.34295459234 0.0163724326071 -8.64884679624 -0.860351514539 -1.17097677256 0.0603584030415 -1.90556550041 0.0816080498946 0.834657247193 -0.467984029499
1.04705082363 2.33908231504 0.0163727287715 -8.64890534175 -0.860410060052 -1.16957847364 0.0605206672477 -1.90616994124 0.0817240568529 0.832648883534 -0.468025094426
1.06632364668 2.33520994943 0.0163729859181 -8.64896372038 -0.860468438686 -1.16817706409 0.0606833017978 -1.90677008775 0.0818397932824 0.830641710977 -0.468066471377
1.08540606061 2.3313375008 0.016373144361 -8.64902221176 -0.860526930064 -1.1667725661 0.0608458166478 -1.90736597265 0.0819553758053 0.828635706389 -0.468107691908
1.10429995664 2.32746496667 0.0163732339841 -8.64908067638 -0.860585394679 -1.1653649814 0.0610084558837 -1.90795758008 0.0820707436569 0.826630893704 -0.468148989182
1.1228219876 2.32359234476 0.0163732840386 -8.64913898217 -0.860643700471 -1.16395431191 0.0611714518508 -1.9085448949 0.0821858355445 0.824627296256 -0.468190586971
1.14134431375 2.31971966106 0.0163732970579 -8.6491973654 -0.860702083697 -1.16254218718 0.0613344282392 -1.90913004736 0.0823008021445 0.822624395231 -0.468232001195
1.15986715311 2.31584687016 0.0163731813264 -8.64925575062 -0.860760468926 -1.16112539614 0.0614974348188 -1.90970882621 0.0824155151209 0.820623208555 -0.46827352605
1.17839039593 2.31197399496 0.0163729973235 -8.64931410982 -0.860818828126 -1.15970555213 0.0616605623195 -1.91028332898 0.0825300063534 0.818623246348 -0.468315125588
1.19691405407 2.30810103269 0.0163727757837 -8.64937230814 -0.86087702644 -1.15828265672 0.0618240509682 -1.91085354039 0.082644208747 0.816624532227 -0.468357032068
1.21543810528 2.30422798853 0.0163724557242 -8.64943061585 -0.860935334156 -1.15685673177 0.061987417276 -1.91141949318 0.0827582509187 0.814627041923 -0.468398779927
1.23396255847 2.30035486023 0.0163720676616 -8.64948889817 -0.860993616467 -1.15542777884 0.0621509020176 -1.91198117181 0.0828720661301 0.812630799311 -0.468440600946
1.25248742253 2.29648164579 0.016371641436 -8.6495470276 -0.8610517459 -1.15399579969 0.0623147344079 -1.91253856139 0.0829855873307 0.810635827662 -0.468482717638
1.2710125788 2.29260837071 0.0163711778163 -8.64960523111 -0.861109949409 -1.1525623941 0.0624785454106 -1.91309379253 0.0830989776257 0.808641577261 -0.468524649067
1.28953823643 2.28873499053 0.0163705867549 -8.64966343829 -0.861168156588 -1.15112440968 0.0626423795542 -1.91364265357 0.0832121012288 0.806649125559 -0.468566687075
1.30806428712 2.28486152794 0.0163699281792 -8.64972162091 -0.861226339206 -1.14968343013 0.0628063286001 -1.91418724259 0.0833249908835 0.804657952481 -0.468608796308
1.32659074573 2.28098798043 0.0163692334093 -8.64977964903 -0.861284367331 -1.14823945681 0.0629706294176 -1.91472754456 0.0834375734792 0.802668081613 -0.46865120771
1.34511758554 2.27711435301 0.0163684402445 -8.64983778319 -0.861342501487 -1.14679251128 0.0631348051914 -1.91526359219 0.0835499897383 0.800679487546 -0.468693458427
1.36364481842 2.27324064371 0.016367579793 -8.64989589348 -0.861400611783 -1.14534259487 0.0632990933233 -1.91579537017 0.0836621668949 0.798692194133 -0.468735778945
1.38217245031 2.26936685077 0.016366682454 -8.64995385717 -0.861458575475 -1.14388970915 0.0634637199305 -1.91632286389 0.0837740320592 0.796706224631 -0.468778390701
1.40070036254 2.26549299899 0.0163657473086 -8.65001189161 -0.861516609913 -1.14243542412 0.0636283231569 -1.91684820386 0.0838857609111 0.794720998742 -0.468820815554
1.41922876426 2.2616190453 0.0163646859053 -8.65006993157 -0.861574649866 -1.14097664607 0.063792942368 -1.91736717871 0.0839972101721 0.792737652813 -0.468863343166
1.4377575457 2.25774501193 0.0163635576378 -8.6501279486 -0.861632666901 -1.13951492904 0.0639576703331 -1.91788188666 0.0841084134308 0.790755636936 -0.468905938781
1.45628671874 2.25387089665 0.0163623944117 -8.65018581775 -0.861690536047 -1.13805027416 0.0641227408313 -1.91839231287 0.0842192913967 0.788774974732 -0.468948832452
1.47481626111 2.24999670428 0.016361132805 -8.65024378969 -0.861748507987 -1.13658270263 0.0642876831825 -1.91889849 0.0843299972292 0.7867956396 -0.468991563195
1.49334618024 2.24612243312 0.0163598045166 -8.65030173948 -0.86180645778 -1.13511221559 0.0644527316821 -1.91940040295 0.0844404519708 0.784817655436 -0.469034360625
1.51187648354 2.24224808167 0.0163584404369 -8.65035954941 -0.861864267713 -1.13363881439 0.0646181091112 -1.91989803733 0.0845505768948 0.782841045513 -0.469077445024
1.53040705681 2.23837367378 0.0163570381145 -8.65041742662 -0.861922144921 -1.13216403928 0.0647834612499 -1.92039352321 0.0846605602339 0.780865199283 -0.469120341211
1.54893809731 2.23449916819 0.0163555105797 -8.65047531136 -0.861980029658 -1.13068485509 0.0649488220975 -1.92088265002 0.0847702512589 0.778891311398 -0.469163336587
1.56746950122 2.23062458646 0.0163539167142 -8.65053317498 -0.86203789328 -1.12920278625 0.0651142854114 -1.9213675158 0.0848796843848 0.776918802453 -0.469206396999
1.58600127892 2.22674992665 0.0163522889247 -8.65059089782 -0.862095616122 -1.12771783364 0.0652800815511 -1.92184810592 0.0849887741767 0.774947696132 -0.469249751445
1.60453340964 2.22287519334 0.0163505627323 -8.65064872003 -0.862153438332 -1.12623001812 0.0654457466276 -1.92232445286 0.0850976861629 0.772977964672 -0.469292941141
1.62306589635 2.21900038514 0.0163487703431 -8.65070652196 -0.862211240261 -1.1247393406 0.0656115114991 -1.92279654173 0.085206335229 0.77100963204 -0.469336194673
1.64159874944 2.21512550078 0.0163469431489 -8.65076419089 -0.862268909187 -1.12324580217 0.0657775959814 -1.9232643583 0.0853146366219 0.769042721602 -0.469379731684
1.66013185617 2.21125056298 0.0163450771668 -8.6508219238 -0.862326642105 -1.12175091346 0.0659436527292 -1.92373003203 0.0854227914891 0.767076592775 -0.46942307892
1.67866540641 2.20737553263 0.0163430868673 -8.65087966641 -0.862384384715 -1.12025169763 0.0661097107769 -1.92418935341 0.0855306415 0.765112498027 -0.469466522043
1.69719930077 2.20350043047 0.016341030645 -8.65093738986 -0.862442108159 -1.11874964956 0.0662758648536 -1.92464442011 0.0856382218776 0.76314982877 -0.469510027504
1.71573354519 2.19962525479 0.0163389413993 -8.6509949798 -0.862499698101 -1.11724476988 0.0664423421546 -1.92509521765 0.0857454408897 0.761188608825 -0.46955382366
1.73426812187 2.19575000999 0.0163367536077 -8.6510526658 -0.862557384101 -1.11573707911 0.0666086850667 -1.92554177833 0.0858524767408 0.759228809205 -0.469597453107
1.75280303377 2.19187469491 0.0163344999753 -8.65111033353 -0.862615051826 -1.1142265779 0.0667751212664 -1.92598408741 0.0859592380074 0.757270454025 -0.469641143812
1.77133828535 2.18799930857 0.0163322123038 -8.65116787556 -0.86267259386 -1.11271326712 0.0669418672662 -1.92642213079 0.086065633979 0.755313566773 -0.469685114599
1.78987377722 2.1841238723 0.0163298852865 -8.65122547811 -0.862730196413 -1.11119862787 0.0671085832562 -1.92685803716 0.0861718785624 0.753357477111 -0.469728894507
1.80840968293 2.18024834957 0.0163274346852 -8.65128309266 -0.862787810959 -1.10967974132 0.0672752929901 -1.92728759822 0.0862778059332 0.751403494861 -0.469772767285
1.82694590755 2.17637276006 0.0163249184355 -8.65134069012 -0.862845408418 -1.10815807299 0.0674420921554 -1.92771291117 0.0863834521035 0.749450982526 -0.469816699984
1.84548245849 2.17249710234 0.0163223698449 -8.65139816174 -0.862902880045 -1.10663362322 0.067609204529 -1.92813396163 0.0864887190972 0.747499964101 -0.469860920224
1.86401931499 2.16862138055 0.0163197225128 -8.65145572598 -0.862960444278 -1.1051064122 0.067776179279 -1.92855078167 0.0865937976908 0.745550409398 -0.46990497218
1.88255648298 2.16474559379 0.016317009559 -8.65151327406 -0.863017992365 -1.10357644032 0.0679432406444 -1.92896335665 0.0866985902045 0.743602342714 -0.469949083104
1.90109396544 2.16086974137 0.0163142631878 -8.65157070388 -0.863075422184 -1.10204370816 0.0681106021091 -1.92937167259 0.0868029998209 0.74165578774 -0.469993471428
1.91963166742 2.15699384306 0.0163114768117 -8.65162819087 -0.863132909171 -1.10050966759 0.0682779308366 -1.92977785735 0.0869072534869 0.739710044527 -0.470037667631
1.93816974912 2.1531178652 0.0163085674139 -8.65168569227 -0.863190410571 -1.09897145733 0.0684452455911 -1.93017770385 0.087011177774 0.737766479916 -0.470081953982
1.95670812303 2.14924182628 0.0163055925011 -8.65174317878 -0.863247897077 -1.09743051371 0.0686126430088 -1.93057330872 0.0871148094648 0.73582442774 -0.470126298132
1.97524679509 2.14536572511 0.0163025857868 -8.6518005472 -0.863305265496 -1.09588683681 0.0687803437789 -1.93096465769 0.0872180441611 0.733883912257 -0.470170927455
1.993785746 2.14148956558 0.0162994799938 -8.65185800491 -0.863362723213 -1.09434044648 0.0689479031847 -1.93135178254 0.0873210855686 0.731944901997 -0.470215386726
2.01232497874 2.13761334707 0.0162963086545 -8.65191544872 -0.863420167018 -1.09279134285 0.0691155423583 -1.93173466872 0.0874238295737 0.730007421529 -0.470259902973
2.03086449479 2.13373706912 0.0162931042737 -8.65197278205 -0.863477500353 -1.09123952622 0.0692834714138 -1.93211330236 0.0875261733774 0.728071494781 -0.470304694035
2.04940421109 2.12986074979 0.016289859218 -8.65203016903 -0.863534887328 -1.08968641944 0.0694513651622 -1.93248981046 0.0876283566989 0.72613639239 -0.470349292233
2.06794426854 2.12598435864 0.0162864915227 -8.65208757294 -0.86359229124 -1.0881292183 0.069619237046 -1.93285998698 0.0877301986684 0.724203537919 -0.470393978165
2.08648459002 2.12210791274 0.0162830582982 -8.65214496424 -0.863649682544 -1.08656933021 0.0697871846433 -1.93322592808 0.0878317368208 0.722272236729 -0.470438720078
2.10502517701 2.1182314112 0.0162795936231 -8.65220224538 -0.863706963678 -1.08500675494 0.0699554256303 -1.93358761952 0.0879328602666 0.720342513413 -0.470483745332
2.12356601171 2.1143548576 0.0162760294234 -8.65225961251 -0.863764330814 -1.08344151205 0.0701235212521 -1.93394509278 0.08803378578 0.718414335174 -0.470528598841
2.14210709857 2.1104782516 0.0162723996033 -8.65231696806 -0.863821686359 -1.08187360139 0.0702916896083 -1.93429833337 0.0881344027451 0.716487726925 -0.470573507641
2.1606484361 2.10660159301 0.0162687369819 -8.65237422091 -0.863878939207 -1.08030302296 0.0704601378854 -1.93464732744 0.0882346021585 0.714562712934 -0.47061868958
2.17918994719 2.10272489799 0.0162650328849 -8.65243152405 -0.863936242356 -1.07873117088 0.0706285476501 -1.93499420131 0.0883346369385 0.712638534445 -0.470663677616
2.19773176234 2.09884813958 0.0162612063422 -8.65248884675 -0.86399356505 -1.0771552975 0.0707969274699 -1.93533474966 0.0884343185901 0.710716671601 -0.47070875129
2.21627380741 2.09497133333 0.0162573141035 -8.6525461592 -0.8640508775 -1.07557678155 0.0709653758617 -1.93567106826 0.0885336853821 0.708796401443 -0.470753879438
2.23481608239 2.09109447861 0.0162533905284 -8.65260336964 -0.864108087943 -1.07399562248 0.0711341073121 -1.93600314289 0.0886326200032 0.706877748957 -0.470799289378
2.25335857541 2.0872175787 0.0162493669111 -8.65266066269 -0.864165380993 -1.07241183961 0.0713026893767 -1.93633100468 0.0887313521584 0.704960680011 -0.470844526225
2.27190128351 2.08334063353 0.0162452774442 -8.65271794654 -0.864222664842 -1.07082543246 0.0714713369457 -1.93665463917 0.0888297647989 0.703045219918 -0.470889816995
2.29044420818 2.07946364315 0.0162411551936 -8.65277513565 -0.864279853951 -1.06923640075 0.0716402541959 -1.93697403252 0.0889277427481 0.701131393345 -0.470935379599
2.30898728117 2.0755866217 0.0162369906147 -8.65283237166 -0.864337089961 -1.06764611019 0.0718091296104 -1.93729131054 0.0890255520436 0.699218412203 -0.470980747516
2.32753061374 2.07170954597 0.0162327035892 -8.65288962989 -0.864394348194 -1.06605186908 0.0719779667975 -1.93760226817 0.0891229966341 0.697307813121 -0.471026199299
2.34607414062 2.06783242984 0.016228350543 -8.6529468803 -0.864451598605 -1.06445502778 0.0721468652122 -1.93790900097 0.0892201155036 0.695398844935 -0.471071704368
2.36461786181 2.06395527293 0.0162239660565 -8.65300403699 -0.864508755295 -1.06285558543 0.0723160361454 -1.93821149475 0.0893167849321 0.693491533086 -0.471117490133
2.38316176248 2.06007807821 0.016219480911 -8.65306127288 -0.864565991182 -1.0612535611 0.0724850534716 -1.93850978022 0.0894132475312 0.691585842077 -0.471163101644
2.40170584559 2.05620084587 0.0162149295271 -8.65311850201 -0.86462322031 -1.05964895402 0.0726541288648 -1.93880384292 0.089509379832 0.68968179769 -0.471208766029
2.42025010522 2.05232357622 0.016210345203 -8.65317564435 -0.864680362652 -1.05804176359 0.0728234637538 -1.93909366902 0.0896050603429 0.687779425084 -0.471254701681
2.43879448648 2.04844628121 0.0162057175906 -8.65323283028 -0.864737548585 -1.05643332745 0.0729927530132 -1.93938138404 0.0897005684861 0.685877906784 -0.471300441765
2.45733908133 2.04456894165 0.01620096733 -8.65329004116 -0.864794759466 -1.05482100926 0.0731619955476 -1.93966278263 0.0897957005506 0.683978835941 -0.47134626427
2.4758838349 2.04069156909 0.0161961742354 -8.65334719166 -0.864851909961 -1.05320612676 0.0733314344068 -1.93993995022 0.0898904090638 0.682081447544 -0.471392294287
2.49442873679 2.03681416517 0.0161912909491 -8.65340439223 -0.86490911053 -1.0515886945 0.0735007829557 -1.94021290784 0.0899848666728 0.680185717888 -0.471438221723
2.51297378553 2.03293673055 0.0161863409797 -8.65346158815 -0.864966306455 -1.04996871354 0.0736701830136 -1.94048164579 0.0900789848863 0.67829166654 -0.471484201398
2.53151897964 2.02905926575 0.0161813577638 -8.6535187042 -0.8650234225 -1.04834618302 0.0738398336769 -1.94074615019 0.0901726367645 0.676399319156 -0.471530452256
2.55006430575 2.02518177328 0.0161762742871 -8.65357589196 -0.865080610264 -1.04672112121 0.0740093330442 -1.94100645007 0.0902660714462 0.674508640077 -0.471576536416
2.5686097268 2.02130426086 0.0161711799433 -8.65363304509 -0.865137763389 -1.04509481886 0.0741789829372 -1.9412646281 0.0903592041409 0.672618843881 -0.471622643149
2.5871553125 2.01742671417 0.0161659625444 -8.65369022592 -0.865194944216 -1.04346470077 0.074348577379 -1.94151649223 0.0904519495892 0.670731559814 -0.471668831195
2.60570101537 2.01354914287 0.0161607065212 -8.65374734233 -0.865252060635 -1.04183205596 0.0745183865238 -1.94176412632 0.090544238513 0.66884599814 -0.471715257543
2.62424682949 2.00967154857 0.0161553547752 -8.65380451783 -0.865309236135 -1.04019690058 0.0746880713478 -1.94200755508 0.0906362885296 0.666962128258 -0.471761549512
2.64279275041 2.00579393164 0.0161499612521 -8.65386163727 -0.865366355573 -1.03855922961 0.0748579505585 -1.94224675588 0.0907278890301 0.665079989078 -0.471808060546
2.66133877071 2.00191629408 0.0161444747029 -8.65391880887 -0.865423527167 -1.0369190581 0.0750277212972 -1.94248175061 0.0908192377388 0.663199553715 -0.471854456245
2.67988488594 1.99803863642 0.0161389461732 -8.65397592607 -0.865480644372 -1.03527638152 0.0751976835777 -1.94271251789 0.0909101328588 0.661320859496 -0.471901070994
2.69843106495 1.99416096569 0.0161333802651 -8.65403306384 -0.865537782142 -1.03363247926 0.075367638989 -1.9429411769 0.0910008169075 0.659443040098 -0.47194754138
2.71697735669 1.99028327144 0.0161276906852 -8.65409023208 -0.86559495038 -1.03198482542 0.0755375299815 -1.94316352292 0.0910911027523 0.657567797072 -0.471994092304
2.7355237226 1.98640556155 0.0161219570103 -8.65414735277 -0.865652071068 -1.03033468246 0.0757075976785 -1.94338164261 0.0911809353186 0.655694310125 -0.472040850999
2.75407015674 1.9825278372 0.0161161314116 -8.65420452063 -0.865709238935 -1.02868206454 0.0758775630455 -1.94359555628 0.0912705052023 0.653822553398 -0.472087505433
2.77261665614 1.97865009942 0.0161102375714 -8.65426168882 -0.865766407119 -1.02702697217 0.0760475639845 -1.94380525403 0.0913597150125 0.651952547349 -0.472134211551
2.79116321488 1.97477234925 0.0161043091149 -8.65431879321 -0.865823511509 -1.02536940385 0.0762177941019 -1.94401072185 0.0914484253019 0.650084318985 -0.472181189872
2.80970982404 1.97089458851 0.0160982784859 -8.65437596317 -0.865880681469 -1.02370937756 0.0763878623126 -1.94421198788 0.0915369104095 0.648217829638 -0.472227999608
2.82825646436 1.96701682114 0.0160922349788 -8.65443310287 -0.865937821175 -1.02204812929 0.0765580668772 -1.94441113669 0.0916250742513 0.646352238969 -0.472274832671
2.84680316401 1.96313904146 0.0160860669713 -8.6544902758 -0.865994994102 -1.02038319158 0.0767281978024 -1.9446039716 0.0917128291451 0.644489288782 -0.472321745832
2.86534989481 1.9592612553 0.0160798587199 -8.65454739865 -0.866052116946 -1.01871579881 0.0768985227736 -1.94479257848 0.0918000963127 0.642628134227 -0.472368898848
2.8838966523 1.95538346368 0.0160735526975 -8.65460457614 -0.866109294441 -1.01704596685 0.0770687114846 -1.94497698123 0.0918871150458 0.640768742036 -0.472415915824
2.90244342908 1.95150566771 0.0160672031285 -8.65466171094 -0.866166429237 -1.01537368997 0.0772390741464 -1.9451571572 0.091973654378 0.638911153551 -0.472463153387
2.92099022069 1.94762786888 0.0160607584508 -8.65471889439 -0.866223612691 -1.01369898296 0.0774093158862 -1.94533312748 0.0920599312957 0.637055339494 -0.472510274366
2.93953701972 1.94375006839 0.0160542699303 -8.65477603674 -0.866280755039 -1.01202184061 0.0775797287501 -1.94550487064 0.0921457247617 0.635201339554 -0.472557616329
2.95808381727 1.93987226835 0.0160477416266 -8.65483319562 -0.866337913916 -1.01034348848 0.0777501239834 -1.94567450799 0.0922312979324 0.633348228397 -0.472604813656
2.97663061778 1.93599446756 0.0160410877794 -8.65489039044 -0.866395108739 -1.00866150717 0.0779204360918 -1.94583782856 0.0923164516299 0.63149782199 -0.472652090977
2.99517740494 1.93211666981 0.0160343877378 -8.65494755041 -0.866452268711 -1.0069771051 0.0780909043602 -1.94599692183 0.0924011232219 0.629649244538 -0.472699578026
3.01372417282 1.92823887581 0.0160275935269 -8.65500475462 -0.866509472924 -1.0052902962 0.0782612572407 -1.94615180734 0.0924855210188 0.627802467916 -0.472746960068
3.03227091549 1.92436108696 0.016020728839 -8.65506196401 -0.866566682308 -1.00360108041 0.0784316287667 -1.94630247491 0.0925695388515 0.625957513739 -0.472794394555
3.05081762849 1.92048330475 0.0160138272604 -8.65511912544 -0.866623843739 -1.00190945564 0.078602207145 -1.94644891031 0.0926530249594 0.624114410684 -0.472842104116
3.06936430292 1.9166055303 0.0160068211471 -8.65517634628 -0.866681064585 -1.00021543977 0.0787726119083 -1.94659114077 0.0927362784995 0.622273116851 -0.472889643984
3.08791094027 1.91272776346 0.0159997996415 -8.65523354109 -0.866738259386 -0.998520215147 0.0789431378945 -1.94673125446 0.0928191922124 0.620432736635 -0.472937209221
3.1064575257 1.90885000774 0.0159926513344 -8.6552907745 -0.866795492805 -0.996821419854 0.0791135709942 -1.94686504637 0.0929016761511 0.618595125886 -0.472984854678
3.12500405032 1.9049722648 0.0159854603772 -8.65534797172 -0.866852690022 -0.99512023476 0.0792841770219 -1.9469946061 0.0929836417584 0.616759384323 -0.473032743857
3.14355051116 1.90109453508 0.0159781690288 -8.65540521926 -0.866909937558 -0.993416675664 0.0794546332687 -1.94711995676 0.0930653504103 0.6149254757 -0.473080495642
3.16209689932 1.89721682038 0.0159708315933 -8.65546243698 -0.866967155282 -0.991710736108 0.0796252425302 -1.94724107553 0.0931465504023 0.613093444357 -0.473128471767
3.18064321183 1.89333912165 0.0159633963787 -8.65551969994 -0.867024418245 -0.990002430799 0.079795716856 -1.94735798275 0.0932274783459 0.611263258354 -0.473176330443
3.19918943979 1.88946144075 0.0159559145806 -8.65557693474 -0.867081653042 -0.988291753823 0.0799663407748 -1.9474706568 0.093307894096 0.609434960213 -0.473224413553
3.21773559655 1.88558377457 0.0159483902938 -8.6556341819 -0.8671389002 -0.986579878159 0.0801369353819 -1.94758122302 0.0933880807532 0.607607564601 -0.47327235283
3.23628164206 1.88170613164 0.0159407377321 -8.65569147027 -0.867196188573 -0.98486448875 0.080307427055 -1.94768546024 0.0934678275667 0.605783003911 -0.473320372878
3.2548275793 1.87782851139 0.0159330361589 -8.65574873585 -0.867253454155 -0.983146741097 0.0804780540374 -1.9477854626 0.093547063931 0.603960346331 -0.473368607049
3.27337340677 1.87395091404 0.0159252375302 -8.65580604286 -0.867310761164 -0.981426649106 0.0806485507618 -1.94788124892 0.0936260165505 0.602139561154 -0.473416735629
3.29191911706 1.87007334131 0.0159173655103 -8.65586335962 -0.867368077919 -0.979704212169 0.0808190481394 -1.94797280864 0.0937045701443 0.600320671516 -0.47346491871
3.31046469979 1.86619579511 0.0159094535301 -8.65592064348 -0.867425361782 -0.977979427615 0.0809897296761 -1.9480601272 0.0937825604876 0.598503708173 -0.473513382195
3.32901015347 1.86231827587 0.0159014340918 -8.65597798079 -0.867482699093 -0.976252313442 0.0811602241064 -1.94814323096 0.0938603118653 0.596688625581 -0.473561675005
3.34755550035 1.85844077906 0.0158933962524 -8.65603529593 -0.867540014226 -0.974523999426 0.0813308236031 -1.94822421371 0.093937705612 0.594874472216 -0.4736099965
3.36610067814 1.85456331781 0.0158852284504 -8.65609265478 -0.867597373077 -0.972792227206 0.0815013098229 -1.94829885789 0.0940146496842 0.593063220245 -0.473658399637
3.38464569721 1.85068588938 0.0158770147389 -8.65614999067 -0.867654708971 -0.971058125221 0.0816719468978 -1.94836925882 0.0940910458671 0.591253913204 -0.47370705211
3.40319056054 1.84680849357 0.0158686975173 -8.6562073725 -0.867712090799 -0.96932170938 0.0818424194361 -1.94843543885 0.0941671772236 0.589446511629 -0.473755566652
3.42173525626 1.84293113284 0.0158603308064 -8.65626473677 -0.867769455075 -0.967582972497 0.0820130229192 -1.94849737491 0.0942427718674 0.587641063324 -0.473804310767
3.44027978288 1.83905380761 0.0158518631587 -8.65632214276 -0.867826861057 -0.965841929361 0.0821834763776 -1.94855508653 0.0943180853367 0.585837533531 -0.47385293764
3.45882412705 1.83517652034 0.0158433454383 -8.65637953267 -0.86788425097 -0.964098573363 0.0823540573722 -1.94860855186 0.0943928586063 0.584035968104 -0.473901794588
3.4773683318 1.83129926253 0.015834782112 -8.65643693079 -0.867941649096 -0.962354026021 0.0825245957294 -1.94865990249 0.0944673948943 0.582235320151 -0.473950508841
3.49591230515 1.82742205271 0.015826086923 -8.65649437502 -0.867999093324 -0.960606074833 0.082695010163 -1.94870490257 0.0945414719252 0.580437641356 -0.473999305918
3.51445607529 1.82354488579 0.0158173390579 -8.65655180781 -0.868056526111 -0.958855823366 0.0828655378571 -1.9487456531 0.0946150114353 0.578641942898 -0.474048322883
3.53299963925 1.81966776145 0.0158084907597 -8.65660927905 -0.868113997355 -0.957103285645 0.0830359193644 -1.94878217211 0.094688257736 0.576848191348 -0.474097234817
3.55154298962 1.81579068229 0.0157995877293 -8.65666674199 -0.868171460289 -0.9553484558 0.0832064028374 -1.94881443965 0.0947609704581 0.575056429942 -0.474146357409
3.57008612046 1.81191364858 0.0157905852321 -8.65672424135 -0.868228959647 -0.953591347394 0.0833767458358 -1.94884247226 0.094833380981 0.573266627664 -0.474195385309
3.58862902288 1.80803666297 0.0157815275536 -8.6567817336 -0.868286451901 -0.951831954775 0.0835471883838 -1.94886625046 0.094905253587 0.571478827117 -0.474244625781
3.60717174729 1.80415971433 0.0157724256517 -8.65683922864 -0.868343946944 -0.950071372819 0.083717597757 -1.94888790736 0.094976869653 0.56969195492 -0.474293745354
3.62571418395 1.80028282619 0.0157631897779 -8.65689677204 -0.868401490336 -0.948307440418 0.0838878722491 -1.94890319931 0.0950480171385 0.567908121207 -0.474342949231
3.64425636548 1.79640599113 0.0157538991794 -8.65695430919 -0.86845902749 -0.946541235448 0.0840582490057 -1.94891423153 0.095118613636 0.566126308235 -0.474392376972
3.66279829634 1.79252920857 0.0157445061871 -8.65701188335 -0.868516601651 -0.944772772095 0.0842284706983 -1.94892102173 0.095188912826 0.564346481016 -0.474441699774
3.68133996168 1.78865248138 0.0157350563019 -8.65706945418 -0.868574172478 -0.943002044165 0.0843987829995 -1.94892354977 0.0952586656997 0.562568684623 -0.474491236741
3.699881363 1.78477580958 0.0157255050141 -8.65712706011 -0.86863177841 -0.941229065352 0.084568946136 -1.94892183182 0.0953281116864 0.560792886689 -0.474540679743
3.71842248546 1.78089919605 0.0157158963066 -8.65718466387 -0.868689382169 -0.939453829712 0.0847391972487 -1.94891584823 0.0953970072203 0.559019131559 -0.474590338762
3.73696339432 1.77702262697 0.0157062416167 -8.6572422687 -0.868746987 -0.937677406867 0.0849094076294 -1.94890773668 0.095465641922 0.557246314149 -0.474639878329
3.75550395461 1.7731461309 0.0156964506406 -8.65729992396 -0.868804642265 -0.935897686258 0.085079471855 -1.94889324331 0.0955337989907 0.555476606367 -0.474689503968
3.77404421379 1.76926969807 0.0156866026359 -8.65735757795 -0.868862296254 -0.934115720243 0.085249626714 -1.94887447818 0.0956013922972 0.553708961118 -0.474739357331
3.79258417186 1.76539332768 0.0156766502171 -8.65741526739 -0.86891998569 -0.932331523179 0.0854196176613 -1.94885145863 0.0956686840039 0.551943341912 -0.474789106537
3.81112381844 1.7615170228 0.0156666387169 -8.65747295803 -0.868977676334 -0.930545088546 0.0855896884244 -1.94882416427 0.0957354161266 0.550179795856 -0.474839074852
3.82966315205 1.75764078322 0.0156565235945 -8.65753068253 -0.869035400835 -0.928756430284 0.0857596001588 -1.94879261105 0.0958018377089 0.548418288901 -0.47488894906
3.84820215933 1.75376461205 0.0156463486046 -8.65758840948 -0.869093127782 -0.926965542145 0.0859295878784 -1.94875677911 0.0958676968226 0.546658867356 -0.474939042861
3.86961656538 1.74924247289 0.0156344220222 -8.65765575675 -0.869160475048 -0.924874789698 0.0861278503384 -1.94871248323 0.0959442231044 0.544607315056 -0.47499734846
3.89081840486 1.74472044985 0.015622306503 -8.65772317523 -0.869227893533 -0.92277962153 0.0863258978882 -1.94865947456 0.0960200872315 0.542560096962 -0.475055773994
3.9118098582 1.74019852731 0.0156101090861 -8.65779059884 -0.869295317138 -0.920681435991 0.086524047966 -1.94860063199 0.096095171042 0.54051574784 -0.475114509887
3.93259301982 1.73567670408 0.0155977671939 -8.6578580681 -0.869362786401 -0.918580253379 0.0867219656494 -1.9485359776 0.0961698337607 0.538474218618 -0.475173111004
3.95316993222 1.73115498491 0.0155853406146 -8.65792554561 -0.869430263907 -0.91647606563 0.0869199715243 -1.94846548336 0.0962437203105 0.536435576494 -0.475232012598
3.9735426468 1.72663336955 0.0155727702088 -8.65799306686 -0.869497785161 -0.914368892631 0.0871177496114 -1.94838916953 0.0963171743211 0.534399775458 -0.475290791837
3.99371328021 1.72211183716 0.0155601584002 -8.65806056949 -0.869565287788 -0.91226004137 0.0873156024167 -1.94830979549 0.0963900833082 0.532365377905 -0.475349629918
4.01368361242 1.71759043878 0.0155473761714 -8.65812813354 -0.869632851846 -0.910146840008 0.0875133427289 -1.94822167002 0.0964621853337 0.530335439275 -0.475408752973
4.03365345068 1.71306915211 0.0155344554315 -8.65819573675 -0.869700455046 -0.908030670479 0.0877108858713 -1.9481277107 0.0965338099246 0.528308379227 -0.475467805489
4.0536227787 1.70854798114 0.0155214530647 -8.65826334918 -0.869768067482 -0.905911524781 0.0879085359686 -1.94802789055 0.0966046085558 0.526284264312 -0.475527207986
4.07359160091 1.70402692476 0.0155082981333 -8.65833100718 -0.869835725484 -0.903789425961 0.0881059146377 -1.94792223439 0.0966750064638 0.524263034927 -0.475586445293
4.0935598921 1.69950598853 0.0154950603445 -8.65839867609 -0.869903394388 -0.901664363154 0.0883033948276 -1.9478107095 0.0967445728597 0.522244772046 -0.475646035022
4.11352778428 1.69498514275 0.0154817463877 -8.65846634232 -0.869971060622 -0.89953769332 0.0885007554156 -1.94769625257 0.0968138023993 0.52022782809 -0.475705428
4.13349501492 1.69046444646 0.0154682358605 -8.65853408407 -0.870038802373 -0.897406749717 0.0886978682035 -1.94757302049 0.0968823471845 0.51821542753 -0.475764947509
4.15346168338 1.68594387778 0.015454637776 -8.65860184085 -0.870106559153 -0.895272861296 0.0888950596177 -1.94744390823 0.0969500686739 0.516206024131 -0.475824803198
4.17342779561 1.68142343463 0.0154408870548 -8.65866963967 -0.870174357973 -0.893136050004 0.0890919824887 -1.94730893833 0.0970173693952 0.514199560933 -0.475884514574
4.19339333084 1.67690312245 0.0154270454191 -8.65873745607 -0.870242174373 -0.890996306414 0.0892889670936 -1.94716808086 0.0970838547545 0.512196114292 -0.47594454883
4.21335829203 1.67238294017 0.0154130521264 -8.65880531272 -0.87031003102 -0.888853651849 0.0894856897469 -1.94702135619 0.0971499046522 0.510195631486 -0.476004455051
4.2333228023 1.66786285984 0.0153990146502 -8.65887315038 -0.870377868685 -0.886709384339 0.089682466503 -1.9468716692 0.0972153924976 0.508196524019 -0.476064428602
4.25328657686 1.6633429464 0.0153847985937 -8.658941058 -0.870445776303 -0.88456090891 0.0898790966811 -1.94671316207 0.0972800418891 0.506202094014 -0.476124700543
4.27324974327 1.65882317055 0.0153704368206 -8.65900900237 -0.870513720675 -0.88240953966 0.0900754992004 -1.94654877083 0.0973442030707 0.504210669635 -0.476184904464
4.29321228075 1.65430353674 0.0153559857108 -8.65907696607 -0.870581684371 -0.880255267919 0.0902719754383 -1.94637846756 0.0974075045853 0.502222324111 -0.476245474524
4.31317420119 1.64978404308 0.0153413750969 -8.65914496987 -0.87064968817 -0.878098117916 0.0904681514466 -1.94620227638 0.097470398374 0.500236992124 -0.476305880987
4.33313547491 1.64526469569 0.0153266738783 -8.65921299423 -0.870717712533 -0.875938078019 0.0906643959745 -1.94602016372 0.0975324267076 0.498254762535 -0.476366656981
4.3530962636 1.64074545778 0.0153118904305 -8.65928100936 -0.87078572766 -0.873776437369 0.0908604943975 -1.94583508568 0.0975941128708 0.496273892536 -0.476427238693
4.37305625279 1.6362264012 0.0152969018259 -8.65934910292 -0.870853821217 -0.871610667032 0.0910563103743 -1.94564115796 0.0976550935349 0.494297789851 -0.47648795472
4.39301556559 1.63170749794 0.0152818176501 -8.65941721982 -0.870921938122 -0.869442026849 0.0912521712421 -1.9454412951 0.0977152194142 0.492324823047 -0.476549022913
4.4129742124 1.62718874522 0.0152665736325 -8.6594853738 -0.870990092104 -0.867270539978 0.09144773385 -1.945235519 0.0977749167759 0.490354929844 -0.476609949526
4.43293216799 1.62267014889 0.0152512305415 -8.65955355282 -0.871058271119 -0.865096196452 0.0916433239984 -1.94502379895 0.0978337689089 0.488388193821 -0.476671214274
4.45288944126 1.61815170723 0.0152357285308 -8.65962176745 -0.871126485749 -0.862919018772 0.0918386223669 -1.94480615467 0.0978921768173 0.486424557454 -0.476732354817
4.47284618055 1.61363338627 0.0152201757358 -8.65968996325 -0.871194681548 -0.860740235477 0.0920339457269 -1.94458551163 0.0979500043658 0.484462345376 -0.476793573841
4.49280204766 1.60911526323 0.0152044349161 -8.65975823533 -0.871262953626 -0.858557390474 0.0922290850713 -1.94435596832 0.0980069665629 0.48250504502 -0.476855103318
4.51275719685 1.60459730219 0.0151885409006 -8.6598265409 -0.871331259199 -0.856371729545 0.0924239661952 -1.94412048176 0.0980634289604 0.480550890253 -0.476916570841
4.53271161034 1.6000795079 0.0151725492405 -8.65989487295 -0.87139959125 -0.854183243611 0.0926188869852 -1.94387902324 0.098118999844 0.478599961367 -0.476978422769
4.55266529997 1.59556187773 0.0151563904536 -8.65996323939 -0.87146795769 -0.851991958431 0.0928134761795 -1.94363161646 0.098174157804 0.476652186639 -0.477040112772
4.5726182346 1.59104441822 0.0151401324695 -8.66003163312 -0.871536351425 -0.849797861829 0.0930080986276 -1.94337822703 0.0982284201066 0.47470766347 -0.477102189354
4.59257060707 1.58652708594 0.0151237860285 -8.66010001068 -0.871604728982 -0.847602174455 0.093202547388 -1.94312183305 0.0982823347267 0.472764550374 -0.477164076377
4.61252204951 1.58200996464 0.0151072250053 -8.66016846796 -0.871673186265 -0.84540250722 0.0933966773591 -1.94285650413 0.0983355252121 0.47082644533 -0.477226106434
4.63247270729 1.57749302049 0.0150905597849 -8.66023695389 -0.871741672186 -0.843200050206 0.0935908171736 -1.94258517699 0.0983878320841 0.468891628705 -0.477288505801
4.65242259969 1.57297625002 0.0150737269489 -8.66030547157 -0.871810189869 -0.840994828058 0.0937846269813 -1.94230787309 0.0984397038986 0.466960032508 -0.477350767147
4.67237169704 1.56845965938 0.0150567863566 -8.6603740187 -0.871878737004 -0.838786830488 0.0939784291239 -1.94202456096 0.0984907029334 0.465031748229 -0.477413383396
4.69232000973 1.5639432462 0.015039678967 -8.6604425964 -0.871947314699 -0.836576081477 0.0941719073485 -1.94173525988 0.0985412506211 0.463106713058 -0.477475879658
4.71226771426 1.55942697092 0.0150225138633 -8.66051115361 -0.872015871912 -0.834363739131 0.0943653798061 -1.94144291833 0.0985912014333 0.461183161731 -0.477538466564
4.73221441906 1.55491092195 0.0150051507136 -8.66057979068 -0.872084508979 -0.832147488815 0.0945586304021 -1.94114158657 0.0986402615502 0.459264774406 -0.47760137828
4.75216031101 1.55039505723 0.0149876261696 -8.6606484572 -0.872153175504 -0.829928507167 0.0947515893357 -1.94083424523 0.0986888130339 0.457349686524 -0.477664233479
4.77210536638 1.54587938171 0.0149699950314 -8.660717154 -0.8722218723 -0.82770678494 0.0949445519092 -1.94052086485 0.0987364450523 0.455437986065 -0.477727491194
4.79204960001 1.54136389206 0.0149521887607 -8.66078587918 -0.872290597483 -0.825482349617 0.0951371502357 -1.94020146885 0.0987836592363 0.453529594772 -0.477790590487
4.81199298371 1.53684859505 0.0149342742859 -8.66085463491 -0.872359353208 -0.823255188761 0.0953297456307 -1.93987602209 0.0988299502483 0.451624619144 -0.477854094666
4.83193573552 1.53233344127 0.0149162647794 -8.66092336723 -0.872428085534 -0.821026453331 0.0955221374267 -1.939547527 0.0988758894157 0.44972111497 -0.477917414444
4.85187743717 1.52781852509 0.0148980305794 -8.66099217873 -0.872496897031 -0.818793897334 0.0957141725103 -1.93921000317 0.0989210882259 0.447822877893 -0.477980886612
4.87181826218 1.52330380732 0.014879683157 -8.66106102071 -0.872565739009 -0.816558639855 0.0959061812528 -1.93886641164 0.0989653775854 0.445928096943 -0.478044746061
4.89175822837 1.51878928388 0.014861159844 -8.66112988874 -0.872634607045 -0.814320707286 0.0960978262022 -1.93851677366 0.0990092267788 0.444036697996 -0.478108471655
4.91169730903 1.51427496104 0.0148425198296 -8.66119878726 -0.872703505559 -0.812080089264 0.0962894277097 -1.93816105704 0.0990521778427 0.442148781192 -0.47817257056
4.93163551751 1.50976083581 0.0148237045536 -8.66126771076 -0.872772429064 -0.809836811574 0.0964806705953 -1.93779928101 0.0990946727578 0.440264277752 -0.478236553388
4.95157304961 1.50524686361 0.0148048244334 -8.66133661012 -0.872841328425 -0.807591960315 0.0966718753615 -1.93743441879 0.0991365563254 0.438381329499 -0.47830063978
4.9715094722 1.50073314262 0.0147857356409 -8.66140558985 -0.872910308154 -0.80534336625 0.0968628188801 -1.93706046923 0.0991775274921 0.436503816455 -0.478365065292
4.99144499444 1.49621962532 0.0147664768883 -8.66147459409 -0.872979312389 -0.803092135265 0.0970534358089 -1.9366804385 0.0992179824902 0.434629772047 -0.478429440815
5.01137959703 1.49170631669 0.0147471023775 -8.66154362858 -0.873048346881 -0.800838258243 0.0972440195863 -1.93629429645 0.0992574930606 0.43275929244 -0.478494237895
5.03131329333 1.48719321277 0.0147275442327 -8.66161268518 -0.873117403481 -0.798581764662 0.0974342042053 -1.93590206656 0.0992965826799 0.430892292261 -0.478558880196
5.05124605663 1.48268032042 0.0147078687262 -8.66168177172 -0.873186490023 -0.796322642094 0.0976243491119 -1.93550371301 0.0993347244545 0.429028887871 -0.478623946778
5.07117812575 1.47816758499 0.0146880913043 -8.66175082731 -0.873255545607 -0.794061969961 0.0978142580584 -1.93510226424 0.0993725119954 0.427167028221 -0.47868883414
5.09110904532 1.47365510988 0.0146680785794 -8.66181995945 -0.873324677748 -0.791797649912 0.0980037709792 -1.93469168731 0.0994095457232 0.425310713926 -0.478753883535
5.11103900817 1.46914285122 0.0146479434996 -8.66188912011 -0.873393838409 -0.78953072817 0.0981932207018 -1.93427496904 0.099445647165 0.423458039607 -0.478819339005
5.13096803654 1.4646308043 0.0146276238006 -8.66195830068 -0.87346301898 -0.787261233142 0.0983822706291 -1.93385213082 0.0994813053895 0.421608924437 -0.478884664754
5.15089610225 1.46011897536 0.0146071782342 -8.662027509 -0.873532227301 -0.784989154716 0.0985712398839 -1.93342313988 0.0995160442417 0.41976347767 -0.478950381755
5.17082322161 1.45560736089 0.0145865486623 -8.66209673619 -0.873601454487 -0.782714520659 0.0987598144405 -1.93298801562 0.0995503232109 0.417921624407 -0.47901598773
5.19074960823 1.45109591193 0.0145658470697 -8.66216593335 -0.873670651655 -0.780438342946 0.0989483170362 -1.93254975718 0.0995839786933 0.416081410352 -0.479081710647
5.21067479635 1.44658473472 0.0145449258779 -8.66223520803 -0.873739926332 -0.778158602951 0.0991365179704 -1.93210231038 0.0996167038502 0.414246922241 -0.479147786835
5.23059901291 1.44207377712 0.0145238258775 -8.66230450126 -0.873809219566 -0.775876333571 0.0993243557932 -1.93164870807 0.0996489071713 0.412416087929 -0.47921382005
5.25052223863 1.43756304397 0.0145026010496 -8.6623738206 -0.873878538903 -0.773591526125 0.0995121233639 -1.9311889196 0.0996801441543 0.410589012312 -0.479280294704
5.27044449279 1.43305253075 0.0144811836553 -8.66244315545 -0.873947873747 -0.771304212357 0.0996994545166 -1.93072296888 0.0997109594854 0.408765602155 -0.479346617756
5.29036574572 1.42854224419 0.0144596398244 -8.66251251544 -0.87401723374 -0.769014380151 0.0998867086019 -1.93025081954 0.0997408058603 0.406945984387 -0.47941338476
5.31028625849 1.42403212543 0.0144379870082 -8.66258183656 -0.87408655486 -0.766723034859 0.100073692221 -1.92977552685 0.0997702973192 0.405127997337 -0.479479977883
5.33020554161 1.41952228494 0.0144160880054 -8.66265122937 -0.874155947669 -0.764428231622 0.100260239381 -1.92929100464 0.0997990246731 0.403315853304 -0.479546742572
5.35012380571 1.4150126749 0.0143940576081 -8.66272064461 -0.874225362914 -0.762130941338 0.100446685654 -1.92880026618 0.0998268009454 0.40150754949 -0.479613931802
5.37004107599 1.4105032901 0.0143718336087 -8.66279007314 -0.874294791441 -0.75983119462 0.100632694501 -1.92830333333 0.0998541326848 0.399702998013 -0.479680995834
5.38995732577 1.40599413658 0.0143494748129 -8.66285952266 -0.874364240957 -0.757528981937 0.100818585228 -1.92780017289 0.099880526968 0.397902317764 -0.479748469627
5.40987256988 1.40148521027 0.01432692294 -8.66292898429 -0.874433702592 -0.755224333299 0.101004043024 -1.92729080488 0.0999064603757 0.396105427039 -0.479815836804
5.42978704267 1.39697645882 0.0143042920001 -8.66299840766 -0.874503125965 -0.752918183768 0.101189393693 -1.92677825448 0.099931760812 0.394310272743 -0.479883334412
5.44970024873 1.39246799435 0.0142814306522 -8.66306790208 -0.874572620377 -0.750608671764 0.101374402256 -1.92625641482 0.099956116265 0.392521154627 -0.479951199849
5.4696124328 1.38795976113 0.0142583814021 -8.66313740801 -0.874642126306 -0.748296754386 0.101559009156 -1.92572834581 0.099979947387 0.390735891337 -0.480019028447
5.48952357411 1.38345176371 0.0142351985002 -8.66320693143 -0.874711649733 -0.745982423738 0.101743507862 -1.92519401648 0.100002795015 0.388954596911 -0.480087317318
5.50943369788 1.37894399707 0.0142118139531 -8.66327646344 -0.874781181741 -0.743665713954 0.101927531591 -1.92465345149 0.100025221759 0.38717716999 -0.480155458404
5.52934277297 1.37443646763 0.0141882942467 -8.66334601132 -0.874850729623 -0.741346613639 0.102111440421 -1.92410661418 0.100046662804 0.385403748359 -0.48022406248
5.54925107377 1.36992911348 0.0141646584397 -8.66341551206 -0.874920230356 -0.739026050864 0.102295042503 -1.92355658642 0.100067749867 0.383632056515 -0.480292498321
5.569158093 1.36542204982 0.0141407655488 -8.66348507721 -0.874989795511 -0.736702241337 0.102478166931 -1.92299723029 0.100088066131 0.381866524112 -0.480361114713
5.58906405168 1.36091522587 0.0141167327256 -8.66355465435 -0.875059372651 -0.734376077558 0.102661152807 -1.92243158516 0.100107416229 0.380105048443 -0.480430174104
5.60896897799 1.35640863597 0.0140924971135 -8.66362423763 -0.875128955933 -0.732047592546 0.102843661725 -1.92185967377 0.10012632332 0.378347533897 -0.480499112067
5.62887284374 1.35190228575 0.0140681181449 -8.66369383085 -0.875198549153 -0.729716777744 0.103026014232 -1.92128146278 0.100144279965 0.37659410927 -0.480568476733
5.64877567266 1.34739617071 0.0140435370372 -8.66376342882 -0.875268147116 -0.727383665494 0.103207894653 -1.92069697308 0.100161776336 0.374844685972 -0.480637739859
5.66867770358 1.34289023612 0.014018870146 -8.66383297778 -0.875337696085 -0.725049110659 0.103389631688 -1.92010925514 0.100178633254 0.373097109592 -0.480707146633
5.68857842771 1.3383845975 0.0139939624088 -8.6639025875 -0.875407305803 -0.722711416309 0.10357098612 -1.91951215201 0.100194534956 0.371355897864 -0.480776934919
5.70847809425 1.3338791982 0.0139688747566 -8.66397220125 -0.875476919547 -0.720371454342 0.103751990477 -1.91890874203 0.100209768176 0.36961878954 -0.480846847734
5.72837670617 1.32937403799 0.0139436111318 -8.66404181809 -0.875546536392 -0.71802923574 0.103932665713 -1.91829901767 0.100224294705 0.367885811504 -0.480916926952
5.74827425901 1.32486911714 0.0139181709295 -8.66411143711 -0.875616155412 -0.715684773566 0.104113009089 -1.91768297343 0.100238113426 0.366156983027 -0.480987174365
5.76817075427 1.32036443587 0.0138925533355 -8.66418105732 -0.87568577562 -0.713338081116 0.104293016711 -1.91706060397 0.10025122513 0.36443232306 -0.481057589745
5.78846635826 1.31585993483 0.0138668296847 -8.66425062208 -0.875755340376 -0.710989987758 0.104472771123 -1.91643499292 0.100263840384 0.362709537498 -0.481127998985
5.80896357025 1.31135572983 0.013840838335 -8.66432024149 -0.875824959786 -0.708638883765 0.104652006375 -1.91579996233 0.1002756822 0.360993244934 -0.481198596738
5.82966463445 1.3068517683 0.0138146992214 -8.66438985781 -0.875894576111 -0.706285579677 0.104831065068 -1.91515857623 0.100286548272 0.359281240568 -0.481269653964
5.85057160821 1.3023480442 0.013788348239 -8.6644594727 -0.875964191 -0.703930110966 0.105009606482 -1.91451085856 0.100296974729 0.357573420967 -0.481340593869
5.87168651472 1.29784456256 0.0137618462383 -8.66452908201 -0.87603380031 -0.70157247044 0.105187953762 -1.91385677619 0.100306441854 0.355869924977 -0.481411976876
5.89301144396 1.29334131851 0.0137351330392 -8.66459868808 -0.876103406382 -0.699212692937 0.105365788242 -1.91319635134 0.100315452711 0.35417065643 -0.48148326216
5.91454875436 1.28883825618 0.01370832789 -8.66466823187 -0.876172950175 -0.69685154927 0.105543442286 -1.91253265761 0.100323820995 0.352473358106 -0.48155470362
5.93630000042 1.28433549163 0.0136812720364 -8.66473782218 -0.876242540484 -0.694487515793 0.105720672833 -1.91185949338 0.100331230179 0.35078276862 -0.481626537303
5.95826758656 1.27983296722 0.0136540281373 -8.66480740458 -0.876312122876 -0.692121380847 0.105897514636 -1.91117996083 0.100337969286 0.349096515947 -0.481698505722
5.98045366801 1.27533068221 0.0136266000762 -8.66487697731 -0.876381695607 -0.689753157461 0.106073987603 -1.91049405335 0.100344001534 0.34741462832 -0.481770649404
6.00286042075 1.27082863633 0.0135989873943 -8.66494653921 -0.876451257512 -0.687382860703 0.106250089435 -1.90980176633 0.100349325428 0.345737126262 -0.481842970806
6.02549004008 1.26632682929 0.013571189369 -8.6650160891 -0.876520807405 -0.685010505914 0.1064258164 -1.9091030954 0.100353941847 0.344064029825 -0.481915469866
6.0483450461 1.26182520146 0.0135432789463 -8.66508557181 -0.876590290115 -0.682636836718 0.106601251876 -1.90840114624 0.100358063715 0.342392934601 -0.481987971468
6.07142708824 1.25732386896 0.0135151082713 -8.66515509324 -0.876659811537 -0.680260415242 0.106776217564 -1.90768969205 0.100361268892 0.340728715219 -0.482060824392
6.09473872222 1.25282277364 0.013486732798 -8.66522460279 -0.876729321092 -0.677881989185 0.106950708045 -1.90697184931 0.100363912383 0.339068927923 -0.482133700668
6.11828221896 1.24832191775 0.013458200319 -8.66529408844 -0.876798806743 -0.675501557684 0.107124970281 -1.9062475922 0.100365593294 0.337413689738 -0.482207033167
6.14205991465 1.24382129615 0.0134294485839 -8.66536356316 -0.87686828146 -0.673119157906 0.107298681851 -1.90551694458 0.10036682401 0.33576289728 -0.482280270966
6.16607411434 1.23932091282 0.0134005387652 -8.66543301057 -0.876937728868 -0.67073478535 0.107472158674 -1.90477987493 0.100367092237 0.334116695807 -0.482353966849
6.19032750872 1.23482070538 0.0133715006438 -8.66550238792 -0.877007106224 -0.668349153928 0.107645257903 -1.90403951814 0.100366974987 0.332472537009 -0.482427554029
6.21506679498 1.2303207891 0.013342198042 -8.66557179497 -0.877076513268 -0.665960913798 0.107817867848 -1.9032896245 0.100365942217 0.330835433589 -0.482501496855
6.24030203284 1.22582110633 0.0133126866458 -8.66564118423 -0.877145902533 -0.663570768199 0.1079899822 -1.90253332028 0.100364351428 0.329202885015 -0.482575465103
6.26604315147 1.2213216589 0.013283015421 -8.66571053817 -0.877215256471 -0.6611787173 0.108161849768 -1.90177058009 0.100361798564 0.327575012209 -0.482649895523
6.2923003248 1.21682244156 0.013253120784 -8.66577987662 -0.877284594922 -0.658784799477 0.108333146222 -1.90100142877 0.100358799708 0.325951707921 -0.482724232862
6.31908387507 1.21232345779 0.0132230653381 -8.66584917601 -0.877353894312 -0.656389011314 0.108504189335 -1.90022583534 0.100354839589 0.324333121957 -0.482799033749
6.34640472972 1.20782464627 0.0131928785718 -8.66591840011 -0.877423118406 -0.653992021035 0.108674835237 -1.89944694308 0.100350497215 0.322716648031 -0.482873729268
6.37427296923 1.2033261195 0.013162423399 -8.66598764395 -0.877492362255 -0.651592573657 0.108844972424 -1.89865848805 0.100345242533 0.3211074109 -0.482948783473
6.40269992003 1.19882782078 0.0131317556991 -8.66605686378 -0.877561582084 -0.649191326737 0.109014594036 -1.89786360494 0.100339433916 0.319502853669 -0.483023865389
6.43198674148 1.19432975152 0.0131009257922 -8.66612603574 -0.877630754042 -0.646788281576 0.109183950762 -1.89706226895 0.100332665114 0.317903100961 -0.483099414832
6.46215947874 1.18983190632 0.0130698684525 -8.66619518756 -0.877699905861 -0.644383477743 0.109352715867 -1.89625450603 0.100325455489 0.316308041543 -0.483174872382
6.49324491271 1.18533428819 0.0130386480547 -8.66626428745 -0.87776900575 -0.641976912981 0.10952120959 -1.89544028581 0.100317287084 0.314717829755 -0.483250798483
6.52591479959 1.18083683726 0.0130072934297 -8.66633330671 -0.877838025008 -0.639569208636 0.109689286206 -1.89462275855 0.100308740633 0.313129801551 -0.48332662203
6.55990912959 1.17633966238 0.012975666861 -8.66640233493 -0.877907053229 -0.637159207022 0.109856835046 -1.8937956493 0.100299286781 0.311549192833 -0.48340280636
6.59563575697 1.17184270826 0.0129438242927 -8.66647133255 -0.877976050848 -0.63474751881 0.110023848593 -1.89296209972 0.100289283929 0.30997339078 -0.483479020446
6.63318295113 1.1673459758 0.0129118175791 -8.66654026871 -0.878044987006 -0.632334146517 0.110190579434 -1.89212208575 0.100278324543 0.308402523492 -0.483555706382
6.67303813917 1.16284945953 0.0128795796273 -8.66660917993 -0.878113898235 -0.629919130856 0.110356698396 -1.89127563447 0.100266930176 0.306836475825 -0.483632301504
6.71576621625 1.1583531619 0.0128471768938 -8.66667802529 -0.878182743592 -0.627502470804 0.110522528589 -1.89042271627 0.100254580732 0.305275406538 -0.483709369722
6.76203294752 1.15385702502 0.0128146371548 -8.66674678459 -0.878251502892 -0.625084739644 0.110687921542 -1.88956648674 0.100241858548 0.303716594224 -0.483786337565
6.81313719075 1.14936115311 0.0127818224049 -8.66681554122 -0.87832025952 -0.622664879384 0.110852768275 -1.88870066362 0.100228235366 0.30216538465 -0.483863667542
6.87187743587 1.14486549273 0.0127487884453 -8.66688426035 -0.878388978652 -0.620243452619 0.111017060185 -1.88782839382 0.100214069249 0.300619109591 -0.483941028768
6.94355183806 1.14037004429 0.0127155889226 -8.6669529034 -0.878457621706 -0.617820463147 0.111181052106 -1.88694965413 0.100198951773 0.29907790052 -0.484018865359
7.0460600421 1.13587480224 0.0126821545664 -8.66702151663 -0.878526234935 -0.615395952779 0.111344412042 -1.8860644729 0.10018340614 0.29754163831 -0.48409661177
7.252223334 1.13137976844 0.0126485541424 -8.66709004909 -0.878594767391 -0.612969921825 0.111507465913 -1.88517282144 0.100166911432 0.2960104858 -0.48417483417
7.48023267973 1.13101626876 0.00980014359088 -8.66945726787 -0.880961986166 -0.608421145639 0.109076819847 -1.86197898852 0.100126253767 0.316404247516 -0.483055053232
7.60901877428 1.13058165275 0.00695505403795 -8.67183076751 -0.883335485807 -0.603846854142 0.106761891317 -1.83866606713 0.0998751112477 0.33688365011 -0.482063258035
7.71056233662 1.13007640941 0.00411132226351 -8.67420679516 -0.885711513464 -0.599245906429 0.104568748602 -1.81524080666 0.0994105732581 0.357433534011 -0.481206475992
7.79802304698 1.12950124777 0.00126684282584 -8.67658162078 -0.888086339083 -0.594617382109 0.102503570036 -1.79171074089 0.0987298697903 0.378038063956 -0.480492664627
7.87604351678 1.12885710546 -0.00158065338826 -8.67895156204 -0.890456280344 -0.589960619371 0.100572627553 -1.76808434551 0.0978303820518 0.398680633726 -0.479930723819
7.94721670761 1.12814515757 -0.00443362028186 -8.68131300992 -0.892817728222 -0.58527525809 0.0987822662067 -1.74437120983 0.0967096579667 0.419343762776 -0.479530494904
8.01322837253 1.12736682592 -0.00729471659831 -8.68366245471 -0.895167173006 -0.580561288752 0.0971388787989 -1.72058222299 0.0953654338565 0.440008985062 -0.479302744041
8.07558976974 1.12640058753 -0.0101664972545 -8.68599855213 -0.897503270431 -0.575750068059 0.0956551019262 -1.69672612958 0.0937967988611 0.4605919615 -0.479260032192
8.13504496459 1.12537169826 -0.0130525269276 -8.68831616517 -0.899820883466 -0.570913300118 0.0943309814734 -1.67282160111 0.0920011552922 0.481137625754 -0.479413517564
8.19169113219 1.12428234843 -0.0159561677208 -8.69061225386 -0.90211697216 -0.566052427136 0.0931727927687 -1.64888470898 0.0899769840697 0.501623853345 -0.479776393558
8.24615912835 1.12313501232 -0.0188810385562 -8.69288398437 -0.904388702671 -0.561169496181 0.0921866814121 -1.62493368292 0.087723134635 0.522027050238 -0.480362479315
8.29848762851 1.12193245641 -0.0218310164664 -8.6951287577 -0.906633476 -0.556267239288 0.0913785926541 -1.60098914158 0.0852389014414 0.542322038991 -0.481186066761
8.34921412394 1.12067774598 -0.0248102304851 -8.69734423891 -0.908848957212 -0.551349157571 0.0907541868092 -1.57707431681 0.0825241159144 0.562481959604 -0.482261725832
8.39833394671 1.11937424919 -0.0278230464875 -8.6995283864 -0.911033104704 -0.546419607089 0.09031873932 -1.55321526072 0.0795792549173 0.582478194112 -0.483604062828
8.4458021322 1.11790660555 -0.0308721875386 -8.70168205253 -0.913186770834 -0.541415426178 0.0900827642218 -1.52945981299 0.0764099671916 0.602194548835 -0.485224098285
8.49164544205 1.11639781858 -0.0339642516141 -8.70380150957 -0.915306227866 -0.536413739907 0.0900440192367 -1.50582235983 0.0730145389916 0.621686206798 -0.487137752896
8.5362941401 1.1148521084 -0.0371040789973 -8.70588575884 -0.91739047714 -0.531421912272 0.0902058063719 -1.48233813377 0.069396155903 0.640919353741 -0.489357683331
8.58014012778 1.11327396853 -0.0402965643053 -8.70793419732 -0.919438915616 -0.526448415964 0.0905704876496 -1.45904549549 0.0655592247009 0.659858609084 -0.491895099969
8.62354762819 1.11166814082 -0.0435465762951 -8.7099466368 -0.921451355104 -0.521502851722 0.0911393147156 -1.43598579713 0.0615095360673 0.678467260661 -0.494759277141
8.66729569169 1.11003957996 -0.0468588634659 -8.71192331755 -0.923428035853 -0.516595932778 0.0919122553597 -1.41320311164 0.057254419678 0.696707603639 -0.497957035406
8.71128963657 1.10839340714 -0.0502379472498 -8.71386491434 -0.925369632638 -0.511739426696 0.0928878253134 -1.3907438106 0.0528028808753 0.71454139128 -0.501492215536
8.75534666748 1.10662016233 -0.0536837984757 -8.71577617022 -0.927280888523 -0.506879036163 0.0940651455622 -1.3686954742 0.0481753805245 0.73182742677 -0.505352671572
8.79987369232 1.10483954109 -0.0572040602351 -8.71765517476 -0.929159893058 -0.502097692636 0.09543599379 -1.34706728588 0.0433754526459 0.748634413011 -0.509545250386
8.84475546202 1.10305672853 -0.0608018293303 -8.71950380814 -0.931008526443 -0.497409258794 0.0969937491985 -1.32590793601 0.038417455819 0.764926482707 -0.514062066769
8.88986838547 1.10127678936 -0.0644795172602 -8.72132430008 -0.932829018384 -0.492827867203 0.0987299738025 -1.30526510771 0.0333175000828 0.780670033325 -0.518890729408
8.93508263429 1.09950458078 -0.0682387569047 -8.7231191801 -0.934623898399 -0.488367613499 0.100634446889 -1.28518438147 0.0280933012926 0.795834552867 -0.524014254409
8.98056308861 1.09774466465 -0.0720803331748 -8.72489121725 -0.936395935552 -0.484042219101 0.102695270424 -1.2657081 0.0227639533606 0.810393425935 -0.529411163338
9.02604241711 1.09600122514 -0.0760041433349 -8.72664335154 -0.938148069837 -0.479864683544 0.104899045468 -1.24687427315 0.0173496258989 0.824324659788 -0.535055775118
9.07153401839 1.09416684303 -0.0800012554351 -8.72838351101 -0.939888229314 -0.475780419267 0.107227399414 -1.22876645027 0.0118868303209 0.837500848475 -0.540892838839
9.11692022414 1.09235531592 -0.0840772493819 -8.73010990677 -0.941614625066 -0.47186816939 0.109667226137 -1.21135718732 0.00638113463695 0.850026790656 -0.546913837708
9.16222354335 1.09056932278 -0.0882294827878 -8.73182550022 -0.943330218519 -0.468136590098 0.112202424314 -1.19466604102 0.000853398368597 0.861897161297 -0.553084337677
9.20728074385 1.08881098744 -0.0924546215543 -8.73353314131 -0.945037859613 -0.464592550173 0.11481663919 -1.17870561554 -0.00467606752045 0.873112422945 -0.559368529289
9.25238412527 1.08708188379 -0.0967487488975 -8.73523551386 -0.946740232163 -0.461241035565 0.117493600827 -1.16348156748 -0.0101878747088 0.883678591743 -0.56573009542
9.29738457045 1.08538305574 -0.101107492521 -8.73693509244 -0.948439810743 -0.45808512621 0.1202174467 -1.14899283505 -0.0156638897477 0.893606837418 -0.57213306636
9.34214258884 1.08371505291 -0.10552615718 -8.73863411186 -0.95013883016 -0.455126045803 0.122973005487 -1.13523209281 -0.0210874996823 0.90291293272 -0.578542600818
9.38678209046 1.08196902288 -0.109987271397 -8.74034035933 -0.951845077635 -0.452294879622 0.125736698872 -1.12223607535 -0.0264242765739 0.911508666537 -0.58488786111
9.43137586951 1.08025291018 -0.114498044417 -8.74204958646 -0.953554304757 -0.449658565381 0.128504149344 -1.10993235662 -0.0316816114708 0.919530749026 -0.59117566029
9.47635537501 1.07856614481 -0.119053609461 -8.74376322158 -0.955267939882 -0.447213418373 0.131263590494 -1.09829921627 -0.0368484225576 0.927004203122 -0.597378372008
9.51881970887 1.07690788759 -0.123649231395 -8.74548245111 -0.956987169416 -0.444954613859 0.1340045343 -1.08731176002 -0.0419154564096 0.933955829805 -0.603471317444
9.56138181116 1.07527709112 -0.128280366969 -8.74720823609 -0.958712954391 -0.442876408955 0.136717774289 -1.07694274986 -0.0468752029199 0.940413545575 -0.609432858356
9.60439248118 1.07367255242 -0.13294271622 -8.74894133262 -0.960446050924 -0.440972353405 0.139395361227 -1.06716334447 -0.0517217853188 0.946405807678 -0.615244400974
9.64822269697 1.07209296 -0.137632257517 -8.75068231439 -0.962187032689 -0.439235485756 0.142030548295 -1.05794376123 -0.0564508238983 0.951961120032 -0.620890310778
9.69315232668 1.07042923919 -0.142328102783 -8.75243786317 -0.963942581474 -0.43758684574 0.14460496713 -1.0492956085 -0.0610389135882 0.957006995358 -0.626313740126
9.73480195623 1.06878701432 -0.147043815838 -8.7542017449 -0.965706463204 -0.436090746525 0.147126839218 -1.0411424497 -0.0655060911721 0.961676275859 -0.631549730211
9.77347534371 1.0671649261 -0.151776337754 -8.75597412219 -0.967478840487 -0.434739585539 0.149592592449 -1.03345511267 -0.0698515408001 0.965994982321 -0.636590584098
9.81044170916 1.06556162718 -0.156522910135 -8.75775506531 -0.969259783609 -0.433525831146 0.151999479766 -1.0262052063 -0.0740753162434 0.96998804894 -0.641430706916
9.84575107968 1.0639758014 -0.16128105345 -8.75954456829 -0.971049286589 -0.432442105524 0.154345473041 -1.0193653545 -0.0781781952228 0.973679195375 -0.646066352108
9.87979478857 1.06240617636 -0.166048550299 -8.76134256369 -0.972847281994 -0.43148124725 0.156629169772 -1.01290935244 -0.0821615541573 0.97709085432 -0.650495387078
9.91260235935 1.06085153237 -0.170823426626 -8.76314893545 -0.974653653746 -0.430636357405 0.158849706018 -1.00681226917 -0.0860272558581 0.980244137805 -0.654717071045
9.94431647314 1.05920392298 -0.175582623286 -8.76496997791 -0.976474696208 -0.429825975089 0.160992420351 -1.00108381686 -0.0897581975057 0.983065236401 -0.65868642755
9.97516794846 1.05756850129 -0.180345894989 -8.76679880817 -0.978303526475 -0.429118646499 0.163071935946 -0.995664848424 -0.0933778965932 0.985669631775 -0.662452240002
10.0051737928 1.05594427853 -0.185111907403 -8.76863523392 -0.980139952221 -0.428508390908 0.165088576566 -0.990534811069 -0.0968890706238 0.988074172849 -0.666016768142
10.0344164165 1.05433032499 -0.189879492776 -8.77047904961 -0.981983767907 -0.42798956248 0.167042928436 -0.985674449449 -0.100294600304 0.990294530847 -0.669382937286
10.0630861486 1.05272577043 -0.194647627586 -8.77233004059 -0.983834758895 -0.42755684655 0.168935788196 -0.981065769795 -0.103597474212 0.992345253254 -0.672554205113
10.0911889356 1.05112980253 -0.199415416843 -8.7741879871 -0.985692705404 -0.427205251896 0.170768121446 -0.976691989251 -0.10680074587 0.994239825254 -0.675534450492
10.1192850849 1.0495416649 -0.204182079709 -8.77605266738 -0.987557385681 -0.426930099969 0.172541027109 -0.972537478371 -0.109907498324 0.995990733622 -0.678327877524
10.1472226714 1.04785473136 -0.2089218417 -8.77793036638 -0.989435084679 -0.42664959149 0.174240991372 -0.96861424492 -0.112903143667 0.99752131994 -0.680894596603
10.1751467065 1.04617384705 -0.213659304548 -8.77981413069 -0.991318848992 -0.42643702032 0.175884510806 -0.964879610196 -0.115809906749 0.998932810809 -0.683285594948
10.2030542549 1.0444984394 -0.21839397013 -8.78170375755 -0.993208475846 -0.426288564122 0.177472912276 -0.96132127496 -0.118630734287 1.00023483276 -0.685505530433
10.2309427888 1.04282797744 -0.223125410138 -8.78359904936 -0.995103767658 -0.42620065722 0.179007559142 -0.957927818391 -0.121368520141 1.00143628853 -0.687559123675
10.259088805 1.04116196971 -0.227853254801 -8.7854998139 -0.997004532199 -0.426169974553 0.180489834694 -0.954688639751 -0.124026092896 1.00254541015 -0.689451116493
10.2874927484 1.03949996174 -0.232577185667 -8.78740586479 -0.998910583091 -0.426193416354 0.181921130049 -0.951593901169 -0.12660620776 1.00356980999 -0.691186239234
10.3161553028 1.03784153354 -0.237296929226 -8.78931702184 -1.00082174014 -0.426268093314 0.183302834206 -0.948634473188 -0.129111540691 1.00451652864 -0.692769184047
10.3448916646 1.03608129594 -0.24198359256 -8.79123962219 -1.00274434049 -0.426311947502 0.184621643656 -0.945823439824 -0.131528776683 1.00530775814 -0.694162307084
10.3730446626 1.03432354401 -0.246665788071 -8.79316678998 -1.00467150828 -0.426401819974 0.185894126111 -0.943129477492 -0.133877642099 1.00603545216 -0.695414338702
10.4006156349 1.03256796874 -0.25134335201 -8.79509837503 -1.00660309333 -0.426535374636 0.18712160559 -0.940545454366 -0.136160490172 1.00670503216 -0.696529652591
10.4276157967 1.03081428472 -0.256016147311 -8.79703423332 -1.00853895162 -0.426710433459 0.188305380774 -0.938064744111 -0.138379590309 1.00732152394 -0.697512523645
10.4540562846 1.02906222868 -0.260684058555 -8.79897422646 -1.01047894476 -0.426924964843 0.1894467211 -0.935681188217 -0.140537127872 1.00788958845 -0.69836711982
10.4804685601 1.02731155796 -0.265346989161 -8.80091822156 -1.01242293987 -0.427177072967 0.190546864549 -0.933389060818 -0.142635205302 1.00841355073 -0.69909749685
10.5073824787 1.02556204896 -0.270004858887 -8.802866091 -1.0143708093 -0.427464988018 0.191607016047 -0.931183035932 -0.144675843592 1.0088974263 -0.699707594515
10.5346180187 1.02370950928 -0.274625514746 -8.80482420134 -1.01632891964 -0.427706225369 0.192613915831 -0.929076101014 -0.146646714375 1.00926342269 -0.700161277949
10.5623709394 1.02185744042 -0.279241172495 -8.80678577733 -1.01829049564 -0.427980081114 0.193583638184 -0.927044300476 -0.148565086422 1.00959765029 -0.700503899591
10.5906507874 1.02000568224 -0.283851791254 -8.80875071496 -1.02025543326 -0.428285115719 0.194517266718 -0.925083451814 -0.150432692858 1.00990323141 -0.700738957679
10.619467336 1.0181540874 -0.288457339752 -8.81071891437 -1.02222363267 -0.428619982677 0.195415851015 -0.923189654967 -0.152251197303 1.0101830747 -0.700869835662
10.6491242159 1.01630252061 -0.293057794079 -8.81269027945 -1.02419499775 -0.428983421508 0.196280406418 -0.921359271478 -0.154022196069 1.01043989147 -0.700899803528
10.6796457752 1.01445085773 -0.297653136621 -8.81466471763 -1.02616943593 -0.429374251609 0.197111914448 -0.919588905044 -0.155747220586 1.01067621051 -0.700832019615
10.7110571054 1.0125989851 -0.302243355173 -8.8166421397 -1.028146858 -0.429791366409 0.197911323429 -0.917875383825 -0.15742774 1.01089439219 -0.700669533098
10.7434550628 1.01064392882 -0.306793017433 -8.81862891051 -1.03013362881 -0.430151775109 0.198665463175 -0.916231062865 -0.159052352004 1.01101716087 -0.700377608316
10.7771319142 1.0086882033 -0.311337741605 -8.8206183526 -1.0321230709 -0.430536484517 0.199389783838 -0.914636806823 -0.160636199981 1.01112685236 -0.699998243441
10.8121381037 1.0067317313 -0.315877527572 -8.82261039309 -1.0341151114 -0.430944584401 0.200085122486 -0.913090103736 -0.162180535039 1.01122532531 -0.699534101952
10.8488899624 1.00477444251 -0.320412378331 -8.82460496151 -1.03610967981 -0.431375219543 0.200752287159 -0.911588601212 -0.163686558033 1.01131432069 -0.698987752868
10.8878603886 1.00281627324 -0.324942298927 -8.82660198952 -1.03810670782 -0.431827585729 0.201392057495 -0.910130095155 -0.165155421633 1.01139547012 -0.698361673803
10.9296317552 1.00085716593 -0.329467296087 -8.82860141079 -1.04010612909 -0.432300926223 0.202005185645 -0.908712519313 -0.166588232411 1.01147030373 -0.697658253992
10.9688513943 0.998897068809 -0.333987377898 -8.83060316088 -1.04210787918 -0.432794528495 0.202592397186 -0.907333935634 -0.167986052868 1.01154025736 -0.696879797363
11.0054929982 0.996834285482 -0.33846385935 -8.83261357808 -1.04411829638 -0.433224894116 0.203140687224 -0.906005919952 -0.169338372894 1.01152871946 -0.695992973734
11.0403196852 0.994770187437 -0.342935648711 -8.83462607798 -1.04613079628 -0.43367425843 0.203664886843 -0.904712573678 -0.170658552839 1.01151549143 -0.695036765966
11.0737524055 0.992704744243 -0.347402755917 -8.83664060716 -1.04814532546 -0.434142027978 0.204165633394 -0.903452349516 -0.171947497227 1.01150171846 -0.694013177562
11.1058469934 0.990637929374 -0.351865191651 -8.83865711345 -1.05016183175 -0.434627642474 0.204643542193 -0.902223792539 -0.1732060758 1.01148847894 -0.692924141679
11.1366570507 0.988569719963 -0.356322966779 -8.84067554577 -1.05218026407 -0.435130572613 0.2050992071 -0.901025533866 -0.174435124875 1.01147678871 -0.691771523515
11.166529796 0.986500096648 -0.360776092258 -8.84269585406 -1.05420057236 -0.435650317931 0.205533201429 -0.899856285122 -0.175635449002 1.0114676054 -0.690557123284
11.1954937871 0.984429043301 -0.365224579025 -8.84471798921 -1.05622270751 -0.436186405025 0.205946078634 -0.89871483298 -0.176807822217 1.01146183203 -0.689282678387
11.2238710268 0.982256218666 -0.36962653221 -8.84674824464 -1.05825296294 -0.436654863958 0.206325061115 -0.897612003985 -0.177942582338 1.01138351433 -0.687916258107
11.2511136717 0.980081718852 -0.374024074668 -8.8487801266 -1.0602848449 -0.437138843138 0.206684401155 -0.896534133518 -0.179051595007 1.01131068497 -0.686494210433
11.277792798 0.977905540586 -0.378417215594 -8.85081359351 -1.06231831181 -0.437637943369 0.207024585475 -0.895480246864 -0.180135520734 1.011244073 -0.685018047477
11.3039200925 0.97572768277 -0.382805964114 -8.85284860427 -1.06435332258 -0.438151786106 0.207346084573 -0.894449423995 -0.181194995964 1.01118436806 -0.683489230224
11.329506993 0.973548146463 -0.387190329006 -8.85488511833 -1.06638983663 -0.438680011995 0.207649353391 -0.893440796277 -0.182230634333 1.01113222295 -0.681909171039
11.3545646997 0.971366934703 -0.391570318674 -8.85692309549 -1.0684278138 -0.439222279775 0.20793483179 -0.892453543145 -0.183243027461 1.01108825576 -0.680279235162
11.3791041787 0.969184052472 -0.395945941143 -8.85896249603 -1.07046721433 -0.439778265072 0.208202945295 -0.891486889277 -0.184232746133 1.0110530521 -0.67860074307
11.4036091043 0.966900599817 -0.400272140577 -8.86100955479 -1.07251427309 -0.440263575428 0.208441187248 -0.890551007121 -0.185190921746 1.01095125032 -0.676843127983
11.4276081655 0.964615279578 -0.404594193906 -8.86305786868 -1.07456258698 -0.440762059633 0.208663274712 -0.889633811331 -0.186128156107 1.01085960634 -0.675040446049
11.4513468461 0.962328104544 -0.408912106359 -8.86510740312 -1.07661212142 -0.441273441097 0.208869583258 -0.888734676566 -0.187044937629 1.01077859795 -0.673193849843
11.4748279762 0.960039088803 -0.413225882911 -8.86715812369 -1.07866284199 -0.441797456321 0.20906047677 -0.887853010768 -0.187941738203 1.01070867906 -0.671304455542
11.4980543563 0.957748247693 -0.417535528125 -8.86920999609 -1.08071471439 -0.442333854089 0.209236307797 -0.886988253192 -0.188819013854 1.01065028101 -0.669373344285
11.5217248958 0.955455597778 -0.421841046155 -8.8712629861 -1.0827677044 -0.442882394704 0.209397418124 -0.886139872641 -0.189677205594 1.01060381391 -0.667401563963
11.545848088 0.953161156772 -0.426142440764 -8.8733170596 -1.0848217779 -0.443442849347 0.209544139112 -0.885307365714 -0.190516739939 1.01056966775 -0.665390130284
11.5701570154 0.950767555789 -0.430391546904 -8.87537838251 -1.08688310081 -0.443930452903 0.209664264593 -0.884500360885 -0.191329483744 1.0104729936 -0.663309784673
11.5949317198 0.948371995698 -0.434636740426 -8.87744064375 -1.08894536205 -0.444429606479 0.20977101384 -0.883707910574 -0.19212495766 1.01038959902 -0.661192579758
11.6201811083 0.945974499005 -0.438878022215 -8.87950381286 -1.09100853116 -0.444940112956 0.209864680799 -0.882929608328 -0.192903527668 1.01031980513 -0.659039405769
11.6459142587 0.943575089015 -0.443115392932 -8.88156785933 -1.09307257763 -0.445461783711 0.209945551035 -0.882165068387 -0.193665548354 1.01026391811 -0.6568511271
11.6721404163 0.94117378981 -0.447348852916 -8.88363275257 -1.09513747087 -0.445994438114 0.210013901956 -0.881413924523 -0.194411363323 1.01022222987 -0.654628583204
11.6988690075 0.938770626224 -0.451578402199 -8.88569846191 -1.09720318021 -0.446537903084 0.210070003187 -0.880675828971 -0.195141305731 1.01019501879 -0.65237258975
11.7261096322 0.936365623796 -0.455804040546 -8.88776495655 -1.09926967485 -0.447092012674 0.210114116683 -0.879950451404 -0.195855698463 1.01018255043 -0.650083938999
11.7535352431 0.933863035377 -0.459974547387 -8.88983832524 -1.10134304354 -0.447571675256 0.210134356606 -0.879246980218 -0.196547086313 1.01011041017 -0.647734614742
11.7817667357 0.931358457522 -0.464141343501 -8.89191235116 -1.10341706946 -0.448061737623 0.210143474175 -0.878555299367 -0.197224054075 1.0100536848 -0.645354903032
11.8108277477 0.928851918707 -0.468304425984 -8.89398700623 -1.10549172453 -0.448562055496 0.210141703325 -0.877875142784 -0.197886879736 1.01001259461 -0.642945502163
11.8407426052 0.926343447908 -0.472463791821 -8.89606226219 -1.10756698049 -0.449072490219 0.210129271833 -0.877206257485 -0.198535833179 1.00998735018 -0.640507091637
11.8718442872 0.923833074599 -0.476619437808 -8.89813809059 -1.10964280889 -0.44959290844 0.210106401594 -0.876548402866 -0.199171176644 1.00997815275 -0.638040333166
11.904179826 0.921320828732 -0.480771360566 -8.90021446279 -1.11171918109 -0.450123181834 0.210073308822 -0.875901350056 -0.199793164995 1.0099851947 -0.635545871296
11.937798114 0.918806740724 -0.484919556574 -8.90229135 -1.1137960683 -0.450663186827 0.210030204227 -0.875264881321 -0.200402045963 1.01000865988 -0.633024333946
11.9725871787 0.916196775423 -0.489009805281 -8.90437475704 -1.11587947534 -0.451127546215 0.209965535461 -0.874647835255 -0.20099098761 1.00997449715 -0.630448878051
12.0057071833 0.913584827396 -0.493096517581 -8.90645856405 -1.11796328235 -0.451601473301 0.209891608765 -0.874040709846 -0.201567755926 1.00995723561 -0.627848217301
12.0375072689 0.910970928789 -0.4971796876 -8.90854274426 -1.12004746256 -0.452084859774 0.209808613446 -0.873443330875 -0.202132564553 1.00995702857 -0.625222907877
12.0680399707 0.908355112077 -0.501259309443 -8.91062727064 -1.12213198894 -0.452577601114 0.209716734416 -0.87285553248 -0.202685621525 1.00997402277 -0.622573492679
12.0976488927 0.905737410064 -0.505335377158 -8.91271211596 -1.12421683426 -0.453079596359 0.209616152253 -0.872277156755 -0.203227129411 1.01000835864 -0.619900501642
12.1263619207 0.903117855881 -0.50940788476 -8.91479725276 -1.12630197106 -0.453590747923 0.209507043343 -0.871708053362 -0.203757285509 1.01006017059 -0.617204452189
12.1542060982 0.900496482954 -0.513476826216 -8.91688265337 -1.12838737167 -0.454110961471 0.209389580143 -0.871148079089 -0.204276282176 1.0101295871 -0.614485849988
12.1816347009 0.897781057357 -0.517485038408 -8.91897423311 -1.13047895141 -0.454554609842 0.209252552717 -0.87060579797 -0.204777860515 1.01014285868 -0.611718957989
12.2082341505 0.895063677632 -0.521489865888 -8.92106597192 -1.13257069022 -0.455007212399 0.209107839836 -0.870072164645 -0.205269062855 1.01017407725 -0.608931076209
12.234287396 0.892344378148 -0.52549130055 -8.92315784368 -1.13466256198 -0.455468685877 0.208955597468 -0.869547065923 -0.205750055366 1.01022335011 -0.606122655082
12.2598055827 0.889623193506 -0.529489334378 -8.92524982204 -1.13675454034 -0.45593894956 0.208795978308 -0.869030394035 -0.206221000151 1.01029078001 -0.603294135258
12.2847996324 0.88690015855 -0.533483959424 -8.92734188042 -1.13884659872 -0.456417925114 0.208629131825 -0.868522046394 -0.206682055361 1.01037646533 -0.600445947868
12.3092802438 0.884175308324 -0.537475167776 -8.92943399202 -1.14093871033 -0.456905536562 0.208455204503 -0.868021925229 -0.207133375517 1.01048050004 -0.597578515234
12.3332578981 0.881448678097 -0.54146295162 -8.93152612982 -1.14303084812 -0.457401710074 0.208274339799 -0.867529937472 -0.20757511144 1.01060297404 -0.594692250762
12.357328199 0.878629922967 -0.545387264621 -8.93362411488 -1.14512883318 -0.457820599425 0.20807567619 -0.867054433518 -0.208001531863 1.01067038617 -0.591762460867
12.3806712387 0.875809254419 -0.549308326439 -8.93572202971 -1.14722674801 -0.458247982773 0.207870678496 -0.866586709155 -0.208419033968 1.0107564825 -0.588815162572
12.4035352988 0.872986708142 -0.55322612742 -8.93781984854 -1.14932456684 -0.458683794554 0.207659477316 -0.866126692358 -0.208827748184 1.01086133788 -0.58585072627
12.4261540856 0.87016231997 -0.557140658039 -8.93991754536 -1.15142226366 -0.459127970999 0.207442200917 -0.865674314507 -0.209227802146 1.01098502368 -0.582869515475
12.4485301609 0.867336125913 -0.561051908932 -8.94201509394 -1.15351981224 -0.459580449943 0.207218975159 -0.865229510365 -0.209619320618 1.01112760812 -0.579871886697
12.4711109931 0.86450816214 -0.564959870882 -8.94411246785 -1.15561718615 -0.460041170788 0.206989923624 -0.864792217846 -0.210002425673 1.01128915624 -0.57685818983
12.4941262603 0.861678464958 -0.568864534822 -8.94620964044 -1.15771435874 -0.460510074447 0.206755167693 -0.864362377848 -0.210377236788 1.01146972996 -0.573828768398
12.5172062911 0.858758664699 -0.572703032592 -8.94831233438 -1.15981705268 -0.460901122327 0.206504197841 -0.863948175532 -0.210738509395 1.01159603077 -0.570759914839
12.5407310212 0.855836997444 -0.576538398275 -8.9504147375 -1.1619194558 -0.461300313448 0.206248075418 -0.86354116259 -0.211092060727 1.01174153022 -0.567676470662
12.564708932 0.852913499554 -0.580370621125 -8.95251682418 -1.16402154248 -0.461707595108 0.205986911642 -0.863141294793 -0.211437994225 1.01190627918 -0.564578745546
12.5891486743 0.849988207523 -0.584199690632 -8.95461856859 -1.16612328689 -0.462122915747 0.20572081591 -0.862748530196 -0.211776411178 1.01209032608 -0.561467043869
12.6140590557 0.847061157966 -0.588025596495 -8.9567199447 -1.168224663 -0.462546224914 0.20544989584 -0.86236282898 -0.212107410839 1.01229371683 -0.558341664947
12.6394490561 0.844132387602 -0.591848328623 -8.95882092632 -1.17032564462 -0.462977473234 0.205174257345 -0.861984153317 -0.212431090515 1.01251649489 -0.555202903233
12.665327826 0.841201933259 -0.595667877143 -8.96092148704 -1.17242620534 -0.463416612339 0.204894004654 -0.861612467302 -0.212747545594 1.01275870135 -0.552051048412
12.691248898 0.8381822855 -0.5994182861 -8.9630274319 -1.1745321502 -0.463779413798 0.204601924613 -0.861252055741 -0.213055187836 1.01294305777 -0.548870176439
12.7179361765 0.83516201134 -0.603165994758 -8.96513270365 -1.17663742195 -0.464148127514 0.204302718467 -0.860902209448 -0.213352830605 1.01315108708 -0.545670164383
12.7454098402 0.832139953082 -0.60691066873 -8.96723744317 -1.17874216147 -0.464524664081 0.203999530923 -0.860559130927 -0.213643847324 1.01337869813 -0.542458358117
12.7736929514 0.829116148991 -0.610652295479 -8.96934162697 -1.18084634527 -0.464908986481 0.203692431221 -0.860222794424 -0.213928301726 1.01362592036 -0.539234964263
12.8031004137 0.826090635899 -0.614390864108 -8.97144522918 -1.18294994748 -0.465301052871 0.203381512707 -0.859893177445 -0.214206273389 1.01389278268 -0.536000237929
12.8336768193 0.823063450712 -0.618126363995 -8.97354822377 -1.18505294207 -0.465700822151 0.203066867341 -0.859570258736 -0.214477840368 1.01417931201 -0.532754430367
12.8654685213 0.820034630412 -0.621858784794 -8.97565058456 -1.18715530286 -0.466108253887 0.202748585789 -0.859254018232 -0.214743079298 1.01448553335 -0.529497789255
12.8981614838 0.81691903367 -0.625519411735 -8.97775802643 -1.18926274474 -0.466438743729 0.202418937107 -0.858949239091 -0.215000047326 1.01473484323 -0.526213397684
12.9293205145 0.813802818028 -0.629177555216 -8.97986452564 -1.19136924394 -0.466774854583 0.202083652022 -0.858654691895 -0.215248245491 1.01500812641 -0.522913138942
12.9592396943 0.810684863714 -0.632832762305 -8.98197028301 -1.19347500131 -0.467118581769 0.201745321571 -0.858366661213 -0.215490638863 1.01530119723 -0.519603190465
12.9879682361 0.807565209238 -0.636485019813 -8.98407527544 -1.19557999374 -0.467469893939 0.201404005166 -0.858085133217 -0.215727278179 1.01561407205 -0.51628372966
13.0158292712 0.804443891359 -0.640134316532 -8.98617947722 -1.19768419552 -0.467828755727 0.201059784629 -0.85781009715 -0.215958227479 1.01594676624 -0.512954976574
13.0428488983 0.801320946884 -0.643780641568 -8.98828286251 -1.19978758082 -0.468195132256 0.200712740695 -0.857541542963 -0.216183549662 1.01629929355 -0.509617148336
13.0690524312 0.798196412676 -0.647423984333 -8.99038540537 -1.20189012367 -0.468568989064 0.200362953077 -0.857279461302 -0.216403306564 1.01667166613 -0.506270459363
13.0949770483 0.794987234573 -0.650992857767 -8.99249280751 -1.20399752581 -0.4688659398 0.200002976708 -0.857028063169 -0.216616074885 1.01698672945 -0.502898826985
13.1201231312 0.791777435193 -0.654559448326 -8.99459900286 -1.20610372116 -0.469168286881 0.199638710363 -0.856786680759 -0.216821102736 1.01732593413 -0.499514157541
13.1450003728 0.788565939168 -0.658123192345 -8.99670425358 -1.20820897188 -0.46947808803 0.199272245384 -0.856551652123 -0.21702101799 1.017685033 -0.496121621436
13.1703572795 0.785352785045 -0.661684076284 -8.99880853699 -1.21031325529 -0.469795316035 0.198903633101 -0.85632297149 -0.217215861135 1.01806403197 -0.492721372834
13.1964614598 0.782138009323 -0.665242088804 -9.00091182757 -1.21241654587 -0.470119940407 0.198532945904 -0.856100635856 -0.21740568395 1.01846293549 -0.489313603918
13.223334834 0.778921648534 -0.668797218904 -9.00301409973 -1.21451881803 -0.470451930955 0.198160255308 -0.855884642567 -0.217590537352 1.01888174663 -0.485898504626
13.2509999673 0.775703739244 -0.672349455914 -9.00511532777 -1.21662004607 -0.47079125773 0.197785631997 -0.855674989317 -0.217770471444 1.0193204671 -0.482476262796
13.2791640501 0.772403581088 -0.675824651882 -9.00722116489 -1.21872588319 -0.471053458756 0.197401528201 -0.855475853621 -0.217944153323 1.01970199162 -0.479030748531
13.3084540265 0.769102787339 -0.679297751167 -9.00932553485 -1.22083025315 -0.471320880677 0.197014370994 -0.855286595692 -0.21811097092 1.02010771856 -0.475574687867
13.3389090378 0.765800333833 -0.682768086657 -9.01142876241 -1.22293348072 -0.471595626051 0.196625792838 -0.855103588682 -0.218273269072 1.02053336597 -0.472112367194
13.3708919439 0.762496258992 -0.68623564468 -9.01353082533 -1.22503554363 -0.471877670712 0.196235838217 -0.854926832183 -0.218431080033 1.02097893111 -0.468643921783
13.4048151381 0.759190598918 -0.689700413888 -9.01563169834 -1.22713641664 -0.472166987907 0.195844571562 -0.854756328157 -0.218584445744 1.02144440935 -0.465169521182
13.4407961921 0.755883389732 -0.693162383285 -9.01773135615 -1.22923607445 -0.472463551042 0.195452056578 -0.85459207867 -0.218733407477 1.02192979483 -0.46168933317
13.4793414362 0.752574667573 -0.696621542227 -9.01982977341 -1.23133449171 -0.472767333635 0.195058356272 -0.854434085901 -0.218878005872 1.02243508047 -0.458203523869
13.5205643039 0.749186169902 -0.700001160785 -9.02193255277 -1.23343727107 -0.472993798358 0.194655848752 -0.854286494265 -0.219017017153 1.02288320856 -0.454695982493
13.5583295573 0.745797009557 -0.703378855138 -9.02403360869 -1.23553832699 -0.473225347458 0.194251430922 -0.854148693256 -0.219149916232 1.02335551058 -0.451180106047
13.5935708194 0.742406220339 -0.706753861871 -9.02613332934 -1.23763804764 -0.473464113578 0.193846310417 -0.854017080162 -0.219278808278 1.0238476922 -0.447659397253
13.6302602225 0.739013840423 -0.710126167325 -9.02823169294 -1.23973641124 -0.473710074793 0.193440525756 -0.853891658004 -0.21940371885 1.02435974346 -0.444133975735
13.6700078004 0.735619905419 -0.713495760219 -9.03032867458 -1.24183339288 -0.473963207244 0.193034134464 -0.853772431716 -0.219524681899 1.02489165195 -0.440603992307
13.7141398 0.732224450943 -0.716862629633 -9.03242424934 -1.24392896764 -0.474223487126 0.192627193433 -0.853659406169 -0.219641730848 1.02544340418 -0.437069596352
13.7642307361 0.728827512616 -0.720226765008 -9.03451839225 -1.24602311055 -0.474490890654 0.192219758953 -0.853552586179 -0.21975489861 1.02601498559 -0.433530935906
13.8090014634 0.725353347702 -0.723508935281 -9.03661665311 -1.24812137141 -0.474680805926 0.191804156845 -0.853456083601 -0.219863083671 1.02652938407 -0.42997197289
13.8492939491 0.721878479939 -0.726789340346 -9.03871293878 -1.25021765708 -0.474875700293 0.19138770572 -0.853369315414 -0.219965807175 1.0270678515 -0.426406652244
13.8865205646 0.718402007665 -0.730067127629 -9.04080770119 -1.25231241949 -0.475077723855 0.190971217572 -0.853288697402 -0.220064969668 1.0276261005 -0.422837776297
13.9212581486 0.714923968718 -0.733342283593 -9.04290091909 -1.25440563739 -0.475286856335 0.190554725589 -0.853214234625 -0.220160591208 1.02820411488 -0.419265451455
13.9567095639 0.711444398152 -0.736614797057 -9.04499256797 -1.25649728627 -0.475503076135 0.190138281119 -0.85314593356 -0.220252699186 1.02880187553 -0.415689812708
13.9946332614 0.707963331019 -0.73988465721 -9.04708262334 -1.25858734164 -0.475726361635 0.189721934947 -0.853083800495 -0.220341320559 1.02941936232 -0.412110993856
14.0359406592 0.704480802364 -0.743151853606 -9.04917106075 -1.26067577905 -0.47595669116 0.189305737315 -0.853027841557 -0.220426481868 1.03005655421 -0.408529127563
14.0744959126 0.700923669003 -0.746334736927 -9.05126337436 -1.26276809266 -0.47610937926 0.188881978615 -0.852982136193 -0.220507213164 1.03063648283 -0.404928293759
14.1103863699 0.697365779588 -0.74951600047 -9.05335346606 -1.26485818436 -0.476266966544 0.188458358529 -0.852946125348 -0.220583049974 1.03124030907 -0.401322880371
14.1442118846 0.693806303259 -0.752694709761 -9.05544185144 -1.26694656974 -0.476431609591 0.188035319155 -0.852916241534 -0.220655716812 1.03186376939 -0.397715059695
14.1764097113 0.690245277454 -0.755870851447 -9.05752850978 -1.26903322808 -0.476603289324 0.18761288879 -0.852892490848 -0.220725229162 1.03250684223 -0.394104926741
14.2070578713 0.686682736638 -0.759044414461 -9.05961341708 -1.27111813538 -0.476781985925 0.187191113116 -0.852874880272 -0.220791608971 1.03316950257 -0.390492602852
14.2365223915 0.683118715262 -0.762215388104 -9.06169654937 -1.27320126767 -0.476967679501 0.186770037295 -0.852863416523 -0.220854877819 1.03385172451 -0.386878208342
14.2648487052 0.679553247765 -0.765383762048 -9.06377788274 -1.27528260104 -0.477160350048 0.186349705987 -0.852858106076 -0.22091505693 1.03455348125 -0.383261862545
14.292896459 0.675915867912 -0.768465553674 -9.06586285264 -1.27736757094 -0.477275239732 0.185922386951 -0.852862995388 -0.22097131444 1.03519784656 -0.379627802871
14.3223815926 0.672277666162 -0.771545857082 -9.06794535941 -1.27945007771 -0.477394969503 0.185496126082 -0.852877545099 -0.22102317521 1.03586587997 -0.375990768544
14.353384189 0.668637888322 -0.774623663334 -9.07002598175 -1.28153070005 -0.477521692754 0.185071018923 -0.852898205474 -0.22107221123 1.03655335677 -0.372352362386
14.3863079863 0.664996571382 -0.777698959295 -9.07210469954 -1.28360941784 -0.477655391271 0.184647089196 -0.852924982926 -0.221118434151 1.0372602507 -0.36871266937
14.4216213454 0.661353749206 -0.780771734001 -9.07418148934 -1.28568620764 -0.47779604665 0.184224377264 -0.852957884206 -0.221161861351 1.03798653155 -0.365071798822
14.4598760966 0.657709455637 -0.783841976858 -9.07625632777 -1.28776104607 -0.47794364037 0.183802922998 -0.852996915747 -0.221202509893 1.03873216827 -0.361429859148
14.5021498122 0.654063724496 -0.786909677639 -9.07832919153 -1.28983390983 -0.478098153753 0.183382765793 -0.853042083693 -0.221240396523 1.03949712904 -0.357786957873
14.5492610946 0.650348841437 -0.789888607457 -9.08040545391 -1.29191017222 -0.47817475788 0.182956160179 -0.853097399972 -0.221274831953 1.04020452828 -0.354127525344
14.5914981224 0.646633058668 -0.792866166317 -9.0824790179 -1.2939837362 -0.478256160181 0.18253146795 -0.853162340574 -0.221305310551 1.04093531475 -0.350466570078
14.6305198083 0.642915704034 -0.795841278457 -9.08455052436 -1.29605524266 -0.478344502299 0.182108459799 -0.853233376551 -0.221333271275 1.04168531592 -0.346805178506
14.6691710992 0.639196814061 -0.798813930973 -9.0866199538 -1.2981246721 -0.478439766624 0.181687155094 -0.85331051412 -0.221358722521 1.04245450141 -0.343143426592
14.7110418124 0.635476422014 -0.801784112986 -9.0886872834 -1.3001920017 -0.478541935882 0.181267589119 -0.853393759283 -0.221381677807 1.0432428364 -0.339481412865
14.7575765202 0.631754561138 -0.804751813981 -9.09075249046 -1.30225720876 -0.478650992643 0.18084979668 -0.853483117693 -0.22140215036 1.04405028531 -0.335819235004
14.7994799223 0.628031264647 -0.807717023808 -9.09281555234 -1.30432027064 -0.478766919292 0.180433812127 -0.853578594682 -0.221420153122 1.04487681183 -0.332156989874
14.8385891241 0.624241642455 -0.810591356391 -9.0948817764 -1.3063864947 -0.478804817244 0.180011883266 -0.853684165042 -0.221435142396 1.04564556995 -0.328479333475
14.8749713175 0.620451031675 -0.81346442049 -9.09694507313 -1.30844979143 -0.478847485694 0.179592661111 -0.853799316178 -0.221446566271 1.04643738891 -0.324801468702
14.9092592183 0.61665884701 -0.816335081366 -9.09900614429 -1.31051086259 -0.478897046904 0.179175612138 -0.853920544377 -0.221455746939 1.04724816037 -0.321124012955
14.9418962101 0.612865124506 -0.819203326345 -9.10106497104 -1.31256968934 -0.478953483674 0.178760751528 -0.854047855303 -0.22146269002 1.04807785034 -0.317447033964
14.9729615084 0.609069896862 -0.822069144605 -9.10312153124 -1.31462624954 -0.47901677963 0.178348109644 -0.854181253858 -0.221467405729 1.04892641991 -0.313770620376
15.002826232 0.605273196747 -0.82493252568 -9.10517580291 -1.31668052121 -0.479086918217 0.177937716392 -0.854320744576 -0.221469904014 1.04979382946 -0.310094860037
15.0315365278 0.601475056799 -0.82779345947 -9.10722776416 -1.31873248246 -0.479163882671 0.177529601233 -0.854466331659 -0.22147019455 1.05068003876 -0.306419840021
15.0598678698 0.597613480899 -0.830561493788 -9.10928265234 -1.32078737064 -0.47916270631 0.17711600919 -0.854621949007 -0.221467881177 1.05150824045 -0.302730472876
15.0873737359 0.593750817579 -0.83332834682 -9.11133439096 -1.32283910927 -0.479166284554 0.176705856863 -0.854787092279 -0.221462353067 1.05235913634 -0.29904208616
15.1157246604 0.589886572595 -0.83609283289 -9.11338374102 -1.32488845932 -0.479176713478 0.17629832644 -0.854958288396 -0.221454829315 1.05322869299 -0.29535487118
15.144946334 0.586020781521 -0.838854939549 -9.11543068435 -1.32693540265 -0.479193976143 0.175893429045 -0.855135542233 -0.221445313149 1.05411687321 -0.291668888017
15.175366433 0.582153476527 -0.841614655996 -9.11747519959 -1.32897991789 -0.479218056893 0.175491190247 -0.855318857365 -0.221433811941 1.05502363449 -0.287984216139
15.2070338393 0.57828468975 -0.844371971788 -9.11951726548 -1.33102198378 -0.479248939869 0.175091635168 -0.855508236997 -0.221420332802 1.05594893368 -0.284300934239
15.240329073 0.574414453295 -0.847126876838 -9.12155686095 -1.33306157925 -0.479286608985 0.174694788498 -0.855703683997 -0.221404882585 1.05689272706 -0.280619120265
15.2758695854 0.570483731976 -0.849786945869 -9.12359914909 -1.33510386739 -0.479246031238 0.174292894122 -0.855909086437 -0.221387213827 1.05777824538 -0.276923973014
15.3136080238 0.566551815728 -0.852445905094 -9.12563807241 -1.33714279071 -0.479210201883 0.173895113194 -0.856123946111 -0.221366646602 1.05868605571 -0.273230878847
15.3543080804 0.562618304887 -0.855102526102 -9.12767444922 -1.33917916752 -0.479181184761 0.173500363114 -0.856344826565 -0.221344308479 1.05961220907 -0.269539642459
15.3920767928 0.558683234578 -0.857756796653 -9.12970826208 -1.34121298038 -0.479158963077 0.173108651061 -0.856571731741 -0.221320200606 1.06055666551 -0.265850316743
15.4276704413 0.554746636495 -0.860408705944 -9.13173949039 -1.34324420869 -0.479143521742 0.172719997912 -0.856804663759 -0.221294327882 1.06151937934 -0.262162972523
15.4615494466 0.550808542297 -0.863058243522 -9.13376811372 -1.34527283203 -0.479134845448 0.172334424106 -0.857043624379 -0.221266694948 1.06250030431 -0.25847767987
15.4937961464 0.546868983609 -0.865705399288 -9.13579411183 -1.34729883013 -0.479132918645 0.171951949667 -0.857288615023 -0.221237306193 1.06349939366 -0.254794508124
15.5275568871 0.542871950329 -0.868255869737 -9.13782256915 -1.34932728745 -0.479052644024 0.171564816846 -0.857543471805 -0.22120606343 1.06443991596 -0.251098971273
15.5599607198 0.538873607345 -0.870805285785 -9.13984745358 -1.35135217188 -0.47897711943 0.171182412674 -0.857807701767 -0.221172209412 1.06540229691 -0.247406451515
15.5911127181 0.534873652407 -0.873352384606 -9.14186963856 -1.35337435686 -0.478908371115 0.170803408986 -0.858077911395 -0.221136790021 1.06638268048 -0.243716403691
15.6210609824 0.530872120219 -0.875897154154 -9.14388910739 -1.35539382569 -0.47884638234 0.170427809121 -0.858354103614 -0.221099804584 1.06738102428 -0.240028873861
15.650139702 0.526869042063 -0.878439583599 -9.14590584031 -1.35741055861 -0.478791138457 0.170055629363 -0.858636279044 -0.221061255829 1.06839727991 -0.236343924637
15.6783739001 0.522864449186 -0.880979662457 -9.14791981773 -1.35942453603 -0.478742624586 0.16968688557 -0.85892443795 -0.221021146228 1.0694313984 -0.232661617886
15.7057878864 0.5188583728 -0.883517380592 -9.14993102026 -1.36143573856 -0.478700825595 0.169321593196 -0.859218580273 -0.220979477997 1.07048333033 -0.228982014761
15.7327569954 0.514797889139 -0.885956652897 -9.15194444922 -1.36344916752 -0.478580582176 0.168951990357 -0.859522482838 -0.220936302371 1.0714763822 -0.225290972877
15.760553083 0.510735975261 -0.888394909887 -9.15395410455 -1.36545882285 -0.478465096624 0.168587673472 -0.85983565844 -0.2208907781 1.07249083226 -0.221603809582
15.7892029344 0.506672428426 -0.890830862706 -9.15596091244 -1.36746563074 -0.478356352911 0.16822708784 -0.8601547629 -0.220843877814 1.07352292486 -0.217919664393
15.8187325164 0.502607282963 -0.893264499488 -9.15796485696 -1.36946957526 -0.47825433428 0.167870233078 -0.860479798106 -0.22079559923 1.07457261554 -0.214238576837
15.8491686068 0.498540569811 -0.895695809362 -9.1599659192 -1.3714706375 -0.478159026416 0.167517120979 -0.860810763182 -0.220745943152 1.07563985352 -0.210560601663
15.880852494 0.49447231988 -0.898124781794 -9.16196408044 -1.37346879875 -0.478070414761 0.167167762926 -0.861147656911 -0.220694910125 1.07672458755 -0.206885792886
15.9138350773 0.490402564038 -0.900551406598 -9.1639593222 -1.3754640405 -0.477988484497 0.166822169918 -0.861490477769 -0.220642500435 1.07782676593 -0.203214203814
15.9489369363 0.486281523171 -0.902877915349 -9.1659565582 -1.3774612765 -0.477828016985 0.166472571495 -0.861842934775 -0.220588914533 1.07886973345 -0.199532063796
15.986212324 0.482158927431 -0.905203431444 -9.16794982723 -1.37945454553 -0.477672319884 0.166128759099 -0.86220454847 -0.22053322174 1.07993361543 -0.195854566485
16.0260914688 0.478034674953 -0.907526648386 -9.16994010572 -1.38144482402 -0.477523330825 0.16578897036 -0.862572030324 -0.220476328702 1.08101476302 -0.192180568772
16.0633965106 0.473908799732 -0.909847554482 -9.17192737848 -1.38343209678 -0.477381032976 0.165453201297 -0.862945381205 -0.220418231702 1.08211313005 -0.1885101039
16.0985531061 0.469781332447 -0.912166138811 -9.17391162749 -1.38541634579 -0.477245412259 0.165121459329 -0.863324598789 -0.220358929819 1.08322866369 -0.184843219057
16.132016056 0.465652303745 -0.914482390786 -9.17589283496 -1.38739755326 -0.477116454347 0.164793751488 -0.863709680437 -0.220298421871 1.08436131075 -0.181179960708
16.1645069077 0.461521744236 -0.916796300165 -9.17787098328 -1.38937570158 -0.476994144641 0.164470084441 -0.864100623215 -0.220236706405 1.08551101765 -0.177520374619
16.1985458196 0.457343074772 -0.919008515035 -9.17985089421 -1.39135561251 -0.476793208236 0.164142672857 -0.86450105864 -0.220174132599 1.08660116827 -0.17385108971
16.2311027625 0.453162723278 -0.921219743525 -9.18182665228 -1.39333137058 -0.476597058107 0.163821490919 -0.864910518564 -0.220109675929 1.08771172992 -0.170187118701
16.2624019363 0.448980689382 -0.923428669827 -9.18379928145 -1.39530399975 -0.47640758208 0.163504587278 -0.865325776191 -0.220044183379 1.08883916607 -0.166527066969
16.2924916862 0.444797006803 -0.925635282419 -9.1857687673 -1.3972734856 -0.476224763202 0.163191954495 -0.865746831418 -0.219977649937 1.08998342908 -0.162870961701
16.3222950399 0.440611706039 -0.927839570334 -9.18773509273 -1.39923981103 -0.476048587547 0.162883595754 -0.86617368056 -0.219910073119 1.09114446449 -0.159218842797
16.3530131121 0.436424817557 -0.930041522939 -9.18969824083 -1.40120295913 -0.475879040929 0.162579513873 -0.866606319635 -0.219841450173 1.09232221746 -0.15557074944
16.3849903521 0.432236371787 -0.932241129937 -9.19165819495 -1.40316291325 -0.475716108892 0.162279711334 -0.867044744393 -0.219771778069 1.09351663285 -0.151926720132
16.4186225846 0.428003041835 -0.934337557201 -9.19361968066 -1.40512439896 -0.475474463784 0.16197637982 -0.867492497992 -0.219701553948 1.09465113495 -0.148273810955
16.4539855124 0.423767901855 -0.936432988176 -9.19557683499 -1.4070815533 -0.475237622829 0.161679666077 -0.867949128776 -0.219629655869 1.0958055283 -0.144626797933
16.4911673027 0.419531052852 -0.938526105952 -9.19753072668 -1.40903544499 -0.475007421174 0.161387448244 -0.86841147744 -0.219556876703 1.09697639332 -0.140984064638
16.5306521313 0.415292528326 -0.940616899188 -9.1994813421 -1.4109860604 -0.4747838417 0.161099715579 -0.868879542975 -0.219483210249 1.09816368117 -0.137345632411
16.573092725 0.411052358675 -0.942705356884 -9.20142866503 -1.41293338333 -0.474566870552 0.160816467187 -0.869353320441 -0.219408652592 1.09936733605 -0.133711534119
16.612607921 0.406810574271 -0.944791468374 -9.2033726795 -1.4148773978 -0.474356493614 0.160537701837 -0.869832804626 -0.219333199532 1.10058730182 -0.130081801925
16.6498469295 0.402567205444 -0.946875223328 -9.20531336979 -1.41681808809 -0.474152696492 0.16026341799 -0.870317990074 -0.219256846587 1.10182352207 -0.126456467323
16.6855735005 0.39828222678 -0.948854407995 -9.20725536136 -1.41876007966 -0.473870102814 0.159985774461 -0.870812319592 -0.219180237837 1.10299946332 -0.122823040888
16.7196314535 0.393995310892 -0.950832570637 -9.20919285031 -1.42069756861 -0.473592331946 0.159715082493 -0.871315364831 -0.219102151064 1.10419476284 -0.119196007604
