liuchen18/hilsys_new/sim_sys/data/fwx_planned_trajectory_cehou.txt
this is the FWX joint values,the following info is time,x,y,theta,joint1,joint2,joint3,joint4,joint5,joint6,joint7
0.0 2.3595576822 0.540449657872 -0.160114415469 0.216485236236 -0.685595057051 -1.51280366469 -1.38265435512 0.491183932178 0.0194893824066 0.385063209103
0.127652535687 2.35524954683 0.540210742447 -0.160392769794 0.215560984231 -0.686965444162 -1.51284036744 -1.38127624441 0.490630363752 0.0220122439442 0.384496875732
0.224951534305 2.3509403178 0.539970442836 -0.160669590688 0.214636365627 -0.688328788152 -1.51287943176 -1.37989694294 0.490081806564 0.0245365058502 0.383934137852
0.308035840858 2.34662998354 0.539728771724 -0.160944864276 0.213711406006 -0.689685111182 -1.51292085883 -1.37851647116 0.489538205425 0.0270620989327 0.383375018295
0.382320284259 2.3423185326 0.539485741859 -0.161218576844 0.212786130888 -0.691034435977 -1.51296464934 -1.37713484926 0.488999505225 0.0295889544099 0.382819539146
0.450255254846 2.33800620914 0.539241229594 -0.161490999726 0.211860215257 -0.692377202786 -1.51301125412 -1.37575194003 0.488466001651 0.0321163500958 0.382268080233
0.513008727979 2.33369273991 0.538995376649 -0.161761849128 0.210934013685 -0.693712922443 -1.51306027229 -1.37436793587 0.48793733246 0.0346449434522 0.381720357298
0.572141111268 2.32937811979 0.538748202414 -0.16203109615 0.210007572234 -0.695041710941 -1.51311165589 -1.37298283947 0.487413400542 0.0371745957245 0.381176339725
0.6278614922 2.32506233796 0.538499719874 -0.162298727711 0.209080916166 -0.696363593337 -1.5131654037 -1.37159667002 0.486894151157 0.0397052396696 0.380636046566
0.680891922397 2.32074538379 0.538249942063 -0.162564730902 0.208154070659 -0.697678595173 -1.51322151405 -1.37020944647 0.486379529722 0.0422368085106 0.380099496144
0.731867002832 2.31642725378 0.537998888498 -0.162829077213 0.207227081812 -0.698986841175 -1.51327993474 -1.36882116865 0.485869439021 0.0447691602227 0.379566651258
0.780866671906 2.3121079234 0.537746559324 -0.163091785855 0.206299932314 -0.700288158432 -1.51334076394 -1.36743189312 0.485363911103 0.0473023819905 0.379037639336
0.828438517749 2.30778738971 0.537492974234 -0.16335282842 0.205372668369 -0.701582674789 -1.51340394799 -1.36604161879 0.484862848342 0.0498363310066 0.378512420685
0.874624248058 2.30346564271 0.537238146422 -0.163612192681 0.204445314787 -0.702870417825 -1.51346948342 -1.3646503636 0.484366196827 0.0523709422605 0.377991010658
0.919464349761 2.29914267258 0.536982089113 -0.163869866598 0.203517896267 -0.704151415525 -1.51353736636 -1.36325814524 0.483873902871 0.0549061512566 0.37747342391
0.962998038054 2.29481847807 0.536724821926 -0.164125822462 0.202590458602 -0.705425803562 -1.51360753962 -1.36186495982 0.483385869647 0.0574418125778 0.37695961465
1.00568628665 2.29049303256 0.536466345347 -0.164380080444 0.201662983672 -0.706693394326 -1.51368010467 -1.3604708676 0.482902131243 0.059978027053 0.376449716458
1.04754551688 2.28616633537 0.536206679114 -0.164632613013 0.200735517258 -0.707954326354 -1.51375500306 -1.3590758638 0.482422590655 0.0625146486623 0.375943681187
1.08859191377 2.28183837734 0.535945836555 -0.164883408841 0.199808083619 -0.709208629404 -1.51383222924 -1.35767996515 0.481947195111 0.0650516148057 0.37544152061
1.12884134039 2.27750914944 0.535683831013 -0.165132456785 0.198880706882 -0.710456333568 -1.51391177728 -1.35628318812 0.481475892115 0.0675888634323 0.374943245831
1.16830925903 2.27317865274 0.535420681966 -0.165379730307 0.197953432006 -0.711697584303 -1.51399358592 -1.35488552524 0.481008586268 0.0701262465095 0.374448803149
1.20701109496 2.26884685841 0.535156390499 -0.165625249917 0.197026240829 -0.712932180577 -1.51407775861 -1.35348704033 0.480545312512 0.0726638774642 0.373958331351
1.24496170357 2.26451376811 0.534890976161 -0.165868989319 0.196099178192 -0.714160270467 -1.51416423302 -1.35208772508 0.480085975475 0.0752016078132 0.373471774519
1.28217573409 2.26017937346 0.534624452338 -0.16611093811 0.195172267713 -0.71538188557 -1.51425300169 -1.35068759503 0.479630523793 0.0777393775125 0.372989140997
1.31903246596 2.25584366625 0.534356832421 -0.166351086078 0.194245532866 -0.716597057748 -1.51434405681 -1.3492866655 0.479178906429 0.0802771270918 0.372510438487
1.35553529974 2.25150664987 0.534088135521 -0.166589408166 0.193319017293 -0.717805941116 -1.51443733395 -1.34788492559 0.478731030312 0.0828147065761 0.372035606087
1.39168788848 2.24716829323 0.533818363565 -0.166825924675 0.192392703491 -0.719008322446 -1.51453293725 -1.34648244254 0.478286930207 0.0853522410335 0.371564786865
1.42749355395 2.24282860033 0.533547535688 -0.167060610849 0.1914666349 -0.720204358254 -1.51463080144 -1.34507920466 0.477846513245 0.0878895801661 0.371097917837
1.46295568745 2.23848756359 0.53327566527 -0.167293457235 0.190540834412 -0.721394081625 -1.5147309173 -1.34367522637 0.477409729711 0.0904266666073 0.370635004102
1.49807763856 2.23414517557 0.533002765682 -0.167524454569 0.189615324773 -0.722577525862 -1.51483327532 -1.34227052189 0.476976530247 0.0929634435684 0.370176050139
1.53286262252 2.22980144202 0.532728855461 -0.167753579555 0.188690147886 -0.723754852657 -1.51493780878 -1.34086507708 0.47654682489 0.0954997597201 0.369720988577
1.56731413485 2.22545632952 0.532453937595 -0.16798085178 0.187765287538 -0.72492583777 -1.51504462137 -1.33945896243 0.476120647333 0.0980357508844 0.369269965849
1.60143531897 2.22110984441 0.532178030602 -0.168206248302 0.186840785347 -0.726090645075 -1.51515364566 -1.33805216302 0.475697907958 0.100571265521 0.368822912648
1.63522939012 2.21676197988 0.531901147794 -0.168429760628 0.185916663419 -0.72724930883 -1.51526487092 -1.33664469225 0.475278558892 0.103106249016 0.368379831017
1.66869953574 2.21241272927 0.531623302463 -0.168651380453 0.184992943707 -0.728401863463 -1.5153782861 -1.3352365633 0.474862552648 0.105640647337 0.367940722413
1.70184879037 2.20806210063 0.531344512382 -0.16887108648 0.184069665992 -0.729548477192 -1.51549382302 -1.33382775898 0.474449803023 0.108174308314 0.367505513752
1.73468050129 2.20371005823 0.531064781798 -0.169088897137 0.183146815925 -0.730688915912 -1.51561158382 -1.33241835283 0.474040341871 0.110707377691 0.367074353931
1.76719764281 2.1993566107 0.53078412843 -0.169304791525 0.182224432929 -0.731823349815 -1.51573149978 -1.33100832694 0.47363408346 0.113239703191 0.366647168082
1.79940326572 2.195001752 0.530502565462 -0.169518762115 0.181302538273 -0.732951814038 -1.51585355879 -1.32959769372 0.473230981911 0.115771232992 0.366223955397
1.8313003976 2.19064547621 0.530220106055 -0.169730801564 0.18038115306 -0.734074343823 -1.51597774849 -1.32818646541 0.47283099176 0.118301915867 0.365804714525
1.86289191548 2.18628779363 0.52993676705 -0.169940890775 0.179460314629 -0.73519111293 -1.51610399999 -1.32677462194 0.472434031095 0.120831599236 0.365389367426
1.8941810184 2.18192866625 0.529652554128 -0.170149046619 0.178540010987 -0.73630187848 -1.51623241292 -1.32536223975 0.472040129295 0.123360438005 0.364978064595
1.9248636907 2.17756810494 0.529367484042 -0.170355250437 0.177620279049 -0.737406816001 -1.516362918 -1.3239492981 0.471649205026 0.125888279582 0.364570726363
1.95555648821 2.17320610438 0.529081569804 -0.170559495658 0.176701139202 -0.738505961226 -1.51649550196 -1.32253580851 0.471261214522 0.128415074956 0.364167349289
1.98625945262 2.16884265938 0.528794824389 -0.170761775898 0.175782611658 -0.739599349928 -1.51663015129 -1.32112178234 0.470876114456 0.130940775723 0.36376792944
2.01697249127 2.16447778245 0.528507263564 -0.170962074413 0.174864731037 -0.740687160494 -1.51676679713 -1.31970719688 0.470493827624 0.13346522925 0.363372384555
2.0476958891 2.16011143329 0.528218894591 -0.171160406189 0.173947488132 -0.741769142272 -1.5169055357 -1.31829213123 0.470114380423 0.135988598919 0.362980865928
2.07842955343 2.15574362497 0.527929733116 -0.171356754955 0.173030917086 -0.742845475234 -1.51704629789 -1.31687656207 0.469737696302 0.13851073216 0.362593289818
2.10917351671 2.15137435287 0.527639791933 -0.171551115089 0.172115037367 -0.743916195435 -1.51718906944 -1.31546050009 0.469363733703 0.14103158278 0.362209650385
2.13992781367 2.1470036125 0.527349083793 -0.17174348115 0.171199868268 -0.744981338927 -1.51733383587 -1.31404395584 0.468992451513 0.143551105178 0.361829941335
2.17069233776 2.14263141847 0.527057623258 -0.171933838879 0.17028544146 -0.746041087859 -1.51748052901 -1.31262690421 0.468623777551 0.146069146978 0.36145407692
2.20146739012 2.13825772828 0.526765419299 -0.172122201085 0.169371750887 -0.747095184767 -1.51762924088 -1.31120942672 0.468257734825 0.14858587939 0.361082208463
2.23225286419 2.1338825571 0.526472486335 -0.172308554004 0.168458827701 -0.748143813218 -1.51777990322 -1.30979149769 0.467894251863 0.151101150156 0.360714248877
2.26304878546 2.12950590099 0.526178836902 -0.172492892947 0.167546690429 -0.749187009352 -1.51793250091 -1.30837312708 0.467533289368 0.153614915871 0.360350190149
2.29385518172 2.1251277561 0.525884483489 -0.172675213399 0.166635357423 -0.750224809263 -1.5180870187 -1.30695432469 0.467174808491 0.156127133715 0.359990023856
2.32467193714 2.12074813911 0.52558943935 -0.172855503672 0.16572485722 -0.751257398072 -1.51824338973 -1.3055350632 0.466818742295 0.158637651804 0.359633661457
2.35549936677 2.11636700533 0.525293715267 -0.173033774166 0.164815187222 -0.752284512397 -1.51840170112 -1.3041154264 0.466465110086 0.161146648584 0.359281253598
2.38633734552 2.11198437199 0.52499732433 -0.173210013706 0.163906375413 -0.753306338617 -1.51856188601 -1.30269538644 0.466113845679 0.163653972348 0.358932710542
2.41718590118 2.10760023576 0.524700278786 -0.173384218514 0.162998439367 -0.754322912746 -1.51872392864 -1.3012749526 0.465764912057 0.166159582431 0.358588022326
2.44804505229 2.10321459341 0.524402590831 -0.173556384977 0.16209139648 -0.755334270711 -1.51888781314 -1.29985413403 0.465418272659 0.168663438737 0.358247178623
2.47891467144 2.09882746357 0.524104272321 -0.173726504038 0.161185272021 -0.756340599888 -1.51905347445 -1.29843290142 0.465073865924 0.171165390071 0.357910088764
2.50979508757 2.09443879949 0.523805335935 -0.173894583496 0.160280067086 -0.757341631784 -1.51922099427 -1.29701134059 0.46473170724 0.173665621579 0.357576902078
2.54068616169 2.09004862033 0.523505793349 -0.174060614822 0.159375806365 -0.758337554902 -1.51939030763 -1.29558942176 0.464391735821 0.176163982278 0.357247526822
2.57158791696 2.08565692333 0.523205656495 -0.17422459512 0.15847250647 -0.759328404928 -1.5195613983 -1.29416715361 0.464053916937 0.178660434185 0.356921951317
2.60250037192 2.08126370586 0.522904937248 -0.174386521651 0.15757018384 -0.760314217438 -1.51973424992 -1.29274454468 0.463718216306 0.181154939865 0.356600163548
2.63342338062 2.07686898842 0.522603646001 -0.17454638802 0.156668860373 -0.761295181413 -1.51990879974 -1.2913215639 0.463384577799 0.183647348952 0.356282071339
2.66435728592 2.07247272223 0.52230179739 -0.174704199279 0.155768541052 -0.762271024011 -1.52008512349 -1.28989829892 0.46305301275 0.186137852797 0.355967822119
2.69530194186 2.06807492831 0.521999401612 -0.17485994957 0.154869247176 -0.763241935213 -1.52026315862 -1.28847471822 0.462723465811 0.188626301283 0.35565732276
2.72625736235 2.06367560447 0.521696470262 -0.175013636846 0.1539709944 -0.764207950217 -1.52044288853 -1.28705082994 0.462395904518 0.191112659027 0.355350560073
2.7572235636 2.05927474859 0.521393014873 -0.175165259212 0.153073798206 -0.76516910408 -1.52062429652 -1.28562664212 0.462070296843 0.193596891184 0.355047520576
2.78789368769 2.05487238294 0.521089044323 -0.17531481294 0.15217767706 -0.766125586811 -1.52080732256 -1.28420212207 0.461746592081 0.196078848317 0.35474811116
2.81857468056 2.05046845685 0.520784575249 -0.175462300227 0.151282639967 -0.767077121905 -1.52099203604 -1.28277735914 0.461424797435 0.198558727533 0.354452476839
2.84926638702 2.04606299306 0.520479616321 -0.175607717888 0.150388704782 -0.768023900256 -1.52117837719 -1.28135232023 0.461104862982 0.201036379676 0.354160523664
2.87996881865 2.0416559899 0.520174178778 -0.17575106469 0.149495886209 -0.768965956432 -1.52136632917 -1.27992701302 0.460786758475 0.203511771879 0.353872237145
2.91068198702 2.03724744577 0.519868273797 -0.175892339548 0.148604198783 -0.769903324829 -1.52155587509 -1.2785014451 0.460470454097 0.205984871794 0.353587602535
2.94140572305 2.03283738457 0.519561908703 -0.176031541384 0.147713657505 -0.770836195967 -1.52174695797 -1.27707558235 0.460155904502 0.208455530994 0.353306526328
2.97214039272 2.02842575384 0.519255102161 -0.176168669466 0.146824275499 -0.771764290307 -1.52193964056 -1.27564951563 0.459843112752 0.210923951917 0.353029150659
3.00288582694 2.02401257795 0.518947861278 -0.176303723262 0.145936067146 -0.772687799153 -1.5221338662 -1.27422321047 0.459532034267 0.21338998644 0.35275538129
3.03364203729 2.01959785571 0.518640196929 -0.17643670232 0.145049046214 -0.773606756319 -1.52232961795 -1.27279667412 0.459222640965 0.215853604117 0.352485202618
3.06440902609 2.01518158599 0.518332119919 -0.176567606321 0.144163226308 -0.774521195428 -1.52252687883 -1.2713699138 0.458914905179 0.218314774998 0.352218598825
3.09518661728 2.01076379422 0.518023635998 -0.176696436805 0.14327861896 -0.775431307048 -1.52272559521 -1.26994289414 0.458608786807 0.220773351714 0.351955476496
3.12597519077 2.00634442627 0.51771476587 -0.17682319007 0.142395241465 -0.776336809189 -1.52292582294 -1.26851570733 0.458304284805 0.223229541646 0.351695974485
3.15677456586 2.00192350802 0.517405515063 -0.176947868199 0.141513104731 -0.777237893115 -1.52312750877 -1.26708831768 0.458001359818 0.225683197747 0.351439998739
3.18758474488 1.99750103872 0.517095894071 -0.177070471477 0.140632221611 -0.778134591783 -1.52333063576 -1.26566073213 0.457699985857 0.22813429189 0.351187532732
3.21840573709 1.99307701769 0.516785913326 -0.177191000317 0.139752604799 -0.779026937947 -1.52353518695 -1.26423295751 0.457400137331 0.230582796423 0.350938559751
3.24923735024 1.98865147178 0.516475576987 -0.177309458824 0.13887426238 -0.77991512183 -1.52374111228 -1.26280495739 0.457101779231 0.233028565057 0.350692986909
3.28007997578 1.98422434528 0.516164907802 -0.177425840311 0.137997215834 -0.780798859502 -1.52394846058 -1.26137682515 0.456804906486 0.235471809761 0.350450949441
3.31093342147 1.97979566549 0.515853909703 -0.177540149421 0.137121472627 -0.781678341805 -1.5241571822 -1.25994852404 0.456509484806 0.237912384581 0.350212353905
3.34179769194 1.97536543206 0.515542592806 -0.177652387139 0.136247044717 -0.782553600759 -1.52436726031 -1.25852006069 0.456215490214 0.240350263608 0.349977183022
3.37267278949 1.97093364472 0.515230967157 -0.177762554567 0.135373943911 -0.783424668173 -1.52457867803 -1.25709144167 0.455922899112 0.242785421376 0.34974541935
3.40355851493 1.96650033166 0.514919035331 -0.177870658306 0.134502174891 -0.784291733569 -1.5247913891 -1.25566262957 0.455631681402 0.245217712688 0.349516970929
3.43445526898 1.96206543566 0.514606822099 -0.177976688702 0.133631763307 -0.785154511555 -1.52500543521 -1.25423371885 0.455341828095 0.247647353766 0.349291969079
3.46536285013 1.95762898537 0.514294329808 -0.178080652885 0.132762713228 -0.786013192217 -1.52522077049 -1.25280467183 0.455053309782 0.250074199755 0.349070321352
3.49628126068 1.95319098079 0.513981568186 -0.1781825525 0.131895035745 -0.786867806569 -1.52543737829 -1.2513754949 0.454766104405 0.252498226851 0.348852009875
3.52721049833 1.94875142203 0.513668546897 -0.178282389295 0.131028741805 -0.787718385413 -1.52565524194 -1.24994619437 0.454480190269 0.254919411672 0.348637016634
3.55815035921 1.9443103385 0.513355266934 -0.178380172295 0.130163832748 -0.788565117282 -1.52587431905 -1.24851673201 0.454195541982 0.257337610104 0.348425250937
3.58910124873 1.93986767162 0.513041755077 -0.178475888904 0.129300338352 -0.789407715743 -1.52609464417 -1.24708720325 0.453912146775 0.259753042308 0.34821683995
3.62006296301 1.93542345124 0.51272801209 -0.178569548668 0.128438259354 -0.790246369829 -1.52631617535 -1.24565756959 0.453629979908 0.262165564525 0.348011692567
3.65103549744 1.93097767773 0.512414047319 -0.178661153843 0.127577606007 -0.791081109514 -1.52653889618 -1.2442278372 0.453349021148 0.264575154943 0.347809790453
3.68201884969 1.9265303515 0.512099870043 -0.178750706787 0.126718388426 -0.791911964542 -1.52676279026 -1.24279801222 0.453069250608 0.266981792158 0.347611115165
3.71301280434 1.92208150311 0.511785479695 -0.17883821886 0.125860604687 -0.792739122199 -1.52698781917 -1.24136805569 0.452790647375 0.269385333117 0.347415577589
3.74401778298 1.91763107273 0.511470905025 -0.178923674575 0.12500428863 -0.793562295402 -1.52721401035 -1.23993806388 0.452513195061 0.271786001637 0.347223300538
3.77503356554 1.91317909129 0.511156145239 -0.179007085804 0.124149437739 -0.794381671886 -1.52744132584 -1.23850799761 0.452236873366 0.274183655029 0.347034194541
3.80606014972 1.90872555949 0.510841209301 -0.179088455376 0.12329606146 -0.795197280543 -1.52766974954 -1.23707786288 0.451961663786 0.276578273371 0.346848240938
3.83709753087 1.90427047805 0.510526106106 -0.179167786216 0.122444169107 -0.796009150036 -1.52789926537 -1.23564766565 0.45168754814 0.278969837122 0.346665420983
3.86814548662 1.89981387857 0.510210833554 -0.179245091925 0.121593755584 -0.796817466188 -1.52812983895 -1.23421736636 0.451414509759 0.281358204272 0.346485647401
3.89920444319 1.89535570004 0.509895422325 -0.179320354192 0.120744858704 -0.797621941613 -1.52836149068 -1.23278706203 0.451142528809 0.283743602015 0.346309038499
3.93027417821 1.89089597444 0.509579870091 -0.179393587118 0.11989747279 -0.798422762538 -1.52859418662 -1.23135671288 0.450871589195 0.286125888711 0.346135506702
3.96135468473 1.88643470272 0.509264185437 -0.179464794068 0.119051606514 -0.799219956756 -1.52882791105 -1.22992632478 0.450601674038 0.288505046218 0.345965033138
3.99244595348 1.88197188591 0.508948376885 -0.179533978488 0.118207268424 -0.80001355183 -1.52906264824 -1.22849590356 0.450332766762 0.290881056756 0.345797598871
4.02354776208 1.87750755653 0.508632440824 -0.179601156124 0.117364450348 -0.800803731941 -1.5292983679 -1.22706540914 0.450064854699 0.293253779321 0.345633118694
4.05466054139 1.87304165252 0.508316409824 -0.179666305921 0.116523193969 -0.801590209707 -1.52953508345 -1.22563493918 0.449797914756 0.295623444236 0.345471706297
4.08578405977 1.86857420679 0.508000280051 -0.179729444106 0.115683490553 -0.802373169682 -1.52977276503 -1.22420445342 0.449531934794 0.297989910872 0.345313276208
4.11691831026 1.86410522055 0.507684059719 -0.179790574539 0.11484534803 -0.803152638547 -1.53001139732 -1.22277395761 0.449266899461 0.300353162767 0.345157809457
4.14806328592 1.85963469508 0.507367756979 -0.179849701152 0.114008774215 -0.803928642757 -1.530250965 -1.22134345748 0.449002793686 0.302713183794 0.34500528702
4.17921875047 1.85516266376 0.507051366748 -0.179906841728 0.113173757969 -0.804701364703 -1.53049144182 -1.2199129125 0.448739608549 0.305069833925 0.344855625945
4.21038514635 1.85068906357 0.506734923433 -0.179961972558 0.11234034473 -0.805470517294 -1.53073283442 -1.21848242093 0.448477317893 0.307423346368 0.344708935221
4.24156223497 1.84621392826 0.506418421731 -0.180015111894 0.111508522812 -0.806236283259 -1.53097511696 -1.21705194206 0.448215913291 0.309773581476 0.344565131674
4.27275001169 1.84173725927 0.506101869491 -0.18006626405 0.11067829944 -0.806998688173 -1.53121827457 -1.21562148158 0.447955380813 0.31212052436 0.34442419632
4.3039484603 1.83725905812 0.505785274499 -0.180115433404 0.109849681727 -0.807757757385 -1.53146229238 -1.21419104511 0.447695706793 0.314464160447 0.344286110139
4.33515734452 1.83277935894 0.505468630243 -0.180162639672 0.109022655685 -0.808513671377 -1.53170714813 -1.21276059177 0.447436885814 0.31680435065 0.344150792592
4.36637711143 1.82829809788 0.505151972907 -0.180207856588 0.108197270372 -0.809266143598 -1.53195284186 -1.21133022033 0.447178888851 0.319141330835 0.34401834792
4.39760752012 1.82381530942 0.50483529576 -0.180251104323 0.107373511272 -0.810015354839 -1.53219935171 -1.20989988971 0.446921710938 0.3214749623 0.343888695393
4.42884855668 1.81933099523 0.504518606296 -0.180292387606 0.106551384936 -0.810761329579 -1.53244666328 -1.20846960555 0.446665339472 0.323805231631 0.343761816095
4.46010021185 1.81484515702 0.504201911943 -0.180331711225 0.105730897809 -0.811504092066 -1.53269476218 -1.2070393734 0.446409762092 0.326132125715 0.343637691095
4.49136224009 1.81035782963 0.503885204801 -0.180369096722 0.104912033172 -0.812243820782 -1.53294363009 -1.20560915207 0.446154976638 0.328455506367 0.343516242393
4.52263509541 1.80586894844 0.503568522772 -0.180404515377 0.104094843568 -0.81298022994 -1.53319326063 -1.20417904078 0.445900951416 0.330775611896 0.343397569456
4.5536087927 1.80137854859 0.503251857742 -0.180437989172 0.103279311769 -0.813713498306 -1.53344363586 -1.20274899815 0.445647684679 0.333092304507 0.343281594122
4.58459295108 1.79688663196 0.502935216853 -0.180469523217 0.102465443683 -0.81444364927 -1.53369474188 -1.20131902976 0.44539516505 0.335405572173 0.343168297618
4.61558756128 1.79239320045 0.502618607192 -0.180499122672 0.101653245124 -0.815170706008 -1.53394656479 -1.19988914114 0.445143381382 0.337715403141 0.343057661164
4.64659237313 1.78789828949 0.502302019509 -0.180526810797 0.100842696762 -0.815894844916 -1.53419909014 -1.19845929083 0.444892334528 0.340021660097 0.342949609405
4.67760784298 1.78340183381 0.501985493368 -0.180552556529 0.100033854483 -0.816615781183 -1.53445230533 -1.19702957843 0.444641990324 0.342324583587 0.342844237032
4.70863372064 1.77890386914 0.501669019311 -0.180576383552 0.0992266984656 -0.81733369147 -1.53470619629 -1.19559996233 0.44439235 0.344624036691 0.342741468548
4.73966999221 1.77440439754 0.501352604144 -0.180598297322 0.0984212340119 -0.818048598108 -1.53496074961 -1.19417044807 0.444143403318 0.346920008674 0.342641285387
4.7707166438 1.76990342107 0.501036254615 -0.180618303337 0.0976174663353 -0.818760523218 -1.5352159519 -1.19274104113 0.443895140246 0.349212489059 0.342543668977
4.80177342986 1.76540097571 0.500719960176 -0.180636426466 0.0968153736184 -0.819469641059 -1.53547179247 -1.19131169985 0.44364756442 0.351501341366 0.342448546681
4.83284079978 1.76089699559 0.500403761985 -0.180652633419 0.0960150149405 -0.820175667969 -1.53572825277 -1.18988252419 0.4434006394 0.353786808185 0.342356008446
4.86391850571 1.75639151699 0.500087649292 -0.180666949473 0.0952163680117 -0.820878778462 -1.53598532245 -1.1884534723 0.443154369162 0.356068753437 0.342265981505
4.89500653374 1.75188454211 0.499771628572 -0.180679380395 0.0944194375606 -0.821578993832 -1.53624298864 -1.18702454971 0.442908744512 0.358347167594 0.342178447547
4.92610486767 1.74737607316 0.499455706247 -0.180689931991 0.0936242282311 -0.822276335167 -1.53650123846 -1.1855957619 0.442663756452 0.360622041369 0.342093388269
4.95721325499 1.7428661466 0.499139870516 -0.180698630634 0.0928307158433 -0.822970974555 -1.53676006486 -1.184167067 0.44241941117 0.362893239086 0.342010733802
4.98833215436 1.73835469606 0.498824164069 -0.180705440917 0.0920389625175 -0.823662629648 -1.53701944359 -1.18273856528 0.442175670143 0.365161005195 0.341930569384
5.01946131329 1.73384175829 0.498508574908 -0.180710389608 0.0912489436192 -0.824351472767 -1.53727936792 -1.18131021474 0.441932539866 0.367425204423 0.341852825037
5.05060071326 1.72932733561 0.498193109191 -0.180713482753 0.0904606633339 -0.825037524202 -1.5375398255 -1.17988202086 0.441690012108 0.369685828371 0.341777482747
5.08175034267 1.72481143038 0.497877773021 -0.180714726433 0.0896741257691 -0.825720804044 -1.53780080399 -1.17845398913 0.441448078817 0.371942868861 0.34170452452
5.11290993976 1.72029407947 0.497562553396 -0.180714148422 0.0888893045041 -0.826401482176 -1.53806229986 -1.17702607752 0.441206748517 0.374196190992 0.341633883293
5.14407997247 1.71577521608 0.497247494469 -0.180711711311 0.0881062645476 -0.827079277712 -1.5383242834 -1.17559838657 0.440965980787 0.376446040895 0.341565639653
5.17526018135 1.71125487735 0.496932583043 -0.180707443255 0.0873249790432 -0.827754360759 -1.53858675139 -1.17417087413 0.440725784428 0.378692284079 0.341499726434
5.20645054787 1.70673306575 0.496617824968 -0.180701350552 0.0865454516643 -0.828426750634 -1.53884969198 -1.17274354569 0.44048615209 0.380934913193 0.341436125964
5.23765105812 1.70220978376 0.496303226043 -0.180693439525 0.0857676860118 -0.829096466462 -1.53911309339 -1.17131640671 0.440247076585 0.383173921093 0.341374820591
5.26886145498 1.69768506856 0.495988772108 -0.180683739247 0.0849916535464 -0.82976367591 -1.53937695546 -1.16988941504 0.440008568569 0.385409173628 0.341315746074
5.30008219943 1.69315885305 0.495674508717 -0.180672210428 0.0842174220113 -0.830428099682 -1.5396412433 -1.16846267147 0.439770585901 0.387640918441 0.341258978421
5.33131303666 1.68863117471 0.495360421521 -0.180658882504 0.0834449624498 -0.831089905657 -1.53990595706 -1.1670361337 0.439533139482 0.389869021796 0.341204453293
5.3625539435 1.68410203608 0.495046516074 -0.180643761995 0.0826742780523 -0.831749112214 -1.54017108542 -1.16560980724 0.439296222764 0.392093477319 0.34115215339
5.39380490605 1.67957143978 0.494732797878 -0.180626855442 0.0819053719429 -0.832405737549 -1.5404366171 -1.16418369753 0.439059829355 0.39431427883 0.34110206143
5.42506566487 1.67503942328 0.494419251667 -0.180608193119 0.0811382135832 -0.833059947105 -1.54070255523 -1.16275776233 0.43882397184 0.3965312929 0.341054115997
5.45633668557 1.67050591921 0.494105924327 -0.180587733964 0.0803728732982 -0.833711463294 -1.54096885997 -1.16133210262 0.438588606531 0.398744768527 0.341008388602
5.48761770639 1.66597096531 0.49379280041 -0.1805655086 0.0796093201503 -0.834360451765 -1.5412355347 -1.159906676 0.438353746234 0.400954572704 0.340964817731
5.5189087088 1.66143456426 0.493479885179 -0.180541523744 0.0788475568753 -0.835006929993 -1.54150256864 -1.15848148798 0.438119385136 0.403160699968 0.340923386479
5.55020967426 1.65689671874 0.493167183853 -0.180515786125 0.0780875861482 -0.835650915282 -1.54176995102 -1.157056544 0.437885517563 0.405363145034 0.340884077965
5.58152034333 1.65235746648 0.492854680108 -0.180488327122 0.0773293755494 -0.836292570857 -1.54203768809 -1.15563180174 0.437652157846 0.407561775177 0.340846833578
5.61284118162 1.6478167399 0.492542422096 -0.180459104016 0.0765729978338 -0.836931620938 -1.54230573533 -1.15420736234 0.437419260917 0.409756840594 0.340811720426
5.64417192969 1.64327457698 0.492230393316 -0.180428148524 0.0758184201999 -0.837568228947 -1.54257409924 -1.15278318332 0.437186841299 0.411948208986 0.340778679809
5.67551256437 1.63873098047 0.491918598755 -0.18039546753 0.0750656449564 -0.838202411497 -1.54284276952 -1.15135927018 0.436954893846 0.414135875737 0.340747695235
5.70686306713 1.63418595315 0.491607043356 -0.180361067929 0.0743146743557 -0.838834185033 -1.54311173593 -1.14993562838 0.43672341354 0.416319836397 0.340718750239
5.73822318084 1.62963953295 0.491295709784 -0.180324982112 0.0735654742114 -0.839463710575 -1.5433810077 -1.1485122155 0.436492416282 0.418499958926 0.340691788997
5.76959336649 1.62509165213 0.490984647395 -0.180287165818 0.0728181195596 -0.840090714241 -1.54365053591 -1.14708913285 0.436261855775 0.42067649457 0.340666874312
5.80097336693 1.62054234887 0.490673838681 -0.180247651759 0.0720725758483 -0.84071535724 -1.54392032998 -1.14566633787 0.436031748091 0.422849311725 0.340643950272
5.8323631567 1.615991626 0.490363288364 -0.180206446968 0.0713288449853 -0.841337655356 -1.54419038014 -1.14424383606 0.435802088688 0.425018406559 0.340623000811
5.86376271957 1.61143948636 0.490053001119 -0.180163558481 0.0705869288261 -0.841957624216 -1.54446067665 -1.14282163286 0.43557287314 0.427183775399 0.340604009899
5.89517179379 1.60688596803 0.48974295865 -0.180119019613 0.0698467915286 -0.84257542265 -1.54473123158 -1.14139968581 0.435344118752 0.429345286874 0.340586924463
5.92659084497 1.6023310032 0.489433211451 -0.180072784666 0.0691085102638 -0.843190778756 -1.54500199184 -1.13997809633 0.435115778151 0.431503193141 0.340571803106
5.95801960902 1.59777463019 0.489123741056 -0.180024887265 0.0683720488404 -0.843803851544 -1.54527296967 -1.13855682181 0.434887868793 0.43365736327 0.340558592668
5.9894580651 1.59321685189 0.488814551928 -0.179975334565 0.0676374087894 -0.844414656011 -1.5455441558 -1.13713586773 0.43466038668 0.435807794164 0.340547277524
6.020906197 1.5886576712 0.488505648489 -0.179924133723 0.0669045915939 -0.845023207002 -1.54581554097 -1.13571523954 0.434433327922 0.437954482869 0.340537842085
6.05236373832 1.58409712634 0.488197011525 -0.179871318892 0.066173559864 -0.845629661176 -1.54608713994 -1.13429489472 0.434206711074 0.440097298669 0.340530235989
6.08383115699 1.57953514944 0.487888692607 -0.179816843046 0.0654443927627 -0.846233748684 -1.54635889572 -1.1328749348 0.433980487829 0.442236494499 0.340524513751
6.11530818661 1.57497177893 0.487580672354 -0.179760740635 0.0647170525661 -0.846835626357 -1.54663082324 -1.13145531709 0.43375467687 0.444371940092 0.34052062492
6.14679481097 1.57040701776 0.487272954984 -0.179703018918 0.0639915404522 -0.847435308443 -1.54690291368 -1.13003604709 0.433529274693 0.44650363303 0.340518554318
6.17829100691 1.5658408689 0.486965544673 -0.17964368515 0.0632678575554 -0.848032809042 -1.54717515828 -1.12861713025 0.433304277891 0.448631571028 0.340518286804
6.20979651034 1.56127337062 0.486658421334 -0.179582774242 0.0625459650412 -0.848628282668 -1.54744757433 -1.12719852397 0.433079706124 0.450755624019 0.340519774678
6.2413117892 1.55670445508 0.486351637555 -0.179520237941 0.0618259439263 -0.849221461585 -1.54772010122 -1.12578032987 0.43285551028 0.452876045582 0.34052306848
6.2728365794 1.55213416078 0.486045173085 -0.179456111444 0.0611077550571 -0.849812500474 -1.54799275637 -1.12436250524 0.432631710132 0.454992706104 0.340528120421
6.30437086011 1.54756249073 0.485739031904 -0.179390402092 0.0603913992809 -0.850401412866 -1.54826553145 -1.12294505553 0.432408302618 0.4571056038 0.340534915774
6.33591460815 1.54298944793 0.485433217954 -0.179323117223 0.0596768774056 -0.850988212157 -1.54853841815 -1.12152798621 0.432185284763 0.459214737004 0.340543439847
6.36746756176 1.53841507069 0.485127710319 -0.179254292424 0.0589641492524 -0.851573050741 -1.54881143617 -1.12011125462 0.4319626772 0.46131997629 0.34055364755
6.39903018656 1.53383929125 0.484822562541 -0.179183878319 0.0582532975563 -0.852155663052 -1.5490845215 -1.11869496246 0.431740430138 0.463421575758 0.340565585566
6.43060221615 1.52926214814 0.484517753547 -0.17911191077 0.057544281834 -0.852736201644 -1.54935769394 -1.11727906694 0.431518564305 0.465519406442 0.340579208709
6.46218363431 1.5246836444 0.484213287087 -0.179038397185 0.0568371026232 -0.853314679372 -1.54963094561 -1.11586357354 0.431297077035 0.467613467143 0.340594502707
6.49346163447 1.52010378309 0.483909166876 -0.178963344964 0.0561317604261 -0.853891108964 -1.54990426865 -1.11444848769 0.431075965743 0.46970375677 0.340611453316
6.52474864563 1.5155226025 0.483605371215 -0.178886790301 0.0554282138158 -0.854465640721 -1.55017768504 -1.11303376669 0.430855251907 0.471790146535 0.340630017997
6.55604512876 1.51094003502 0.48330195454 -0.178808682788 0.054726547115 -0.855038011294 -1.55045112758 -1.1116195123 0.430634885174 0.473872890937 0.340650239697
6.58735081978 1.50635611915 0.482998894997 -0.178729058883 0.0540267186066 -0.855608371144 -1.55072461832 -1.11020568167 0.430414887106 0.475951861654 0.340672075773
6.61866569784 1.50177085797 0.482696196118 -0.178647926042 0.0533287285384 -0.856176732483 -1.55099814983 -1.10879228027 0.430195255389 0.478027058028 0.340695512403
6.64998974442 1.49718425458 0.482393861399 -0.178565291712 0.0526325771264 -0.856743107402 -1.55127171467 -1.1073793135 0.429975987786 0.480098479506 0.340720535797
6.68132269543 1.49259634726 0.482091868397 -0.178481192622 0.0519382217884 -0.857307644148 -1.55154533695 -1.10596673865 0.429757106508 0.48216599793 0.340747105898
6.71266501186 1.48800706853 0.481790272389 -0.178395577427 0.0512457483091 -0.857870081627 -1.55181894655 -1.10455465748 0.429538560748 0.484229868087 0.340775262036
6.74401643193 1.48341645688 0.48148905078 -0.178308483106 0.0505551138283 -0.858430568237 -1.5520925676 -1.10314302711 0.429320372785 0.486289962293 0.340804964051
6.77537693249 1.47882451541 0.481188206892 -0.178219917153 0.0498663183238 -0.858989115582 -1.55236619311 -1.10173185298 0.429102540623 0.488346280396 0.340836198567
6.80674649501 1.47423124725 0.480887744011 -0.178129887044 0.0491793617436 -0.859545735153 -1.55263981606 -1.10032114049 0.428885062333 0.490398822338 0.340868952243
6.83812485773 1.46963669062 0.480587638993 -0.178038429976 0.0484942004388 -0.860100573171 -1.55291346255 -1.09891084687 0.42866796075 0.492447460592 0.340903187438
6.86951247929 1.46504077826 0.480287947895 -0.177945493755 0.0478109215341 -0.860653370834 -1.55318705974 -1.09750107389 0.428451184717 0.494492450124 0.340938939989
6.90090909564 1.46044354858 0.479988647426 -0.17785111582 0.0471294811147 -0.861204274511 -1.55346063375 -1.09609177864 0.428234757125 0.496533663886 0.340976172149
6.93231468824 1.45584500471 0.479689740704 -0.177755303682 0.0464498789054 -0.861753295229 -1.55373417798 -1.09468296654 0.428018676259 0.498571102194 0.341014870985
6.96372923623 1.45124514981 0.479391230815 -0.177658064835 0.0457721146049 -0.862300443913 -1.55400768581 -1.09327464294 0.427802940466 0.500604765452 0.341055023597
6.99515247555 1.446644022 0.479093093951 -0.177559436882 0.0450961435813 -0.862845864794 -1.55428118522 -1.09186676505 0.427587573105 0.502634526762 0.341096594697
7.02658486485 1.44204155428 0.4787953869 -0.177459366865 0.0444220541827 -0.863389301387 -1.55455460087 -1.09045943464 0.427372522764 0.504660641165 0.341139616744
7.05802614468 1.43743778497 0.478498085708 -0.177357892618 0.0437498015236 -0.863930898066 -1.5548279607 -1.08905260874 0.42715781285 0.506682982249 0.341184054338
7.09010843974 1.43283271722 0.478201193301 -0.177255021657 0.0430793850932 -0.864470665318 -1.55510125853 -1.08764629275 0.426943441896 0.508701550765 0.341229894983
7.12252067153 1.42822635419 0.47790471257 -0.177150761482 0.0424108043564 -0.865008613529 -1.55537448812 -1.086240492 0.426729408491 0.510716347543 0.341277126214
7.15526596261 1.42361873391 0.477608619085 -0.17704515004 0.0417440137801 -0.865544884975 -1.55564767917 -1.08483516364 0.426515736432 0.512727246319 0.34132571502
7.18834820696 1.41900978965 0.477312970308 -0.17693813369 0.0410791028231 -0.866079225514 -1.55592075407 -1.08343040942 0.426302374136 0.514734502106 0.34137569061
7.22177059662 1.41439955962 0.477017741664 -0.176829750603 0.0404160257097 -0.86661177756 -1.55619374247 -1.08202618635 0.426089345439 0.51673798913 0.341427019855
7.25553660165 1.40978804698 0.476722935893 -0.176720008289 0.0397547817086 -0.867142551086 -1.55646663855 -1.08062249979 0.425876649092 0.518737708547 0.34147969069
7.28964972916 1.40517525492 0.476428555701 -0.176608914241 0.0390953700674 -0.867671555973 -1.55673943647 -1.07921935501 0.425664283899 0.520733661582 0.341533691079
7.32411326155 1.40056122132 0.476134576068 -0.176496506692 0.0384377444283 -0.868198932577 -1.55701216753 -1.07781670914 0.425452274009 0.522725722605 0.341588990216
7.35893129431 1.39594587978 0.475841055084 -0.176382731399 0.0377819952536 -0.868724429118 -1.55728475202 -1.07641466391 0.425240567752 0.524714146508 0.341645614177
7.39410718398 1.39132926835 0.475547967588 -0.176267626811 0.0371280759535 -0.869248186082 -1.5575572212 -1.07501317626 0.42502918931 0.526698808158 0.341703532035
7.42964458129 1.38671139023 0.475255316141 -0.176151200423 0.0364759855913 -0.869770212961 -1.55782956959 -1.07361225151 0.424818137624 0.528679709084 0.341762732147
7.46554717401 1.38209224859 0.47496310327 -0.176033459706 0.0358257232118 -0.870290519158 -1.55810179173 -1.07221189492 0.424607411689 0.530656850879 0.341823202896
7.50181841367 1.37747188118 0.474671303405 -0.175914443132 0.0351772417062 -0.870809243145 -1.5583739204 -1.07081206356 0.424397035929 0.532630108552 0.34188491561
7.53846260887 1.37285022193 0.47437997521 -0.175794095925 0.034530632437 -0.871326135515 -1.558645874 -1.06941285909 0.424186958662 0.534599736781 0.341947893352
7.57548328755 1.36822730875 0.474089092977 -0.175672456761 0.0338858480732 -0.871841334868 -1.55891768525 -1.06801423845 0.423977204341 0.536565611077 0.342012107321
7.6128842904 1.36360314481 0.473798659092 -0.175549533108 0.0332428874871 -0.872354850239 -1.55918934903 -1.06661620689 0.423767772077 0.538527733314 0.342077546286
7.65066949283 1.35897773334 0.473508675915 -0.17542533241 0.0326017495345 -0.872866690581 -1.55946086022 -1.06521876962 0.423558661025 0.540486105429 0.342144199043
7.68884253168 1.35435111187 0.473219117355 -0.175299893321 0.0319623864247 -0.873376992514 -1.55973225296 -1.06382188368 0.423349895819 0.542440603073 0.342212038983
7.72740793097 1.34972321473 0.472930042607 -0.175173160606 0.0313248903229 -0.873885509022 -1.56000344397 -1.06242565067 0.423141424835 0.544391480622 0.342281086264
7.76636940397 1.34509407963 0.472641425446 -0.175045173119 0.0306892132255 -0.874392376847 -1.5602744673 -1.06103002747 0.422933272726 0.546338614237 0.342351314149
7.8061246019 1.34046370977 0.472353268096 -0.17491593829 0.0300553538273 -0.874897604596 -1.56054531817 -1.0596350193 0.422725438751 0.548282006114 0.342422711806
7.84668966811 1.33583210836 0.47206557275 -0.174785463525 0.0294233108081 -0.875401200798 -1.5608159918 -1.0582406313 0.422517922207 0.550221658504 0.34249526843
7.88808076215 1.33119931276 0.471778312833 -0.174653787618 0.0287930357618 -0.87590330026 -1.56108652358 -1.05684682049 0.422310747872 0.552157447707 0.342568959405
7.93031529448 1.32656525768 0.471491548025 -0.174520854938 0.028164621562 -0.876403658359 -1.56135682869 -1.05545368838 0.422103864244 0.554089627715 0.3426438021
7.97341010104 1.32192998065 0.471205251618 -0.174386704471 0.0275380195987 -0.876902410014 -1.56162694245 -1.05406119182 0.421897296116 0.556018075345 0.342719771767
8.01738267338 1.31729348486 0.470919425675 -0.174251343601 0.0269132284014 -0.877399563432 -1.56189686039 -1.05266933595 0.421691042871 0.557942793088 0.342796857963
8.06225085278 1.31265577353 0.470634072235 -0.174114779687 0.026290246486 -0.877895126743 -1.56216657802 -1.05127812588 0.421485103932 0.559863783488 0.342875050275
8.10849032938 1.30801688379 0.470349164271 -0.173977051617 0.0256690248943 -0.878389232971 -1.56243613192 -1.04988751857 0.421279504162 0.561780923501 0.342954326005
8.15614367723 1.30337675081 0.470064761898 -0.173838103432 0.0250496571188 -0.878881639893 -1.56270543589 -1.04849761545 0.421074192239 0.563694466655 0.343034699847
8.20525372982 1.29873541187 0.469780837961 -0.173697974201 0.0244320940056 -0.879372480643 -1.56297452639 -1.04710837331 0.420869193039 0.565604290426 0.343116148966
8.2568822625 1.29409287019 0.469497394371 -0.173556671258 0.0238163339301 -0.879861763047 -1.56324339924 -1.04571979725 0.420664506054 0.567510397582 0.343198663304
8.31062100314 1.28944912896 0.469214433014 -0.173414201905 0.0232023752567 -0.88034949486 -1.56351205028 -1.04433189232 0.420460130813 0.569412790936 0.343282232823
8.3671150995 1.28480422511 0.468931926442 -0.173270605085 0.0225901685341 -0.880835807361 -1.56378051714 -1.04294461544 0.420256092213 0.571311348108 0.343366836675
8.42650664731 1.28015809424 0.468649935168 -0.173125824566 0.0219798077885 -0.881320460722 -1.56404871239 -1.04155806791 0.420052339166 0.573206322086 0.34345248699
8.48956812038 1.27551077341 0.468368431616 -0.172979899466 0.0213712433817 -0.88180358633 -1.56431667355 -1.0401722065 0.419848896579 0.575097591009 0.343539162775
8.55719581839 1.27086226583 0.46808741755 -0.172832837055 0.0207644735462 -0.882285191652 -1.56458439673 -1.03878703625 0.419645764036 0.576985157903 0.34362685434
8.63044557038 1.26621257469 0.467806894715 -0.172684644576 0.0201594965049 -0.88276528409 -1.56485187804 -1.03740256212 0.419442941156 0.578869025833 0.34371555202
8.71137882764 1.26156173668 0.467526835267 -0.172535360985 0.0195562623705 -0.88324399321 -1.56511915609 -1.03601874101 0.419240452825 0.580749073087 0.343805236743
8.80351240034 1.25690968787 0.467247300076 -0.172384929836 0.0189548656224 -0.883721081583 -1.56538614238 -1.0346356741 0.419038248235 0.582625552037 0.343895918178
8.91397198544 1.25225646508 0.466968261175 -0.172233390254 0.0183552561935 -0.884196678877 -1.56565287537 -1.03325331811 0.418836352279 0.584498341501 0.343987577108
9.06612718752 1.2476020715 0.46668972019 -0.172080749443 0.0177574321839 -0.884670792222 -1.56591935146 -1.03187167801 0.41863476462 0.586367444736 0.344080204203
9.2832382469 1.24294651033 0.466411678725 -0.171927014578 0.0171613916854 -0.885143428689 -1.56618556704 -1.0304907587 0.418433484952 0.588232865043 0.344173790153
9.53365825472 1.24296415965 0.461894738604 -0.169784169648 0.0161914540533 -0.880866445764 -1.56933951934 -1.02806847355 0.41837331693 0.583647461711 0.348719623695
9.66211864105 1.24297471808 0.45736586238 -0.167651360736 0.0152012194094 -0.876562235616 -1.57253907287 -1.02567021426 0.418311024464 0.579100470355 0.353314124005
9.76246818073 1.24297864384 0.452824286069 -0.165529572438 0.0141892634895 -0.872231451585 -1.57578585836 -1.02329593359 0.418246996832 0.574591618437 0.357958639214
9.84829343236 1.24297601838 0.448269706435 -0.163419188955 0.0131550348915 -0.867873965796 -1.57908002146 -1.02094585616 0.418181496689 0.570122091674 0.362653524553
9.9246815768 1.24296692709 0.443701816172 -0.161320598803 0.0120979749715 -0.863489664946 -1.58242168604 -1.0186201942 0.418114786576 0.56569309836 0.367399112076
9.99496725158 1.24281488395 0.439114704871 -0.159233613055 0.0109988773307 -0.859097638433 -1.58581826788 -1.01627922013 0.418041434145 0.561361657197 0.372195259031
10.0655535577 1.24265624921 0.434514138305 -0.15715855037 0.00987696375414 -0.854678458974 -1.58926060876 -1.01396324864 0.417966996401 0.557074279477 0.377040858717
10.1312174243 1.24249143727 0.429899348423 -0.155096488353 0.0087307019405 -0.850232700469 -1.59275036071 -1.01167222249 0.41789195617 0.55283089051 0.381937587991
10.1927969873 1.24232054647 0.42527002099 -0.153047820068 0.00755952176476 -0.845760325817 -1.59628754078 -1.00940629095 0.417816560373 0.548632763068 0.386885663847
10.2509938557 1.24214367853 0.42062583973 -0.15101294037 0.00636284956813 -0.841261317347 -1.5998721389 -1.0071655866 0.417741052835 0.544481186694 0.391885273387
10.3065758959 1.24182544832 0.415964069213 -0.148995052793 0.00512136123621 -0.836759644181 -1.60350947362 -1.00491140929 0.417660204951 0.540434833117 0.396931974532
10.3601610581 1.24150121074 0.411287294514 -0.146990980806 0.00385449331464 -0.832231432076 -1.60719207439 -1.00268275571 0.417579182993 0.536438359174 0.40202817258
10.4118286276 1.24117132465 0.406594782038 -0.145001853269 0.00256067273527 -0.827677189681 -1.61092150301 -1.00047955954 0.417498555683 0.532491947553 0.407175779126
10.4616499696 1.24083590032 0.401886219799 -0.143028055479 0.00123933502315 -0.823096992453 -1.6146976235 -0.998301874419 0.417418537312 0.528596918897 0.412374840379
10.5101740991 1.24049505023 0.397161296653 -0.141069971067 -0.000110082585415 -0.818490939512 -1.61852026849 -0.996149733363 0.41733933571 0.524754601755 0.417625366843
10.5574269581 1.24001456219 0.392420741053 -0.139133815729 -0.00150647562372 -0.813887988518 -1.6223919337 -0.993985327159 0.417255846904 0.521025056007 0.422917868233
10.6034498883 1.23952869699 0.387663671333 -0.137213303019 -0.00293074858717 -0.809259722722 -1.62630766749 -0.991846425047 0.417172899365 0.517351143516 0.42825912273
10.6482804578 1.23903775015 0.382889438199 -0.135309542765 -0.00438441070521 -0.804606622135 -1.63026878422 -0.98973294385 0.417091117719 0.513733340789 0.433651084704
10.6923883734 1.23854183605 0.378097748758 -0.133422892106 -0.00586799002201 -0.799928891068 -1.63427497942 -0.987644825138 0.417010666109 0.510172962155 0.439093605011
10.7357873114 1.2380410696 0.373288314535 -0.131553702373 -0.00738200643081 -0.795226760318 -1.63832591486 -0.985581986913 0.416931698916 0.506671318496 0.444586494779
10.7784490621 1.23740254065 0.368465547508 -0.129710879767 -0.00894448854879 -0.790534400113 -1.64242083616 -0.983507339284 0.416849140457 0.503289215912 0.450114606419
10.8204253866 1.23675925592 0.363624885131 -0.127885376436 -0.0105371499137 -0.785818590124 -1.64655791213 -0.981457587315 0.416767588983 0.499968176409 0.455689955815
10.861731087 1.23611144595 0.358765815687 -0.126078185393 -0.012161300336 -0.781079838728 -1.65073802664 -0.979432609821 0.416687663698 0.496708955168 0.461314247059
10.9023784197 1.2354592193 0.353888083966 -0.124289613911 -0.0138173978175 -0.776318486177 -1.65496070444 -0.977432226702 0.416609463457 0.493512796785 0.466987124357
10.9435913763 1.23480268301 0.348991442881 -0.122519959217 -0.0155058855254 -0.771534900143 -1.65922543668 -0.975456232785 0.41653307466 0.490380930201 0.472708190624
10.9857236999 1.23401034822 0.3440842047 -0.120780462599 -0.017243462949 -0.766768644457 -1.66352786705 -0.973468098928 0.4164533194 0.487374127419 0.47845603323
11.0288696328 1.23321380806 0.339157927214 -0.119059711746 -0.0190131497999 -0.761981440406 -1.6678698279 -0.971503658747 0.416374754188 0.484433237748 0.484248865861
11.073055907 1.23241323292 0.334212274371 -0.117358475923 -0.0208159214372 -0.757173883242 -1.67225161941 -0.969562716721 0.416297899452 0.481559202553 0.490087803963
11.11830874 1.23160871519 0.329247045542 -0.115676993515 -0.0226521356406 -0.752346445774 -1.67667260731 -0.967644969796 0.416222778522 0.478753135416 0.495972289816
11.164654917 1.23080034397 0.324262051229 -0.114015489487 -0.0245221299402 -0.747499627401 -1.68113212592 -0.965750089827 0.416149400418 0.47601612366 0.501901725545
11.2124760408 1.22985815966 0.319269685322 -0.11238719937 -0.0264408584861 -0.742678476774 -1.68562203511 -0.963841980971 0.416072344032 0.473408005883 0.507847971589
11.2619418979 1.22891219558 0.314257489142 -0.110778714433 -0.0283930638307 -0.737839496029 -1.69014812202 -0.961955802632 0.415996352358 0.470869856293 0.513836208565
11.3131099271 1.22796256923 0.309225298715 -0.109190507622 -0.0303793150205 -0.73298338979 -1.69471006978 -0.960091240652 0.415921742804 0.468402636052 0.519866722586
11.3660392743 1.22700934866 0.304172979305 -0.107622736551 -0.0323998500146 -0.728110751693 -1.69930710577 -0.958247875771 0.415848457776 0.466007281163 0.525938773604
11.4213385314 1.22605259731 0.299100408969 -0.106075543693 -0.0344548836444 -0.723222199891 -1.70393842928 -0.956425265103 0.415776424071 0.463684693975 0.532051585165
11.4789246097 1.22496397864 0.294024184948 -0.10456389601 -0.0365573336719 -0.718368229346 -1.70859218176 -0.95458767958 0.415699876527 0.461492839937 0.538170163953
11.5396887171 1.22387184944 0.288927784644 -0.103072620828 -0.038693876469 -0.713500134878 -1.71327797744 -0.952769752159 0.415623904985 0.459374032619 0.544326854605
11.6044470182 1.22277627656 0.28381115943 -0.101601909723 -0.0408647280303 -0.708618686834 -1.71799503744 -0.950971021284 0.415548560503 0.457329072242 0.550521154434
11.6741519959 1.22167729843 0.278674244906 -0.100151836555 -0.0430700002493 -0.703724580881 -1.72274247476 -0.949190967332 0.415473701799 0.455358687382 0.556752173427
11.749786812 1.22057494791 0.273516990145 -0.0987224598148 -0.0453097811529 -0.698818533188 -1.72751937859 -0.947429050915 0.415399171095 0.453463567051 0.563018991945
11.8334999701 1.21934259402 0.268360282608 -0.0973303178417 -0.0475947918321 -0.693956340379 -1.73231044254 -0.945649947827 0.415318858072 0.451698941316 0.569280040802
11.9095660792 1.21810682272 0.263183513889 -0.0959585384904 -0.0499136622455 -0.689084201294 -1.73712866533 -0.943887787831 0.415238170296 0.45000925491 0.575574349838
11.9800873833 1.21687378513 0.257986440069 -0.0946102003017 -0.0522692334632 -0.68421754321 -1.74202479256 -0.942201437096 0.41512238627 0.448422900875 0.581889260568
12.0461000125 1.21565018378 0.25276979776 -0.0932859487375 -0.0546612127945 -0.679379128783 -1.74703695509 -0.940641034594 0.414940897453 0.446958952487 0.588202565178
12.1085137572 1.2144384668 0.247535039285 -0.0919829675464 -0.057085638753 -0.674584195397 -1.75215969283 -0.939209061324 0.414690305614 0.445611440118 0.594496382583
12.1677987715 1.2131170548 0.242309053688 -0.0907165184508 -0.0595468767043 -0.66991046562 -1.75737553312 -0.93788071459 0.414357040261 0.444427817459 0.600703786812
12.2249280085 1.21181188894 0.237068620525 -0.0894646308952 -0.0620309742555 -0.665310027522 -1.76268712524 -0.936681850435 0.413949807657 0.443342991214 0.606855830321
12.2799613649 1.21052492412 0.231815464918 -0.0882241081273 -0.0645334429133 -0.660796255261 -1.76808663901 -0.935611839378 0.413467173491 0.442347871308 0.612936080335
12.3329577294 1.20925789764 0.226551344114 -0.0869917384113 -0.0670497727228 -0.6563815267 -1.77356574108 -0.934669064489 0.412908398537 0.441432624059 0.618929094245
12.384485457 1.20801230612 0.221278014965 -0.0857643547871 -0.0695755153934 -0.652077047751 -1.77911576302 -0.933850975105 0.412273436398 0.440586860053 0.624820663383
12.4342865255 1.20666719929 0.216026958982 -0.0845584990684 -0.0721125441866 -0.647959852126 -1.78471254467 -0.933127225523 0.41155277148 0.439849894265 0.630543210742
12.4826734053 1.2053454332 0.210770421641 -0.0833512435879 -0.0746498625827 -0.64397088587 -1.79036162426 -0.93251944817 0.410758121732 0.439158791925 0.636140591925
12.529672372 1.20404770007 0.20550995154 -0.0821399169801 -0.0771837123393 -0.640117025603 -1.79605445633 -0.932022856138 0.409891315018 0.438502862785 0.641603488612
12.5757670681 1.2027744448 0.200246993082 -0.08092206799 -0.0797106421255 -0.636403740399 -1.8017827755 -0.931632152367 0.408954671805 0.437871633126 0.646924249166
12.6209634978 1.20152587884 0.194982871863 -0.0796954869489 -0.0822275378737 -0.632835129594 -1.80753870352 -0.931341648791 0.407950931253 0.437254996362 0.6520968734
12.6649828208 1.2001812173 0.189752797576 -0.0784794825512 -0.0847359023743 -0.629483053766 -1.81329556909 -0.931117045528 0.406874286209 0.436689315286 0.657058993027
12.7081237409 1.19886063385 0.184524062678 -0.0772508545919 -0.0872285980798 -0.626278946683 -1.81906519404 -0.930979411582 0.405737348762 0.436118144061 0.661866657489
12.7503964993 1.19756375821 0.179297567025 -0.0760082058522 -0.0897036470487 -0.623223220602 -1.82484141329 -0.930922629283 0.404543618026 0.435533311637 0.666518450648
12.7918124674 1.1962900783 0.174074079722 -0.0747503804441 -0.0921594099499 -0.620315336894 -1.83061864405 -0.930940607406 0.403296709532 0.434927349261 0.671014177799
12.832789709 1.1950389636 0.168854244115 -0.0734764508086 -0.0945945680766 -0.617553926987 -1.83639188914 -0.93102735376 0.402000295072 0.434293514317 0.675354726272
12.8730331985 1.19369011868 0.163676612802 -0.0722090010889 -0.0970109968906 -0.615005932671 -1.84213416113 -0.931147119465 0.400650656315 0.43366871028 0.679482890245
12.912841647 1.19236186761 0.158503736449 -0.0709240991408 -0.099404754416 -0.612598232199 -1.84786393906 -0.931323211041 0.399259134687 0.433003804475 0.683461687063
12.9522174613 1.19105336452 0.153335911657 -0.0696214229429 -0.101775371945 -0.610327685113 -1.85357797266 -0.931550331981 0.397829235593 0.432294333446 0.687294398096
12.9923438473 1.18976372558 0.148173346734 -0.0683007998838 -0.104122591627 -0.608190782836 -1.8592734888 -0.931823449717 0.396364357979 0.431536477978 0.69098482407
13.0328291882 1.18849204357 0.143016171387 -0.0669621883535 -0.10644634052 -0.606183736165 -1.86494815518 -0.932137811626 0.394867772778 0.430727023149 0.694537174507
13.073344511 1.1871189831 0.137906275639 -0.0656312947798 -0.108748671778 -0.604370261517 -1.87057477158 -0.932457614721 0.393336674481 0.429904236226 0.697897208173
13.1142204263 1.18576160942 0.132801944267 -0.0642826183243 -0.111027652256 -0.602677010343 -1.8761770649 -0.932809243492 0.391780168943 0.429024527413 0.70112986412
13.1558729735 1.18441902997 0.127703118577 -0.062916418196 -0.113283631764 -0.601099840506 -1.88175384479 -0.933188889834 0.390201020207 0.42808630017 0.704239960145
13.1983176937 1.1830903666 0.122609697943 -0.0615330170769 -0.115517050221 -0.599634585564 -1.88730420059 -0.933593020776 0.388601832292 0.427088364581 0.707232385862
13.2415707602 1.1817747611 0.117521546697 -0.06013278948 -0.117728420995 -0.598277093927 -1.89282746906 -0.934018369583 0.38698504962 0.426029894103 0.71011205
13.2852546796 1.18035414952 0.112483966603 -0.0587443098591 -0.119919637168 -0.597088943879 -1.89829565173 -0.934429432586 0.385348333529 0.424950171016 0.712826075217
13.3297723869 1.17894455152 0.107451389687 -0.0573398697331 -0.122089856487 -0.595998968279 -1.90373620157 -0.934855332806 0.383698534533 0.423808915244 0.715438405494
13.3751416331 1.17754520885 0.102423607808 -0.0559199419214 -0.124239729176 -0.595003308483 -1.90914904267 -0.935293588112 0.382037602901 0.422606187014 0.717953687336
13.4213806997 1.1761553929 0.0974003994653 -0.0544850141975 -0.12636992688 -0.594098213351 -1.91453423268 -0.935741925034 0.380367352042 0.421342252106 0.720376453874
13.4685083986 1.1747744057 0.0923815333519 -0.05303558403 -0.128481134958 -0.593280050322 -1.91989194356 -0.936198265538 0.378689465382 0.420017553268 0.722711108413
13.5165505465 1.17328562569 0.0874157510619 -0.051602933937 -0.130574890919 -0.592608589657 -1.92519287286 -0.936627340499 0.377002003129 0.418671951227 0.724905499928
13.5660091878 1.17180400228 0.0824539045539 -0.0501568012084 -0.132650923827 -0.592015842587 -1.93046716305 -0.937060341036 0.375309909187 0.417266774082 0.72702137071
13.6169285507 1.17032894731 0.077495750959 -0.0486976840744 -0.134709917497 -0.591498647579 -1.93571523111 -0.937495737823 0.373614494076 0.415802855999 0.72906259121
13.6693543154 1.16885990124 0.0725410475415 -0.0472260749459 -0.136752547532 -0.591053974891 -1.94093754552 -0.937932141067 0.371916970541 0.414281114224 0.73103287532
13.7238734428 1.16739633247 0.0675895531851 -0.0457424587051 -0.138779478675 -0.590678926193 -1.94613461659 -0.938368289824 0.370218460354 0.412702533549 0.732935779733
13.7801448125 1.16582317032 0.0626934257105 -0.0442807478618 -0.140791827329 -0.590431399198 -1.95127555139 -0.938769023329 0.368517458763 0.411107322402 0.73471979585
13.8340234134 1.16425416608 0.0578001046971 -0.0428079825074 -0.142789647359 -0.590246874094 -1.95639259705 -0.939166980888 0.366817395356 0.409457340825 0.736444148292
13.8857723969 1.16268888129 0.0529093630714 -0.0413246121547 -0.144773550573 -0.590122903905 -1.96148633221 -0.939561257053 0.365119138804 0.407753691456 0.738111859093
13.9359752398 1.1611269003 0.0480209789166 -0.039831074055 -0.146744131285 -0.590057158067 -1.9665573471 -0.9399510345 0.363423493302 0.405997496655 0.739725806825
13.9846802818 1.15956782933 0.0431347359348 -0.0383277930485 -0.148701965932 -0.590047418442 -1.97160623926 -0.94033557662 0.361731203356 0.4041898909 0.741288730616
14.031395064 1.15789824086 0.0383061542886 -0.0368512700469 -0.150647751084 -0.590149514224 -1.9766003984 -0.940679754395 0.360041230679 0.402371377479 0.742749892539
14.0767190909 1.15623052823 0.0334793702717 -0.0353658177737 -0.152581764183 -0.590302405307 -1.98157387574 -0.941017175819 0.358355819385 0.400503717961 0.744166043808
14.121135296 1.15456436944 0.0286541894814 -0.0338718180428 -0.154504517957 -0.590504245798 -1.98652725644 -0.941347326535 0.356675550696 0.398588032456 0.745539475488
14.1646635591 1.15289945931 0.0238304237788 -0.0323696400377 -0.156416507043 -0.590753281514 -1.99146112011 -0.941669746372 0.355000964835 0.396625432014 0.746872363313
14.2073232343 1.15123550869 0.0190078913034 -0.0308596407187 -0.158318208453 -0.59104784588 -1.99637603913 -0.941984024563 0.353332564304 0.394617015233 0.748166772562
14.2494517334 1.14946082703 0.0142454064088 -0.0293808754851 -0.160209925351 -0.591441489729 -2.00123764912 -0.942255046527 0.351669778594 0.392603626557 0.749372909668
14.2907417931 1.14768628714 0.00948388342282 -0.027894956613 -0.162092124866 -0.591876580446 -2.00608165671 -0.942517035755 0.350013919936 0.390546567383 0.750545204115
14.3312114563 1.14591165299 0.00472316256492 -0.0264022014399 -0.163965225401 -0.592351740073 -2.0109085902 -0.942769718048 0.348365387962 0.388446866901 0.751685371743
14.3708783094 1.14413670058 -3.69101851001e-05 -0.0249029164327 -0.165829629777 -0.59286565939 -2.01571896625 -0.943012851896 0.346724556694 0.386305534026 0.7527950406
14.409374521 1.14236121723 -0.00479648311468 -0.0233973976433 -0.167685725759 -0.593417094591 -2.02051328938 -0.943246225944 0.345091776697 0.384123556834 0.753875755364
14.4485160957 1.14047534915 -0.00949352202306 -0.0219272160524 -0.169533455296 -0.594057133797 -2.02525545132 -0.943434766796 0.343466919546 0.381942210753 0.754878825675
14.4884418933 1.13858829257 -0.0141902642829 -0.0204513386891 -0.1713734689 -0.59473147318 -2.02998273831 -0.943613051553 0.341850559414 0.37972212541 0.755856517545
14.5291687451 1.13669987363 -0.0188868387438 -0.018970028638 -0.173206105549 -0.59543908695 -2.03469560225 -0.943780951905 0.340242982938 0.377464202719 0.756810111674
14.5707138205 1.13480992681 -0.0235833694205 -0.0174835402587 -0.175031691711 -0.596178999715 -2.03939448224 -0.94393835922 0.338644460949 0.375169322027 0.757740823614
14.6130946321 1.13291829458 -0.0282799756218 -0.0159921196427 -0.176850541916 -0.596950283963 -2.04407980458 -0.944085182869 0.337055249845 0.372838340073 0.758649807115
14.6557280364 1.13091706512 -0.0329114804851 -0.0145398053764 -0.178662267602 -0.597801412815 -2.04871375212 -0.944186445289 0.335475617829 0.370513066781 0.759489603013
14.6992204386 1.12891361048 -0.0375432055664 -0.0130829888747 -0.180467705431 -0.598681350176 -2.05333514543 -0.944276876666 0.333905553521 0.368153329443 0.760310446889
14.743590134 1.12690780135 -0.0421752539787 -0.01162188999 -0.182267131087 -0.599589331668 -2.05794435977 -0.944356436655 0.332345273949 0.365759899902 0.761113295688
14.7888557909 1.12489951421 -0.0468077249262 -0.0101567217847 -0.184060810504 -0.600524629454 -2.06254175848 -0.944425096861 0.330794986402 0.363333529069 0.76189905839
14.8354982558 1.12288863109 -0.0514407139352 -0.00868769097345 -0.185849000492 -0.601486550528 -2.06712769317 -0.944482839423 0.329254889484 0.360874946586 0.762668598544
14.8828515839 1.12076929137 -0.0560059805657 -0.00726124638454 -0.187631009469 -0.602520829573 -2.07166268704 -0.944494852907 0.32772558946 0.358426599344 0.763375785885
14.9316463351 1.11864690284 -0.0605718619665 -0.00583128149845 -0.189407864184 -0.603579658355 -2.07618705877 -0.944495860146 0.326206615027 0.355947424378 0.764068928495
14.9819272934 1.1165213682 -0.0651384404771 -0.00439798255139 -0.191179791132 -0.604662465727 -2.08070111432 -0.944485873713 0.324698140613 0.353438075132 0.764748743536
15.034258753 1.11439259413 -0.0697057954359 -0.00296153063144 -0.19294700946 -0.60576870702 -2.0852051493 -0.944464913165 0.32320033484 0.350899186484 0.765415912913
15.0887252507 1.1122604911 -0.0742740032495 -0.00152210195068 -0.1947097313 -0.606897862709 -2.08969944923 -0.944433004538 0.321713361001 0.348331375344 0.766071084987
15.1448234216 1.11002136119 -0.0787718407489 -0.00012848972229 -0.196466986433 -0.608092829449 -2.09414293639 -0.944355580531 0.320238096536 0.345777821029 0.766669530973
15.1984617603 1.10777851436 -0.0832705892656 0.00126782773839 -0.198219993649 -0.609309004624 -2.09857738995 -0.944267223006 0.318773718749 0.343196505262 0.76725770849
15.2500183394 1.10553187636 -0.0877703146752 0.00266669001568 -0.199968941778 -0.610545960134 -2.10300305616 -0.944167976028 0.317320376318 0.340587978959 0.767836156774
15.2995746563 1.10328137569 -0.0922710805214 0.00406794060581 -0.201714014089 -0.611803286981 -2.10742017257 -0.944057887885 0.315878214432 0.33795277758 0.768405388938
15.3476853039 1.10102694343 -0.096772948129 0.00547142667323 -0.203455388624 -0.613080594416 -2.11182896823 -0.943937010599 0.314447375235 0.335291421331 0.768965893287
15.3945469653 1.09866715692 -0.101201794141 0.00682608391814 -0.205191838176 -0.614417860586 -2.11618683051 -0.943771102283 0.313028934815 0.332647909444 0.769474394855
15.4400420296 1.09630309989 -0.105631769339 0.00818276258756 -0.206924772824 -0.61577367896 -2.12053695551 -0.943594488262 0.311621817169 0.329979215053 0.769975558443
15.4842108725 1.09393471486 -0.110062926574 0.00954132207099 -0.208654352656 -0.617147727659 -2.12487953923 -0.943407231342 0.310226155493 0.327285803049 0.770469790351
15.526668076 1.0915619462 -0.114495316971 0.0109016246775 -0.210380733679 -0.618539698704 -2.12921477039 -0.943209396643 0.308842081145 0.324568125254 0.770957477498
15.5683007457 1.08918474005 -0.118928989913 0.0122635355229 -0.212104067915 -0.619949297243 -2.13354283075 -0.943001051658 0.307469723642 0.321826621253 0.771438988132
15.609632219 1.08670406162 -0.123287006395 0.0135737987471 -0.213822890894 -0.621413518416 -2.13781964479 -0.942748360593 0.30611028192 0.319106188374 0.77187253763
15.6501612481 1.08421864447 -0.127646308363 0.0148855034316 -0.215538800448 -0.622894149992 -2.14208977438 -0.942485290156 0.304762518029 0.31636274522 0.77230104192
15.6899037982 1.0817284434 -0.132006938439 0.0161985241385 -0.217251934878 -0.62439094949 -2.14635337362 -0.942211913945 0.3034265562 0.313596685063 0.772724807248
15.7288754984 1.07923341446 -0.136368937894 0.0175127376671 -0.218962429383 -0.625903684407 -2.15061059063 -0.941928307052 0.302102519604 0.310808390786 0.77314412513
15.7670916464 1.07673351484 -0.140732346708 0.0188280229218 -0.220670416233 -0.627432131793 -2.15486156778 -0.941634545884 0.300790530541 0.307998235097 0.773559273024
15.8053767459 1.07413220958 -0.145017496704 0.0200890173766 -0.222374211732 -0.629010252661 -2.15906084422 -0.941297279169 0.299491832708 0.305212083462 0.773929980222
15.8425479637 1.07152576195 -0.149304039409 0.0213509563475 -0.224075595771 -0.630603031353 -2.16325428834 -0.94095002299 0.29820511365 0.302404758099 0.774297449102
15.8793634025 1.06891413585 -0.153592009309 0.0226137261327 -0.225774690024 -0.632210284948 -2.16744201951 -0.940592857225 0.296930492389 0.299576593516 0.774661909618
15.9158267501 1.06629729598 -0.157881439877 0.0238772147277 -0.227471613866 -0.633831837734 -2.17162415218 -0.940225862636 0.295668087483 0.296727915755 0.775023580465
15.9526675494 1.06367520776 -0.162172363603 0.0251413117315 -0.229166484492 -0.635467520891 -2.17580079602 -0.93984912078 0.294418017149 0.293859042606 0.775382669539
15.9891693107 1.06095540188 -0.166381705206 0.0263482635089 -0.230857280055 -0.637143509138 -2.1799287534 -0.939434813224 0.293176771405 0.291025834939 0.775697984232
16.0260555009 1.05822864615 -0.170593263306 0.0275561375058 -0.232546187583 -0.638837420373 -2.18404790518 -0.939005871218 0.291952486763 0.288163912292 0.776013882759
16.0636964301 1.05549636576 -0.174806313083 0.0287644138077 -0.2342332294 -0.640544391954 -2.1881620314 -0.938567485632 0.290740551944 0.285282713364 0.776328159483
16.1021077623 1.05275853081 -0.179020879112 0.0299729967174 -0.235918503361 -0.642264293632 -2.19227119177 -0.938119710914 0.289541090682 0.282382470254 0.776640965189
16.141305504 1.05001511297 -0.183236987882 0.0311817841773 -0.237602115155 -0.643996997566 -2.19637546895 -0.937662631722 0.288354218868 0.279463455937 0.776952453762
16.1804947837 1.04717615095 -0.187369130497 0.0323312570233 -0.23928177937 -0.645766763629 -2.20042953226 -0.937167896775 0.287177336378 0.276580367988 0.777223259496
16.2204941518 1.04432983082 -0.191503586588 0.0334811369473 -0.240960099862 -0.647552915968 -2.20447566361 -0.936659267579 0.286017574335 0.273670563321 0.777496138908
16.2613125358 1.04147767426 -0.19563956532 0.0346310516369 -0.242636914782 -0.649350935888 -2.20851730421 -0.936141666448 0.284870395242 0.270742786453 0.777768488966
16.3029755186 1.0386180901 -0.199777943113 0.035781062323 -0.244312722892 -0.651165073549 -2.21255139427 -0.935610621813 0.283740576497 0.267789222122 0.778043431961
16.3459083288 1.03575418494 -0.203917033997 0.0369307491938 -0.245986827629 -0.652986537787 -2.21658424745 -0.935075347279 0.282618929138 0.264826204939 0.778315084993
16.3892238098 1.0327963216 -0.207970202529 0.0380191184067 -0.247657292632 -0.654843460419 -2.22056423652 -0.934500683152 0.281510064851 0.261896387699 0.778550137751
16.4338683891 1.02983236164 -0.212024878212 0.0391073020385 -0.249326467657 -0.656711308143 -2.22454007875 -0.933917402632 0.280413887263 0.258949445867 0.7787854268
16.4798830495 1.02686228475 -0.216081079491 0.0401952085232 -0.250994444386 -0.658590003072 -2.22851182069 -0.933325591865 0.279330510106 0.255985593261 0.779021040616
16.5273100408 1.02388607072 -0.220138824376 0.0412827470818 -0.252661313568 -0.660479469898 -2.23247950596 -0.932725337273 0.27826004738 0.253005039134 0.779257062093
16.5766817481 1.02090369945 -0.224198130419 0.0423698276989 -0.254327165032 -0.662379635742 -2.23644317536 -0.932116725602 0.277202613311 0.250007988393 0.779493568639
16.6269673392 1.01782972198 -0.228169317833 0.0433935894357 -0.255989594971 -0.664312037459 -2.24035268876 -0.9314690328 0.276158841933 0.247044720281 0.779696398625
16.675285483 1.0147493878 -0.232142000765 0.0444168793301 -0.25765102671 -0.666254453919 -2.24425841018 -0.930813217849 0.275127947774 0.244065327075 0.779900180622
16.7217359234 1.01166267963 -0.236116194068 0.0454396105255 -0.259311546022 -0.668206827088 -2.24816036925 -0.930149367173 0.274110044147 0.241069995403 0.780104973619
16.7668375617 1.00856958012 -0.240091912229 0.046461696812 -0.260971237947 -0.670169100639 -2.25205859311 -0.929477567516 0.27310524461 0.238058908284 0.780310831915
16.8106297126 1.00547007194 -0.244069169379 0.0474830525931 -0.262630186834 -0.672141219886 -2.25595310641 -0.9287979059 0.272113663024 0.235032245164 0.780517805269
16.8538543794 1.00228173771 -0.247956018544 0.0484391886817 -0.26428584283 -0.674141592257 -2.25979283151 -0.928080457562 0.271135587636 0.232041487962 0.78069323926
16.8954080929 0.999086806942 -0.251844332828 0.0493946023024 -0.265940765882 -0.676151179675 -2.26362904653 -0.927355390702 0.270170561147 0.22903547914 0.780870185695
16.9353555632 0.995885264643 -0.255734123977 0.0503492105384 -0.267595037015 -0.678169939251 -2.26746176673 -0.926622791715 0.269218696521 0.226014382718 0.781048679304
16.9745308909 0.992677095733 -0.259625403442 0.0513029310054 -0.269248736693 -0.680197829188 -2.27129100519 -0.925882747299 0.268280107011 0.222978359762 0.781228750856
17.0129491122 0.989462285019 -0.263518182379 0.0522556818284 -0.270901944843 -0.682234808729 -2.27511677279 -0.925135344433 0.267354906192 0.219927568404 0.78141042726
17.0512071185 0.986161544996 -0.267318344413 0.0531414478454 -0.272551977205 -0.684296164029 -2.2788871518 -0.924351501263 0.266442962771 0.216914719377 0.781562543673
17.0887252874 0.982853985395 -0.271119924535 0.0540262727478 -0.274201520527 -0.686366023492 -2.2826542429 -0.923560549112 0.265544221729 0.213887386969 0.781716603078
17.1255180088 0.979539593062 -0.27492293175 0.05491007698 -0.275850651952 -0.688444355809 -2.28641804896 -0.922762574072 0.264658795729 0.210845716154 0.781872619992
17.1615993829 0.97621835467 -0.278727374802 0.0557927814466 -0.277499448161 -0.690531130271 -2.29017857094 -0.921957662572 0.263786797691 0.207789849516 0.782030605466
17.1973370791 0.97289025673 -0.282533262185 0.0566743074842 -0.279147985417 -0.692626316761 -2.29393580784 -0.921145901312 0.262928340883 0.204719927196 0.782190567224
17.2328855837 0.969479236524 -0.286244407489 0.0574872171908 -0.280793455746 -0.694742096265 -2.2976371006 -0.920299088015 0.262082803324 0.20168990859 0.782322809045
17.2691618617 0.966061187914 -0.289956908677 0.0582989963149 -0.282438663222 -0.696865741238 -2.30133527839 -0.919445678114 0.261250603794 0.19864608595 0.782457314158
17.3061808725 0.962636099185 -0.29367077223 0.059109568263 -0.284083681667 -0.698997229131 -2.30503033339 -0.91858575727 0.260431854502 0.195588588192 0.78259407986
17.3439578817 0.959203958417 -0.297386004411 0.0599188568311 -0.285728584555 -0.701136537675 -2.30872225597 -0.917719411426 0.259626667996 0.192517542148 0.782733100469
17.3825084673 0.955764753485 -0.301102611258 0.0607267861944 -0.287373445012 -0.703283644852 -2.31241103468 -0.916846726796 0.258835157175 0.189433072594 0.782874367371
17.4208098792 0.95224573782 -0.304722437238 0.0614645994009 -0.289015341174 -0.705447650139 -2.31604336861 -0.915940410362 0.258056141344 0.186390401306 0.782989629527
17.4598949603 0.948719497094 -0.308343542584 0.062201119605 -0.290657185317 -0.707618941519 -2.31967271985 -0.915028009842 0.257290581382 0.183334529574 0.783107380208
17.500178631 0.94518602076 -0.311965931415 0.0629362728604 -0.292299048377 -0.709797503074 -2.32329907108 -0.914109610235 0.256538589034 0.18026557245 0.783227601984
17.5416976904 0.941645298036 -0.31558960764 0.0636699855779 -0.293941000981 -0.711983318882 -2.32692240334 -0.91318529684 0.255800276352 0.177183643259 0.783350274724
17.5844900566 0.938097317904 -0.319214574937 0.0644021845258 -0.295583113431 -0.714176372973 -2.33054269598 -0.912255155275 0.25507575567 0.174088853651 0.783475375604
17.6272778569 0.934472737548 -0.322740811062 0.0650628973588 -0.297222359017 -0.716382714149 -2.33410610575 -0.911292824528 0.25436322309 0.171037695559 0.783576073613
17.6714523057 0.930840746079 -0.326268236199 0.0657221801004 -0.298861749597 -0.718595811463 -2.3376666311 -0.910324919656 0.253664246625 0.167973875006 0.783679402607
17.7175143375 0.92720133391 -0.32979685216 0.0663799612556 -0.300501353442 -0.720815653877 -2.34122424629 -0.909351524885 0.252978937359 0.164897495132 0.783785332248
17.7655445325 0.923554491205 -0.333326660554 0.0670361696562 -0.302141238554 -0.723042230157 -2.344778924 -0.908372724718 0.252307406716 0.161808657551 0.783893829782
17.8161277459 0.919900207875 -0.336857662763 0.0676907344698 -0.303781472637 -0.72527552882 -2.34833063531 -0.907388603966 0.251649766394 0.158707462436 0.784004860001
17.8679782594 0.916172628496 -0.340288073655 0.068272571171 -0.305418932402 -0.727518585445 -2.35182509383 -0.906373749803 0.251003528447 0.155651674303 0.784092985464
17.9171717182 0.912437461338 -0.343719569473 0.0688528646657 -0.307056721119 -0.729767909826 -2.35531673761 -0.905353826465 0.250370929304 0.15258370437 0.784183811412
17.9640728009 0.908694697637 -0.347152149756 0.0694315457516 -0.308694904555 -0.732023494473 -2.35880553325 -0.904328917201 0.249752079341 0.149503645272 0.784277296211
18.0092354082 0.90494432837 -0.350585813812 0.0700085455536 -0.310333548192 -0.734285331502 -2.36229144586 -0.903299105571 0.249147089191 0.146411588395 0.784373395939
18.0563272205 0.901186344251 -0.354020560711 0.0705837955242 -0.311972717219 -0.73655341262 -2.365774439 -0.902264475447 0.248556069743 0.143307623875 0.784472064403
18.1042950011 0.897358456774 -0.357352947706 0.0710852012432 -0.313609199458 -0.738827803941 -2.36919988155 -0.901200571881 0.247975792316 0.140250785911 0.784549230829
18.1548117694 0.893522813321 -0.360686301711 0.0715849734505 -0.315246181859 -0.741108010051 -2.37262255463 -0.900132096631 0.247409219084 0.137182195935 0.784629102595
18.2085448811 0.889679405864 -0.364020619958 0.0720830451426 -0.316883727732 -0.743394025894 -2.37604241783 -0.899059131817 0.246856459574 0.134101937312 0.784711628035
18.266270551 0.885828226108 -0.367355899426 0.0725793496475 -0.31852190008 -0.745685845878 -2.3794594293 -0.897981759886 0.246317623516 0.131010092349 0.784796753311
18.3289054705 0.881969265498 -0.37069213683 0.0730738206269 -0.320160761589 -0.74798346386 -2.3828735457 -0.896900063609 0.245792820843 0.127906742297 0.784884422436
18.3961597589 0.878043877694 -0.373924338462 0.0734934547555 -0.321797018341 -0.75028402599 -2.38622988833 -0.895790549608 0.245278029617 0.124852183422 0.784951904256
18.4600013501 0.874110573517 -0.37715737508 0.0739113868673 -0.323433933648 -0.752589980397 -2.38958348567 -0.894676951641 0.244776990966 0.121786256669 0.785022038715
18.5299646189 0.870169345625 -0.38039124155 0.0743275521004 -0.325071568342 -0.754901323555 -2.39293429083 -0.89355935055 0.244289813436 0.118709037141 0.785094765181
18.6089596323 0.866220186415 -0.38362593245 0.0747418859418 -0.326709982905 -0.757218051274 -2.3962822555 -0.892437827532 0.243816605686 0.115620599072 0.78517002092
18.7016736404 0.862263088035 -0.386861442082 0.0751543242051 -0.328349237503 -0.759540158737 -2.39962732992 -0.891312464057 0.24335747662 0.112521015696 0.785247741233
18.7825423103 0.858243117149 -0.389991333849 0.0754910539528 -0.329985963256 -0.761861926963 -2.40291448335 -0.890160726319 0.242907562923 0.1094718333 0.785306507959
18.8547616865 0.854215076833 -0.393121914088 0.075826034062 -0.331623492812 -0.76418869138 -2.4061988972 -0.889005380378 0.242471433542 0.106411625739 0.78536782329
18.9209271295 0.850178960429 -0.39625317522 0.0761592017864 -0.333261884453 -0.766520449238 -2.40948051851 -0.887846505661 0.242049195887 0.103340460706 0.785431618546
18.9885576722 0.846134761025 -0.399385109345 0.0764904947401 -0.334901196079 -0.768857197041 -2.41275929293 -0.88668418194 0.241640957447 0.100258405132 0.78549782304
19.063009771 0.842082471475 -0.402517708256 0.0768198508796 -0.336541485238 -0.771198930576 -2.41603516467 -0.885518489267 0.241246825903 0.0971655250705 0.785566364208
19.131621495 0.837970937758 -0.405543201964 0.0770727448754 -0.33817931466 -0.773537125463 -2.41925304459 -0.884327846079 0.240861053072 0.0941246006507 0.785617111149
19.1952439013 0.833851188634 -0.408569222713 0.0773238616367 -0.339818079496 -0.775879943552 -2.42246817421 -0.88313405647 0.240489080069 0.0910729558579 0.785670256919
19.2547040878 0.829723218146 -0.41159576037 0.0775731405358 -0.341457835358 -0.778227382225 -2.4256804949 -0.881937198347 0.240131012969 0.0880106517358 0.785725725549
19.3108299172 0.825587020119 -0.414622804486 0.077820521291 -0.343098637491 -0.780579438113 -2.42888994657 -0.880737349867 0.239786958045 0.0849377485059 0.785783439307
19.3699361593 0.821442588151 -0.417650344243 0.0780659440057 -0.344740540703 -0.78293610701 -2.43209646775 -0.879534589525 0.23945702159 0.0818543057252 0.785843318541
19.4341553829 0.817242609205 -0.420569387194 0.0782342657991 -0.34638004583 -0.785286123278 -2.43524500226 -0.878308275871 0.239134531649 0.078824317571 0.785886495017
19.5038339252 0.813034275848 -0.423488780384 0.0784008019711 -0.348020603739 -0.787640410048 -2.43839076102 -0.877079261776 0.238825841213 0.07578387891 0.785931879865
19.5809004724 0.808817582898 -0.426408511056 0.0785654939979 -0.349662267288 -0.78999896436 -2.44153367997 -0.875847623435 0.238531054996 0.0727330446302 0.785979390685
19.6508559278 0.804592524975 -0.429328566091 0.0787282837339 -0.351305088905 -0.792361782418 -2.44467369364 -0.874613437322 0.238250277792 0.0696718689383 0.786028943327
19.7155866076 0.800359096498 -0.432248931976 0.0788891134284 -0.352949120554 -0.79472885956 -2.44781073514 -0.873376780202 0.237983614435 0.0666004053957 0.786080451854
19.7864059 0.796073882332 -0.435059506198 0.0789723148052 -0.35459080775 -0.797086256991 -2.45088987012 -0.872117934233 0.237723434968 0.063583839184 0.786116287551
19.8514081372 0.791780181792 -0.437870238091 0.0790537405587 -0.35623365025 -0.799447590171 -2.4539661905 -0.870856816305 0.237477039376 0.0605570598853 0.786154105304
19.9121567917 0.787477990561 -0.440681112177 0.0791333342919 -0.357877698017 -0.801812855346 -2.45703962706 -0.8695935008 0.237244530834 0.0575201167808 0.786193816944
19.9694977755 0.78316730415 -0.443492112584 0.0792110400043 -0.359523000548 -0.804182047894 -2.46011010917 -0.868328062354 0.237026012577 0.0544730585145 0.786235332649
20.026951823 0.778848117902 -0.446303223009 0.0792868021209 -0.361169606811 -0.806555162267 -2.46317756483 -0.867060575901 0.236821587791 0.0514159331827 0.786278560843
20.0886177387 0.774480966661 -0.449003344737 0.07928451617 -0.362813913824 -0.80891565814 -2.46618726768 -0.865772226792 0.236622638993 0.0484150910562 0.786307090866
20.1549670755 0.770105204326 -0.451703415462 0.0792804821659 -0.364459463205 -0.811279770919 -2.46919410478 -0.864482015238 0.23643744361 0.045404243049 0.786337345264
20.2168762232 0.765720827559 -0.454403416898 0.0792746458659 -0.366106301886 -0.813647495686 -2.472198002 -0.863190013704 0.236266103127 0.0423834332997 0.786369230743
20.2753120752 0.761327832886 -0.457103330332 0.0792669534479 -0.367754476285 -0.81601882662 -2.47519888385 -0.861896294896 0.23610871904 0.0393527053655 0.786402652424
20.3310208993 0.756926216704 -0.459803136609 0.0792573515208 -0.369404032274 -0.818393756981 -2.4781966734 -0.86060093175 0.235965392841 0.0363121022216 0.786437513844
20.3851574695 0.752480510993 -0.462390856159 0.079169385447 -0.371051325556 -0.820753219596 -2.48113693559 -0.859285989023 0.23582649458 0.0333291109214 0.786458602668
20.4372209715 0.74802607703 -0.464978299657 0.079079715659 -0.372699932223 -0.823115994383 -2.4840742696 -0.857969573159 0.235701304852 0.030336292816 0.786481131019
20.4873510338 0.743562912605 -0.467565445959 0.0789882900801 -0.374349896081 -0.825482074985 -2.48700859663 -0.856651754567 0.235589923394 0.0273336872242 0.786505001192
20.5401413198 0.739091015408 -0.47015227345 0.0788950570933 -0.376001260344 -0.827851454095 -2.48993983649 -0.855332603909 0.235492449845 0.0243213329909 0.786530113897
20.5957328227 0.734610383033 -0.472738760024 0.0787999655509 -0.377654067609 -0.830224123437 -2.49286790766 -0.854012192089 0.235408983726 0.0212992684806 0.786556368276
20.6546837839 0.730089586752 -0.47521216215 0.0786262932524 -0.379304640051 -0.832578566403 -2.49573874657 -0.852673436436 0.235328862474 0.0183360869722 0.786569732678
20.7173837447 0.725559953071 -0.477685046681 0.0784509775011 -0.380956580397 -0.834936029392 -2.49860658445 -0.85133357563 0.235262391009 0.0153632313793 0.786584228769
20.7847377587 0.721021481066 -0.480157389546 0.0782739684366 -0.382609929172 -0.837296504318 -2.50147133807 -0.849992677972 0.2352096671 0.012380736642 0.786599754943
20.8579710801 0.716474169757 -0.482629166188 0.0780952166695 -0.384264726285 -0.839659982153 -2.50433292284 -0.848650811968 0.235170788436 0.00938863720376 0.786616208159
20.9255874692 0.711918018112 -0.485100351512 0.0779146733275 -0.385921010941 -0.842026452857 -2.50719125282 -0.847308046393 0.235145852432 0.00638696715911 0.786633483773
20.9890418424 0.707328568446 -0.487456881703 0.0776560137367 -0.387574180528 -0.844369779333 -2.5099943611 -0.845950504569 0.235119695907 0.00344888558116 0.786635263722
21.0490422809 0.702727290532 -0.489813323899 0.0773952084618 -0.389229653676 -0.846718076924 -2.51279274364 -0.844589793405 0.235110555998 0.000497758848546 0.786641300917
21.1062415489 0.698117073278 -0.49216896277 0.0771327873872 -0.390886568982 -0.849069109878 -2.51558795578 -0.843228394753 0.235115091212 -0.0024628761468 0.786648039994
21.16077019 0.693497919115 -0.494523771603 0.0768687033305 -0.392544963664 -0.851422861176 -2.51837990866 -0.841866369284 0.23513339527 -0.00543299571435 0.786655372876
21.21762269 0.688869828578 -0.496877722319 0.0766029097038 -0.39420487348 -0.853779318863 -2.52116851216 -0.840503783521 0.235165563462 -0.00841256980397 0.786663191834
21.2777599496 0.684211940469 -0.499116405293 0.0762588426999 -0.395861901754 -0.856110606852 -2.52390196815 -0.839127041195 0.235196165037 -0.0113282156624 0.786657118589
21.3417612254 0.679542059567 -0.501354665423 0.0759127088029 -0.397521221953 -0.858446501286 -2.52663062406 -0.837747517498 0.235243613812 -0.0142566556849 0.786654876413
21.4105119503 0.674863147918 -0.503591843617 0.0755650511012 -0.399182000793 -0.860784859966 -2.52935601408 -0.836367631371 0.235304651502 -0.0171945023599 0.78665298926
21.4852936639 0.670175209665 -0.505827910197 0.0752158246899 -0.400844272013 -0.863125663957 -2.53207804557 -0.834987441481 0.235379369567 -0.0201417354055 0.786651346389
21.5543096248 0.665478247106 -0.508062834054 0.0748649853161 -0.402508067782 -0.86546889918 -2.53479662449 -0.833607012031 0.23546786097 -0.0230983284919 0.786649837426
21.6189572088 0.660756178317 -0.510181726594 0.0744360631902 -0.404168828832 -0.867784113595 -2.53746086792 -0.832213915356 0.235552996897 -0.0259893321373 0.786634589796
21.680079889 0.656021965194 -0.512299840757 0.0740051681814 -0.40583184849 -0.870103571483 -2.54012022481 -0.83081838942 0.235654795039 -0.0288929076657 0.786622732986
21.738347935 0.651278641613 -0.514416579401 0.0735728547347 -0.40749632624 -0.87242522883 -2.5427762129 -0.82942279774 0.235770081924 -0.0318058097644 0.786610874709
21.7938943968 0.64652621362 -0.516531909932 0.0731390802613 -0.409162292282 -0.874749064674 -2.54542873609 -0.828027196921 0.235898946602 -0.034728021266 0.78659890215
21.8473756662 0.641764685493 -0.518645798267 0.0727038028781 -0.410829775139 -0.877075062694 -2.54807769671 -0.826631648807 0.236041479543 -0.0376595192354 0.786586702886
21.9027199922 0.636982200353 -0.520643143957 0.072190586252 -0.412494261162 -0.879370753444 -2.55067286246 -0.825224403685 0.236179570985 -0.0405245175154 0.78656162136
21.9610368365 0.632187431339 -0.522639334304 0.0716755050622 -0.414160950457 -0.881670328665 -2.5532630443 -0.8238150515 0.236334126246 -0.0434018898803 0.786539479351
22.0224457698 0.627383482935 -0.524633839917 0.0711591233483 -0.415829079872 -0.883971846157 -2.55584974775 -0.822405906416 0.236502057767 -0.0462885280693 0.786516971451
22.0877570355 0.62257036329 -0.52662662534 0.0706414008694 -0.417498676008 -0.886275282844 -2.55843287352 -0.820997022909 0.236683452056 -0.0491844177882 0.786493983293
22.1579128848 0.617748078879 -0.528617653567 0.0701222981425 -0.419169763691 -0.888580620064 -2.5610123206 -0.819588460416 0.236878396954 -0.0520895392263 0.786470400926
22.2349083332 0.612909012148 -0.530491742011 0.0695254743102 -0.42083789153 -0.890853460029 -2.56353857423 -0.818169118403 0.237067804389 -0.0549273008146 0.786434779324
22.3226741706 0.608057535075 -0.532364277394 0.0689269075769 -0.422508145602 -0.893129828247 -2.56605973689 -0.816747961552 0.237273464453 -0.0577772611353 0.786401638933
22.4258845387 0.6031968212 -0.534234803809 0.0683271699024 -0.42417980452 -0.895407888196 -2.56857730582 -0.815327260568 0.237492376397 -0.0606364443247 0.786367763468
22.5588524441 0.598326880979 -0.53610328301 0.0677262234213 -0.425852891248 -0.89768761462 -2.57109117879 -0.813907067745 0.237724624069 -0.0635048387296 0.786333037516
22.8192890935 0.593447723303 -0.537969675157 0.0671240310772 -0.42752742689 -0.89996898644 -2.57360125178 -0.812487440065 0.23797029255 -0.066382427407 0.786297346101
23.0135812543 0.593335534135 -0.536032208328 0.0658266093945 -0.427466408523 -0.899389571489 -2.57275136509 -0.81227228965 0.237684888465 -0.0651265620955 0.786181156472
23.099551847 0.593222249476 -0.534094481415 0.0645289700039 -0.427405360537 -0.898811498232 -2.57190071085 -0.812056620059 0.237401439204 -0.0638710328716 0.786063672967
23.166291207 0.593110033872 -0.532156410533 0.0632315802452 -0.427343858942 -0.898233362013 -2.57105035342 -0.811841587151 0.23711794406 -0.0626143060167 0.785942894977
23.2227464426 0.592996739176 -0.530218111545 0.0619339309851 -0.427282399105 -0.897656738574 -2.57019914264 -0.811626061044 0.236836636052 -0.0613579592284 0.785821049788
23.2729697907 0.592883113766 -0.528279660147 0.0606362712972 -0.427220821481 -0.897080755303 -2.56934752574 -0.811410120502 0.23655662244 -0.0601018142257 0.785697253097
23.3188963611 0.592768411227 -0.526340982367 0.0593383541592 -0.427159292614 -0.896506287463 -2.5684950717 -0.811193686927 0.236278790688 -0.0588460456913 0.785572387942
23.3613120978 0.592653378598 -0.524402152836 0.0580404296363 -0.427097649818 -0.895932460464 -2.56764221946 -0.810976837263 0.236002252141 -0.0575904746071 0.785445574456
23.4008785977 0.592537270804 -0.522463099089 0.0567422494098 -0.427036063392 -0.89536015214 -2.56678854721 -0.810759495324 0.235727890095 -0.0563352760701 0.785317691221
23.438154943 0.592420833631 -0.520523893733 0.0554440650947 -0.426974366287 -0.894788484313 -2.5659344838 -0.81054173505 0.235454819929 -0.0550802706195 0.785187862914
23.4736261686 0.592303323219 -0.518584466329 0.0541456268325 -0.42691273315 -0.894218338219 -2.56507961752 -0.810323483242 0.235183920822 -0.0538256336403 0.785056963658
23.507715981 0.592185484116 -0.516644887462 0.0528471877838 -0.426850992583 -0.893648832135 -2.56422436714 -0.810104810847 0.234914312181 -0.0525711852864 0.784924122607
23.5404793358 0.592066573657 -0.51470508869 0.0515484965857 -0.42678932352 -0.89308085053 -2.56336833111 -0.80988564762 0.234646868908 -0.0513171011369 0.78479020933
23.5722816044 0.591947335182 -0.512765138631 0.0502498078766 -0.426727550323 -0.892513508429 -2.56251191804 -0.809666061566 0.234380714761 -0.0500632010865 0.784654357714
23.6031520366 0.591827027205 -0.510824970836 0.0489508687923 -0.426665856207 -0.891947693484 -2.56165473648 -0.809445985389 0.234116720376 -0.0488096608472 0.784517432845
23.6331169103 0.591706391857 -0.50888465191 0.0476519355099 -0.426604061202 -0.891382517268 -2.56079718503 -0.809225484116 0.233854013522 -0.0475563000459 0.784378572946
23.6622037518 0.591584688797 -0.506944117355 0.0463527537104 -0.426542352721 -0.890818870392 -2.55993888241 -0.809004493364 0.233593460355 -0.04630329442 0.784238638477
23.6907196855 0.591462659012 -0.505003431889 0.0450535809548 -0.426480546716 -0.890255861616 -2.55908021696 -0.808783075289 0.23333419342 -0.0450504635489 0.784096772683
23.7186768171 0.591339563276 -0.503062532927 0.0437541615154 -0.426418834719 -0.889694384289 -2.5582208176 -0.808561168384 0.233077074182 -0.0437979830852 0.78395383125
23.7460852116 0.591216141428 -0.501121483254 0.0424547543983 -0.426357028509 -0.889133544158 -2.55736106257 -0.8083388319 0.232821239623 -0.042545672555 0.783808962056
23.7729564791 0.591091655345 -0.499180222207 0.0411551024483 -0.426295323764 -0.888574237337 -2.55650059092 -0.808116007215 0.232567546636 -0.0412937074834 0.783663016186
23.7993003186 0.590966843743 -0.497238810662 0.0398554660925 -0.426233528135 -0.888015566697 -2.55563977079 -0.807892750695 0.232315136741 -0.0400419074299 0.78351514619
23.8251278628 0.590840969569 -0.495297189836 0.0385555867944 -0.426171841364 -0.887458430887 -2.5547782514 -0.807669006563 0.232064862047 -0.0387904476792 0.78336619841
23.850448461 0.590714770456 -0.493355418757 0.0372557263325 -0.42611006709 -0.886901930218 -2.55391639072 -0.807444828357 0.231815868935 -0.0375391479589 0.783215330322
23.8752727944 0.590587510401 -0.49141344052 0.0359556247898 -0.426048409115 -0.886346965818 -2.55305384808 -0.807220163137 0.231569004738 -0.0362881832442 0.783063383588
23.899853238 0.590459925951 -0.489471312249 0.034655545363 -0.425986666963 -0.885792635228 -2.55219097142 -0.806995061575 0.231323420361 -0.0350373734278 0.782909520224
23.9251811701 0.590331282134 -0.487528978901 0.033355226767 -0.425925048468 -0.885239841952 -2.55132743021 -0.806769473552 0.231079958314 -0.0337868930944 0.782754577227
23.9510201854 0.590202314453 -0.485586495781 0.0320549335243 -0.425863349196 -0.884687681171 -2.55046356223 -0.806543446941 0.230837774458 -0.0325365624628 0.782597721515
23.9773813195 0.590072288928 -0.483643809656 0.0307544030392 -0.425801780912 -0.88413705848 -2.54959904712 -0.806316934401 0.230597706213 -0.0312865555968 0.782439785218
24.0042743824 0.589941940051 -0.481700974032 0.0294539011359 -0.425740135269 -0.88358706685 -2.54873421253 -0.806089981028 0.230358914498 -0.030036693135 0.782279940197
24.0317108315 0.589810534814 -0.479757937493 0.0281531638963 -0.425678627979 -0.883038613946 -2.54786874822 -0.80586254226 0.230122231706 -0.028787148558 0.782119013837
24.0597009031 0.589678806701 -0.477814751714 0.0268524584931 -0.425617046709 -0.882490790413 -2.54700297178 -0.805634660394 0.229886823589 -0.0275377429488 0.781956182661
24.088256499 0.589546023654 -0.475871367077 0.0255515196964 -0.425555611095 -0.881944505877 -2.54613658309 -0.805406293628 0.229653517463 -0.0262886491181 0.781792269319
24.1173882936 0.589412918192 -0.473927833492 0.0242506159579 -0.425494104939 -0.881398848986 -2.54526988963 -0.805177481514 0.229421484237 -0.0250396887367 0.781626455256
24.1474058503 0.589278759162 -0.471984103071 0.0229494808059 -0.425432751675 -0.880854730989 -2.54440260146 -0.804948184957 0.22919154583 -0.0237910337975 0.781459558132
24.1783353335 0.58914427816 -0.470040224028 0.0216483838995 -0.425371331367 -0.880311238873 -2.54353501587 -0.804718440824 0.228962878625 -0.0225425067057 0.781290764568
24.2102052054 0.589008744917 -0.468096150204 0.0203470575237 -0.425310071244 -0.879769285438 -2.54266685309 -0.804488212715 0.228736299152 -0.0212942785568 0.781120887299
24.2437033152 0.588872890104 -0.466151928056 0.0190457726184 -0.425248747517 -0.87922795581 -2.54179840032 -0.804257534769 0.228510988938 -0.0200461724952 0.780949117738
24.2785650385 0.58873598432 -0.464207513157 0.0177442602105 -0.425187591227 -0.878688164311 -2.54092938792 -0.804026373286 0.228287759183 -0.0187983586507 0.780776263814
24.3152078485 0.588598757347 -0.462262950253 0.0164427924751 -0.425126374812 -0.878148994457 -2.54006009299 -0.803794759714 0.228065796769 -0.0175506610333 0.780601521882
24.35372359 0.588460480608 -0.460318196594 0.0151410992391 -0.425065333023 -0.877611361788 -2.53919025606 -0.803562663004 0.227845907303 -0.0163032486639 0.780425694862
24.3946119285 0.588321883042 -0.458373295287 0.0138394538414 -0.425004234651 -0.877074348555 -2.53832014406 -0.803330111975 0.227627283339 -0.0150559465708 0.78024798431
24.4384540152 0.58818223687 -0.456428205252 0.0125375849047 -0.424943318156 -0.87653887144 -2.53744950766 -0.803097078219 0.227410724895 -0.0138089225809 0.780069188197
24.4859323088 0.588042270192 -0.454482967894 0.0112357670096 -0.424882348561 -0.876004011229 -2.53657860375 -0.80286358788 0.227195429875 -0.0125620027506 0.779888512899
24.5389074245 0.587901256004 -0.452537543797 0.00993372756997 -0.424821568032 -0.875470685666 -2.5357071931 -0.802629615185 0.226982192708 -0.0113153536262 0.779706751505
24.5998055526 0.587759921609 -0.450591972739 0.00863174233796 -0.424760737951 -0.874937974423 -2.5348355225 -0.802395183665 0.226770216966 -0.0100688024491 0.779523115466
24.6746646866 0.587617540727 -0.448646216883 0.00732953760189 -0.424700104041 -0.874406795895 -2.53396336291 -0.802160270109 0.226560291123 -0.00882251431082 0.779338392679
24.7825034021 0.58747483992 -0.446700314476 0.00602739018791 -0.424639424213 -0.873876229099 -2.53309095091 -0.801924895515 0.226351624839 -0.00757631782134 0.779151800035
25.0 0.58733109361 -0.444754229269 0.00472502524061 -0.424578947774 -0.873347193039 -2.53221806764 -0.801689039239 0.226145000689 -0.00633037653738 0.778964120352
