liuchen18/hilsys_new/sim_sys/data/fwx_planned_trajectory.txt
this is the FWX joint values,the following info is time,x,y,theta,joint1,joint2,joint3,joint4,joint5,joint6,joint7
0.0 2.5084052104 -0.0595520073077 7.28532557382 2.9668 -1.22433419472 -0.0285585387495 -1.87957422347 -0.942678343921 1.12440770739 -0.650272380183
0.0776032353078 2.50449218899 -0.0595485004591 7.28584222451 2.9668 -1.22353412869 -0.0297843898613 -1.88001694487 -0.943683977724 1.12297360213 -0.649987425418
0.138001754689 2.50057883316 -0.0595450297801 7.28635853476 2.9668 -1.22273289572 -0.0310109426678 -1.88045581691 -0.944689315344 1.1215408341 -0.649702604937
0.189553581068 2.49666514294 -0.0595415958996 7.28687450954 2.9668 -1.22193050376 -0.0322381913633 -1.88089084652 -0.945694349089 1.120109405 -0.649417920248
0.235426865965 2.49275111836 -0.0595381994371 7.28739015381 2.9668 -1.22112696075 -0.0334661301677 -1.88132204063 -0.946699071294 1.11867931649 -0.649133372843
0.277374218894 2.48883675949 -0.0595348410031 7.28790547253 2.9668 -1.2203222746 -0.0346947533341 -1.88174940622 -0.94770347434 1.11725057015 -0.648848964193
0.315731629392 2.48492206637 -0.0595315211989 7.28842047068 2.9668 -1.21951645315 -0.0359240551418 -1.88217295031 -0.948707550637 1.11582316753 -0.648564695749
0.351869048349 2.4810070479 -0.059528247682 7.28893512992 2.9668 -1.2187095053 -0.0371540443798 -1.88259268306 -0.949711297862 1.11439713151 -0.648280558352
0.38625551298 2.47709169356 -0.0595250122485 7.28944948904 2.9668 -1.21790143675 -0.0383846972951 -1.88300860835 -0.950714696922 1.11297243636 -0.647996565812
0.418975844139 2.47317600525 -0.059521817198 7.28996354251 2.9668 -1.21709225623 -0.0396160118507 -1.88342073334 -0.951717746664 1.11154908927 -0.647712717683
0.450422120326 2.46925998309 -0.0595186630954 7.2904772953 2.9668 -1.21628197144 -0.0408479824439 -1.88382906513 -0.952720439641 1.11012709161 -0.64742901534
0.480643949186 2.46534362721 -0.0595155504962 7.29099075242 2.9668 -1.21547059004 -0.0420806035008 -1.88423361088 -0.953722768442 1.10870644469 -0.64714546014
0.509979456706 2.46142693773 -0.0595124799472 7.29150391882 2.9668 -1.21465811964 -0.0433138694767 -1.88463437778 -0.954724725688 1.10728714977 -0.646862053424
0.538454635626 2.45750991482 -0.0595094519857 7.29201679952 2.9668 -1.21384456784 -0.0445477748557 -1.88503137303 -0.955726304038 1.10586920806 -0.64657879651
0.566094702064 2.45359256049 -0.0595064688612 7.29252938898 2.9668 -1.21302994324 -0.0457823177472 -1.88542460396 -0.956727502451 1.10445262659 -0.646295688841
0.592924171985 2.44967487118 -0.0595035276584 7.2930417132 2.9668 -1.21221425119 -0.0470174854856 -1.88581407763 -0.957728301126 1.1030373948 -0.646012735383
0.619227230859 2.44575684894 -0.0595006306015 7.29355376668 2.9668 -1.21139750024 -0.0482532762528 -1.88619980142 -0.958728699086 1.10162351962 -0.645729935577
0.645014205618 2.44183849398 -0.0594977781921 7.2940655544 2.9668 -1.21057969781 -0.0494896846488 -1.88658178263 -0.959728689129 1.10021100209 -0.645447290671
0.670295219291 2.43791980649 -0.0594949709226 7.29457708136 2.9668 -1.20976085128 -0.0507267053014 -1.88696002859 -0.960728264084 1.09879984323 -0.645164801891
0.695080198503 2.43400078669 -0.0594922092767 7.29508835254 2.9668 -1.208940968 -0.0519643328676 -1.88733454665 -0.961727416817 1.09739004398 -0.644882470447
0.719378874978 2.43008143481 -0.0594894937288 7.29559937294 2.9668 -1.20812005528 -0.0532025620332 -1.88770534419 -0.962726140229 1.09598160527 -0.644600297531
0.743200778037 2.42616175301 -0.0594868264539 7.29611013703 2.9668 -1.20729812156 -0.054441391126 -1.88807242875 -0.963724433453 1.09457453382 -0.644318282477
0.766555281077 2.42224173766 -0.0594842044974 7.29662067082 2.9668 -1.20647517167 -0.0556808076444 -1.88843580741 -0.964722277061 1.09316881876 -0.644036430082
0.789451543101 2.41832139095 -0.0594816300095 7.2971309688 2.9668 -1.20565121401 -0.0569208099883 -1.88879548777 -0.965719670251 1.09176446675 -0.643754739681
0.812123024987 2.41440071316 -0.0594791034293 7.29764103594 2.9668 -1.20482625572 -0.0581613929567 -1.88915147728 -0.966716606057 1.09036147855 -0.643473212394
0.834571930651 2.41047970456 -0.0594766251871 7.29815087724 2.9668 -1.2040003039 -0.0594025513772 -1.88950378342 -0.967713077551 1.08895985487 -0.643191849322
0.856800443024 2.40655836542 -0.0594741957045 7.29866049767 2.9668 -1.20317336562 -0.0606442801041 -1.88985241366 -0.968709077834 1.08755959641 -0.642910651549
0.878810725541 2.40263669605 -0.0594718153941 7.29916990223 2.9668 -1.2023454479 -0.0618865740209 -1.8901973755 -0.969704600044 1.08616070379 -0.642629620142
0.900604905659 2.39871469876 -0.0594694863579 7.29967908538 2.9668 -1.20151655904 -0.0631294316739 -1.8905386767 -0.970699643489 1.08476318352 -0.64234875433
0.922185127326 2.39479236982 -0.0594672056022 7.3001880731 2.9668 -1.20068670335 -0.0643728407145 -1.89087632432 -0.971694189099 1.0833670244 -0.642068058747
0.943553476016 2.39086971157 -0.0594649752045 7.30069685988 2.9668 -1.19985588905 -0.0656167997602 -1.89121032615 -0.972688236244 1.08197223284 -0.641787532625
0.964712032709 2.38694672434 -0.0594627955429 7.30120545067 2.9668 -1.19902412303 -0.0668613038052 -1.89154068975 -0.973681778193 1.08057880935 -0.64150717696
0.985662852895 2.38302340846 -0.0594606669866 7.30171385045 2.9668 -1.1981914121 -0.0681063478711 -1.89186742271 -0.97467480825 1.07918675439 -0.641226992732
1.00640797557 2.37909976429 -0.0594585898961 7.30222206419 2.9668 -1.19735776305 -0.0693519270056 -1.8921905326 -0.975667319747 1.0777960684 -0.640946980903
1.02694941725 2.37517579217 -0.0594565646238 7.30273009685 2.9668 -1.19652318262 -0.0705980362856 -1.89251002705 -0.976659306054 1.07640675177 -0.640667142419
1.04728916596 2.37125149455 -0.0594545932002 7.30323794286 2.9668 -1.19568767895 -0.0718446744733 -1.89282591396 -0.977650766652 1.07501881077 -0.640387476407
1.06742922021 2.36732686761 -0.0594526725926 7.30374562821 2.9668 -1.19485125585 -0.0730918293632 -1.89313820036 -0.978641682812 1.07363223391 -0.640107987345
1.08737152905 2.36340191383 -0.0594508048079 7.30425314733 2.9668 -1.19401392138 -0.0743394997877 -1.8934468942 -0.979632054077 1.07224702742 -0.639828674363
1.10711803103 2.35947663358 -0.0594489901642 7.30476050517 2.9668 -1.19317568215 -0.075587680931 -1.89375200313 -0.980621873944 1.07086319154 -0.63954953834
1.1266706482 2.35555102726 -0.0594472289709 7.30526770667 2.9668 -1.19233654469 -0.076836368003 -1.89405353481 -0.981611135939 1.06948072653 -0.639270580137
1.14603128012 2.35162509526 -0.0594455215293 7.30577475677 2.9668 -1.19149651553 -0.0780855562409 -1.89435149691 -0.982599833624 1.06809963259 -0.6389918006
1.16520181139 2.34769883799 -0.0594438681321 7.3062816604 2.9668 -1.19065560112 -0.0793352409076 -1.89464589713 -0.983587960588 1.06671990989 -0.638713200557
1.18399615335 2.34377225803 -0.0594422707408 7.30678841196 2.9668 -1.18981380944 -0.0805854209796 -1.89493674351 -0.984575516486 1.0653415645 -0.63843477904
1.20279205604 2.33984535145 -0.0594407262838 7.3072950374 2.9668 -1.18897114382 -0.0818360843828 -1.89522404301 -0.985562482918 1.06396458469 -0.638156540373
1.22158951198 2.33591812084 -0.0594392366993 7.30780153113 2.9668 -1.18812761215 -0.0830872301613 -1.89550780372 -0.986548859591 1.06258897647 -0.63787848359
1.24038851515 2.33199056665 -0.0594378022469 7.30830789805 2.9668 -1.18728322076 -0.0843388536832 -1.89578803336 -0.987534640224 1.06121473991 -0.637600609457
1.25918906556 2.3280626893 -0.0594364231778 7.30881414307 2.9668 -1.18643797593 -0.0855909503416 -1.89606473964 -0.988519818562 1.05984187504 -0.637322918721
1.27799116022 2.32413448925 -0.059435099735 7.30932027108 2.9668 -1.18559188389 -0.0868435155553 -1.8963379303 -0.989504388384 1.05847038186 -0.637045412116
1.29679479911 2.32020596693 -0.0594338321536 7.30982628698 2.9668 -1.18474495086 -0.0880965447694 -1.89660761307 -0.990488343499 1.05710026035 -0.636768090358
1.31559996576 2.31627712506 -0.0594326223276 7.31033218512 2.9668 -1.18389718462 -0.0893500371697 -1.89687379614 -0.991471683725 1.05573151641 -0.636490952385
1.33440668115 2.31234795958 -0.0594314671472 7.31083799142 2.9668 -1.18304858804 -0.0906039808002 -1.89713648636 -0.992454390973 1.05436413808 -0.636214002375
1.35321493328 2.30841847322 -0.059430368484 7.31134370024 2.9668 -1.18219916885 -0.0918583749154 -1.89739569194 -0.99343646512 1.0529981312 -0.635937239271
1.37202471916 2.30448866645 -0.0594293265404 7.31184931643 2.9668 -1.18134893311 -0.0931132150592 -1.89765142063 -0.994417900093 1.05163349565 -0.635660663729
1.39083603579 2.30055853975 -0.0594283415111 7.31235484486 2.9668 -1.18049788683 -0.0943684968022 -1.8979036802 -0.995398689853 1.05027023129 -0.635384276387
1.40964888166 2.2966280936 -0.0594274135823 7.31286029037 2.9668 -1.179646036 -0.0956242157377 -1.89815247841 -0.996378828384 1.04890833794 -0.635108077872
1.42846325379 2.29269732848 -0.0594265429329 7.3133656578 2.9668 -1.17879338654 -0.096880367485 -1.89839782304 -0.997358309706 1.04754781541 -0.634832068793
1.44727914017 2.28876624723 -0.0594257313919 7.31387094145 2.9668 -1.17793994611 -0.0981369514372 -1.89863972237 -0.998337133802 1.04618866947 -0.634556247999
1.4660965588 2.28483484565 -0.0594249758115 7.31437616722 2.9668 -1.17708571709 -0.0993939557434 -1.89887818314 -0.999315282878 1.04483088791 -0.634280619528
1.48491549769 2.2809031266 -0.0594242779986 7.31488132938 2.9668 -1.17623070706 -0.100651379862 -1.89911321365 -1.00029275697 1.04347447645 -0.634005182235
1.50373595383 2.27697109059 -0.0594236381005 7.31538643275 2.9668 -1.17537492181 -0.101909219509 -1.89934482167 -1.00126955021 1.04211943482 -0.63372993667
1.52255792423 2.27303873811 -0.0594230562565 7.31589148213 2.9668 -1.17451836711 -0.103167470423 -1.89957301501 -1.00224565677 1.04076576271 -0.63345488337
1.54138140588 2.26910606969 -0.0594225325981 7.31639648232 2.9668 -1.17366104868 -0.104426128365 -1.89979780143 -1.00322107083 1.0394134598 -0.633180022858
1.56020639879 2.26517308584 -0.0594220672493 7.31690143808 2.9668 -1.1728029722 -0.105685189122 -1.90001918873 -1.0041957866 1.03806252573 -0.632905355641
1.57903288647 2.2612397895 -0.0594216619763 7.31740634365 2.9668 -1.17194414516 -0.106944652289 -1.90023718528 -1.00516980424 1.03671296615 -0.632630880484
1.59786089141 2.25730617635 -0.059421313594 7.3179112249 2.9668 -1.1710845695 -0.108204506108 -1.90045179767 -1.00614310623 1.03536476868 -0.632356601289
1.6166903986 2.25337224935 -0.0594210238468 7.31841607603 2.9668 -1.17022425264 -0.109464750237 -1.9006630343 -1.00711569277 1.03401793891 -0.632082516829
1.63552140506 2.24943800904 -0.0594207928285 7.31892090179 2.9668 -1.16936320012 -0.110725380554 -1.90087090296 -1.00808755817 1.03267247643 -0.631808627555
1.65435390779 2.24550345595 -0.0594206206246 7.31942570691 2.9668 -1.16850141746 -0.111986392961 -1.90107541142 -1.00905869681 1.0313283808 -0.631534933905
1.67318790678 2.24156859063 -0.0594205073136 7.31993049614 2.9668 -1.16763891014 -0.113247783379 -1.90127656747 -1.01002910306 1.02998565156 -0.631261436303
1.69202339604 2.2376334136 -0.0594204529663 7.32043527418 2.9668 -1.16677568359 -0.114509547753 -1.9014743789 -1.01099877134 1.02864428824 -0.630988135161
1.71086036357 2.23369792793 -0.0594204592882 7.32094003516 2.9668 -1.16591174514 -0.115771685879 -1.90166885417 -1.01196770194 1.02730429636 -0.630715029163
1.72969882887 2.22976212914 -0.0594205230576 7.32144480495 2.9668 -1.1650470963 -0.117034186073 -1.90185999971 -1.01293587761 1.02596566339 -0.630442122082
1.74853877994 2.22582602031 -0.0594206459588 7.32194957765 2.9668 -1.16418174435 -0.118297048191 -1.90204782397 -1.01390329871 1.02462839483 -0.630169412613
1.76738021078 2.22188960199 -0.0594208280333 7.32245435794 2.9668 -1.16331569458 -0.119560268267 -1.90223233474 -1.01486995974 1.02329249013 -0.629896901112
1.7862231214 2.21795287473 -0.0594210693152 7.32295915049 2.9668 -1.16244895228 -0.120823842354 -1.9024135398 -1.01583585526 1.02195794876 -0.629624587924
1.80506750729 2.2140158391 -0.059421369831 7.32346395996 2.9668 -1.16158152267 -0.122087766529 -1.90259144691 -1.01680097983 1.02062477013 -0.629352473381
1.82391336546 2.21007849566 -0.0594217296006 7.323968791 2.9668 -1.16071341096 -0.123352036887 -1.90276606385 -1.01776532805 1.01929295368 -0.6290805578
1.84276068391 2.20614084756 -0.0594221502706 7.32447363763 2.9668 -1.15984462435 -0.124616653415 -1.90293739914 -1.01872890036 1.01796250485 -0.628808839793
1.86160948213 2.20220289018 -0.0594226285839 7.3249785257 2.9668 -1.1589751639 -0.125881604498 -1.90310545904 -1.01969167977 1.01663341094 -0.628537323008
1.88045974514 2.1982646267 -0.0594231661663 7.32548344921 2.9668 -1.15810503676 -0.127146890179 -1.90327025207 -1.02065366678 1.01530567738 -0.628266006067
1.89931146993 2.19432605768 -0.0594237630092 7.32598841278 2.9668 -1.15723424799 -0.128412506639 -1.90343178598 -1.02161485607 1.01397930354 -0.627994889237
1.918164655 2.19038718369 -0.0594244190966 7.32649342098 2.9668 -1.15636280265 -0.12967845008 -1.90359006853 -1.02257524238 1.01265428877 -0.627723972774
1.93701929735 2.18644800532 -0.0594251344054 7.3269984784 2.9668 -1.15549070573 -0.13094471672 -1.90374510748 -1.02353482045 1.01133063241 -0.627453256921
1.955875394 2.18250852314 -0.0594259089055 7.32750358962 2.9668 -1.15461796222 -0.132211302801 -1.90389691057 -1.02449358505 1.0100083338 -0.62718274191
1.97473292843 2.1785687404 -0.0594267441875 7.32800874854 2.9668 -1.15374457918 -0.133478208498 -1.90404548638 -1.02545153677 1.00868739832 -0.626912426281
1.99359192465 2.17462865232 -0.059427636959 7.328513981 2.9668 -1.15287055725 -0.134745422241 -1.90419084096 -1.02640865886 1.00736781315 -0.626642313565
2.01245236766 2.17068826217 -0.0594285887903 7.3290192809 2.9668 -1.15199590346 -0.136012944265 -1.9043329829 -1.02736495195 1.00604958365 -0.626372402315
2.03131425296 2.16674757053 -0.0594295996239 7.32952465275 2.9668 -1.15112062265 -0.137280770887 -1.90447191993 -1.02832041091 1.00473270911 -0.626102692714
2.05017757905 2.16280657798 -0.0594306693957 7.33003010106 2.9668 -1.15024471965 -0.138548898448 -1.90460765977 -1.02927503064 1.00341718882 -0.625833184933
2.06904234144 2.15886528512 -0.0594317980343 7.33053563034 2.9668 -1.14936819925 -0.139817323302 -1.90474021013 -1.03022880604 1.00210302204 -0.625563879134
2.08790853862 2.15492369252 -0.0594329854621 7.33104124508 2.9668 -1.1484910662 -0.141086041827 -1.90486957874 -1.03118173207 1.00079020803 -0.625294775466
2.1067761556 2.15098180354 -0.0594342332154 7.33154693904 2.9668 -1.14761332746 -0.142355054382 -1.90499577421 -1.03213380945 0.999478752134 -0.625025872402
2.12564521488 2.14703961323 -0.0594355379672 7.33205273809 2.9668 -1.14673498325 -0.143624349431 -1.90511880241 -1.03308502165 0.998168641412 -0.624757173364
2.14451569846 2.14309712494 -0.0594369012347 7.33255863597 2.9668 -1.14585604049 -0.144893927391 -1.90523867195 -1.03403536944 0.996859881195 -0.624488676837
2.16338760784 2.13915433926 -0.0594383229136 7.33306463712 2.9668 -1.14497650381 -0.146163784711 -1.90535539054 -1.03498484785 0.99555247071 -0.624220382927
2.18226093552 2.1352112568 -0.0594398028927 7.33357074596 2.9668 -1.14409637782 -0.147433917859 -1.90546896585 -1.03593345194 0.994246409177 -0.623952291726
2.201135683 2.13126787813 -0.0594413410548 7.33407696692 2.9668 -1.14321566711 -0.148704323321 -1.90557940556 -1.03688117679 0.992941695811 -0.623684403318
2.22001184429 2.12732420385 -0.0594429372759 7.33458330438 2.9668 -1.14233437622 -0.149974997602 -1.90568671735 -1.0378280175 0.991638329819 -0.623416717774
2.2388894044 2.12338023741 -0.0594445930404 7.335089752 2.9668 -1.14145251203 -0.151245941238 -1.90579090989 -1.03877397494 0.99033631651 -0.623149233505
2.2577683873 2.11943597366 -0.0594463049881 7.33559633562 2.9668 -1.14057007432 -0.152517142716 -1.90589198881 -1.03971903278 0.989035642854 -0.622881953829
2.27664877652 2.11549141606 -0.0594480745846 7.33610304885 2.9668 -1.13968706992 -0.153788602627 -1.90598996278 -1.04066319193 0.987736314156 -0.62261487717
2.29553057054 2.11154656522 -0.0594499016805 7.33660989605 2.9668 -1.13880350326 -0.155060317545 -1.90608483946 -1.04160644757 0.986438329598 -0.622348003559
2.31441376338 2.10760142171 -0.0594517861199 7.33711688155 2.9668 -1.13791937877 -0.15633228406 -1.90617662648 -1.04254879492 0.985141688359 -0.622081333015
2.33329835503 2.10365598614 -0.0594537277409 7.33762400966 2.9668 -1.13703470082 -0.157604498778 -1.90626533146 -1.04349022921 0.983846389613 -0.621814865548
2.3521843425 2.09971025908 -0.0594557263753 7.3381312847 2.9668 -1.13614947377 -0.158876958324 -1.90635096205 -1.04443074571 0.982552432528 -0.621548601157
2.37107170779 2.0957642441 -0.0594577834575 7.33863870016 2.9668 -1.13526370439 -0.160149663409 -1.90643352695 -1.0453703454 0.981259822404 -0.621282538197
2.38996047639 2.09181793583 -0.0594598955948 7.3391462819 2.9668 -1.13437739208 -0.161422602523 -1.90651303157 -1.04630901215 0.979968546125 -0.621016679884
2.40885063331 2.08787133785 -0.0594620642039 7.33965402339 2.9668 -1.13349054358 -0.162695776433 -1.90658948462 -1.047246747 0.978678608991 -0.620751024587
2.42774217255 2.08392445075 -0.0594642890915 7.34016192888 2.9668 -1.13260316314 -0.163969181826 -1.9066628937 -1.04818354528 0.977390010153 -0.620485572266
2.44663509261 2.0799772751 -0.0594665700592 7.3406700026 2.9668 -1.13171525497 -0.165242815408 -1.90673326641 -1.04911940237 0.976102748765 -0.620220322873
2.46552939199 2.07602981151 -0.0594689069018 7.34117824879 2.9668 -1.13082682329 -0.166516673896 -1.90680061031 -1.05005431363 0.974816823972 -0.619955276348
2.4844250662 2.07208206055 -0.0594712994086 7.34168667163 2.9668 -1.12993787225 -0.167790754027 -1.90686493299 -1.05098827448 0.97353223492 -0.619690432623
2.50332209875 2.06813402587 -0.0594737489664 7.34219526451 2.9668 -1.12904840855 -0.169065056684 -1.9069262432 -1.05192128603 0.972248986911 -0.61942579
2.52222051511 2.06418570191 -0.0594762521511 7.34270405325 2.9668 -1.12815843122 -0.170339570348 -1.90698454611 -1.05285333234 0.970967066763 -0.619161351601
2.5411202988 2.06023709234 -0.0594788103318 7.34321303119 2.9668 -1.1272679469 -0.171614295952 -1.90703985048 -1.05378441456 0.969686479779 -0.618897115742
2.56002144683 2.05628819773 -0.0594814232742 7.34372220249 2.9668 -1.12637695966 -0.172889230292 -1.90709216385 -1.05471452818 0.968407225096 -0.618633082319
2.57892395768 2.05233901868 -0.0594840907379 7.34423157126 2.9668 -1.12548547357 -0.174164370178 -1.90714149376 -1.0556436687 0.967129301853 -0.618369251219
2.59782782537 2.04838955574 -0.0594868124769 7.34474114164 2.9668 -1.12459349263 -0.175439712437 -1.90718784773 -1.05657183164 0.965852709183 -0.618105622319
2.61673304989 2.04443980951 -0.0594895882397 7.34525091773 2.9668 -1.12370102085 -0.176715253908 -1.90723123329 -1.05749901254 0.964577446224 -0.617842195488
2.63563961325 2.04048978374 -0.0594924193672 7.34576089272 2.9668 -1.12280806485 -0.177990995639 -1.90727165922 -1.05842521266 0.963303518293 -0.617578968978
2.65454754095 2.03653947262 -0.0594953024049 7.34627109249 2.9668 -1.12191462327 -0.179266926088 -1.90730913048 -1.05935041621 0.962030912149 -0.617315945821
2.67345681798 2.03258887994 -0.059498238677 7.34678151018 2.9668 -1.12102070271 -0.180543046353 -1.90734365583 -1.06027462446 0.960759633116 -0.617053124289
2.69236743835 2.02863800626 -0.059501227909 7.34729214986 2.9668 -1.12012630707 -0.18181935333 -1.90737524278 -1.06119783304 0.95948968033 -0.616790504216
2.71127940206 2.02468685214 -0.0595042698211 7.34780301554 2.9668 -1.11923144024 -0.183095843929 -1.90740389881 -1.06212003759 0.958221052926 -0.616528085427
2.73019270462 2.02073541816 -0.0595073641278 7.34831411125 2.9668 -1.11833610608 -0.184372515073 -1.90742963138 -1.06304123377 0.95695375004 -0.616265867742
2.74910734451 2.01678370489 -0.0595105105381 7.34882544099 2.9668 -1.11744030841 -0.185649363698 -1.90745244797 -1.06396141724 0.955687770807 -0.61600385097
2.76802330227 2.01283171616 -0.0595137103497 7.34933699778 2.9668 -1.11654405381 -0.186926391016 -1.90747235741 -1.06488058938 0.954423120578 -0.615742033319
2.78694060786 2.00887944596 -0.0595169600786 7.34984880751 2.9668 -1.11564734057 -0.188203585447 -1.90748936439 -1.06579873456 0.953159786062 -0.615480417739
2.80585924179 2.00492689816 -0.0595202610059 7.35036086316 2.9668 -1.11475017521 -0.189480948248 -1.90750347773 -1.06671585418 0.951897772618 -0.615219002455
2.82477920258 2.0009740733 -0.0595236128188 7.35087316868 2.9668 -1.11385256149 -0.190758476409 -1.90751470487 -1.06763194399 0.950637079389 -0.614957787247
2.84370048572 1.99702097195 -0.0595270151996 7.35138572799 2.9668 -1.11295450314 -0.192036166932 -1.90752305325 -1.06854699976 0.949377705519 -0.614696771884
2.8626230912 1.99306759466 -0.059530467825 7.351898545 2.9668 -1.11205600386 -0.193314016831 -1.90752853027 -1.06946101727 0.948119650157 -0.614435956131
2.88154701304 1.98911394198 -0.0595339703667 7.3524116236 2.9668 -1.11115706735 -0.194592023132 -1.90753114335 -1.07037399232 0.94686291245 -0.614175339744
2.90047223475 1.98516001784 -0.0595375240805 7.35292495665 2.9668 -1.11025770012 -0.195870187205 -1.90753090136 -1.0712859264 0.94560749779 -0.61391492089
2.9193987863 1.98120581601 -0.0595411254543 7.35343857003 2.9668 -1.1093579001 -0.197148497417 -1.90752780874 -1.07219680404 0.944353392848 -0.613654702437
2.9383266467 1.97725134043 -0.059544775728 7.35395245658 2.9668 -1.10845767379 -0.198426955185 -1.90752187436 -1.07310662673 0.943100603028 -0.613394682575
2.95725581597 1.97329659164 -0.0595484745522 7.35446662012 2.9668 -1.1075570248 -0.199705557584 -1.90751310561 -1.07401539037 0.941849127491 -0.613134861028
2.97618629109 1.96934157018 -0.0595522215731 7.35498106446 2.9668 -1.10665595671 -0.2009843017 -1.90750150986 -1.07492309084 0.940598965401 -0.612875237518
2.99511806758 1.96538627659 -0.0595560164312 7.35549579339 2.9668 -1.10575447308 -0.202263184631 -1.90748709446 -1.07582972404 0.939350115927 -0.612615811756
3.01405114392 1.96143071141 -0.0595598587624 7.3560108107 2.9668 -1.10485257748 -0.203542203488 -1.90746986678 -1.07673528591 0.938102578242 -0.61235658345
3.03298550064 1.95747487866 -0.0595637497829 7.35652610907 2.9668 -1.10395027638 -0.204821359794 -1.90744983574 -1.07763977803 0.936856357788 -0.61209755073
3.05192117072 1.95351877186 -0.0595676859533 7.3570417144 2.9668 -1.10304756737 -0.206100641854 -1.90742700551 -1.07854318508 0.935611441206 -0.61183871639
3.07085813166 1.94956239504 -0.0595716684745 7.35755761935 2.9668 -1.10214445692 -0.207380051236 -1.90740138502 -1.07944550867 0.934367833954 -0.611580078582
3.08979638346 1.94560574874 -0.0595756969622 7.35807382762 2.9668 -1.1012409485 -0.208659585095 -1.9073729816 -1.08034674481 0.933125535221 -0.611321636985
3.10873592163 1.94164883347 -0.0595797710278 7.35859034291 2.9668 -1.10033704556 -0.209939240596 -1.90734180255 -1.08124688949 0.931884544203 -0.611063391273
3.12767674618 1.93769164975 -0.0595838902775 7.3591071689 2.9668 -1.09943275155 -0.211219014914 -1.9073078552 -1.08214593874 0.930644860096 -0.610805341112
3.14661885109 1.9337341981 -0.0595880543133 7.35962430925 2.9668 -1.09852806989 -0.212498905238 -1.90727114685 -1.08304388862 0.929406482107 -0.610547486161
3.16556221988 1.92977648264 -0.059592264313 7.36014175646 2.9668 -1.09762300702 -0.213778913242 -1.90723168647 -1.08394074082 0.928169415736 -0.610289824521
3.18450688404 1.92581849663 -0.0595965167121 7.36065953646 2.9668 -1.09671756023 -0.215059027153 -1.90718947797 -1.08483648013 0.926933647606 -0.610032358913
3.20345282257 1.9218602442 -0.0596008126735 7.36117764172 2.9668 -1.09581173594 -0.21633924869 -1.90714453034 -1.08573110829 0.925699183236 -0.609775087459
3.22240003548 1.91790172586 -0.0596051517802 7.36169607583 2.9668 -1.09490553751 -0.217619575082 -1.90709685084 -1.08662462142 0.924466021853 -0.609518009794
3.24134851676 1.9139429421 -0.0596095336102 7.36221484236 2.9668 -1.09399896827 -0.218900003565 -1.90704644674 -1.08751701562 0.923234162688 -0.609261125549
3.26029826792 1.90998389344 -0.0596139577374 7.36273394488 2.9668 -1.09309203156 -0.220180531387 -1.9069933253 -1.08840828704 0.922003604979 -0.609004434347
3.27924928296 1.90602458034 -0.0596184237307 7.36325338694 2.9668 -1.09218473066 -0.221461155805 -1.90693749378 -1.08929843185 0.920774347969 -0.608747935806
3.29820154389 1.90206500706 -0.0596229327323 7.36377316083 2.9668 -1.09127707202 -0.222741878645 -1.9068789612 -1.09018745184 0.919546397229 -0.608491627998
3.31715508519 1.89810516656 -0.0596274811533 7.36429329252 2.9668 -1.09036905259 -0.224022688042 -1.90681773122 -1.09107533194 0.918319739368 -0.608235513577
3.33610988287 1.89414506308 -0.0596320701207 7.36481377428 2.9668 -1.08946067879 -0.225303585863 -1.90675381287 -1.09196207399 0.917094379974 -0.607979590638
3.35506593843 1.89018469711 -0.0596366991862 7.36533460959 2.9668 -1.08855195388 -0.226584569404 -1.90668721337 -1.0928476742 0.915870318319 -0.607723858778
3.37402324888 1.88622406913 -0.0596413678965 7.36585580189 2.9668 -1.08764288106 -0.227865635969 -1.90661793994 -1.0937321288 0.91464755368 -0.607468317586
3.39298180972 1.88226317959 -0.0596460757941 7.36637735464 2.9668 -1.08673346357 -0.229146782871 -1.9065459998 -1.09461543406 0.913426085337 -0.607212966648
3.41194162094 1.87830202898 -0.0596508224174 7.36689927125 2.9668 -1.08582370459 -0.230428007431 -1.90647140014 -1.09549758623 0.912205912584 -0.606957805544
3.43090266005 1.87434062163 -0.0596556088743 7.36742154383 2.9668 -1.08491361056 -0.231709311625 -1.90639415008 -1.09637858724 0.910987041067 -0.606702832321
3.44986496455 1.87037895022 -0.0596604315525 7.36794419838 2.9668 -1.08400317812 -0.23299068348 -1.90631425297 -1.0972584221 0.909769457385 -0.606448049571
3.46882851044 1.86641701911 -0.0596652915454 7.36846722697 2.9668 -1.08309241369 -0.234272125012 -1.90623171792 -1.09813709277 0.908553167205 -0.606193455365
3.48779329771 1.86245482875 -0.0596701883748 7.36899063295 2.9668 -1.08218132043 -0.235553633579 -1.90614655212 -1.09901459558 0.907338169849 -0.605939049262
3.50675932488 1.85849237959 -0.0596751215578 7.36951441965 2.9668 -1.08126990145 -0.236835206545 -1.90605876273 -1.09989092685 0.906124464645 -0.605684830819
3.52572658744 1.85452967208 -0.0596800906072 7.3700385904 2.9668 -1.08035815986 -0.238116841282 -1.90596835692 -1.10076608296 0.904912050926 -0.605430799585
3.5446950854 1.85056670665 -0.0596850950324 7.3705631485 2.9668 -1.07944609878 -0.239398535174 -1.90587534185 -1.10164006026 0.903700928037 -0.605176955106
3.56366479626 1.84660348776 -0.0596901359086 7.37108808582 2.9668 -1.07853372465 -0.240680290338 -1.90577972669 -1.1025128608 0.902491101709 -0.60492329541
3.58263575601 1.84264000779 -0.0596952096021 7.37161342843 2.9668 -1.07762103379 -0.24196209469 -1.90568151455 -1.10338446969 0.901282558535 -0.604669823026
3.60160794515 1.8386762712 -0.0597003171742 7.37213916819 2.9668 -1.07670803266 -0.243243950386 -1.90558071458 -1.10425488899 0.900075304269 -0.604416536008
3.62058135919 1.83471227843 -0.0597054581183 7.37266530832 2.9668 -1.0757947243 -0.244525854843 -1.90547733395 -1.10512411513 0.898869338286 -0.604163433884
3.63955599813 1.83074802988 -0.0597106319232 7.37319185203 2.9668 -1.07488111174 -0.24580780548 -1.90537137976 -1.10599214455 0.897664659972 -0.603910516175
3.65853186047 1.82678352598 -0.0597158380744 7.37371880252 2.9668 -1.07396719802 -0.247089799726 -1.90526285915 -1.10685897372 0.896461268718 -0.603657782403
3.67750894171 1.82281876714 -0.0597210760535 7.37424616295 2.9668 -1.07305298615 -0.248371835016 -1.90515177925 -1.1077245991 0.895259163927 -0.603405232081
3.69648722087 1.81885375792 -0.0597263469046 7.374773925 2.9668 -1.07213848259 -0.249653913615 -1.90503814928 -1.10858902284 0.894058351416 -0.60315286322
3.71546673841 1.8148884904 -0.0597316469741 7.3753021148 2.9668 -1.07122368338 -0.250936023307 -1.90492197209 -1.10945223015 0.892858817781 -0.602900678294
3.73444746886 1.81092296915 -0.0597369772932 7.37583072396 2.9668 -1.07030859499 -0.252218166395 -1.90480325693 -1.11031422319 0.891660568864 -0.602648675341
3.75342941222 1.80695719457 -0.0597423373282 7.37635975559 2.9668 -1.06939322038 -0.253500340344 -1.90468201089 -1.1111749985 0.890463604103 -0.602396853858
3.77241256548 1.80299116705 -0.0597477265418 7.37688921278 2.9668 -1.06847756251 -0.254782542627 -1.90455824106 -1.11203455262 0.889267922942 -0.602145213341
3.79139692864 1.79902488698 -0.059753144393 7.37741909858 2.9668 -1.06756162432 -0.256064770722 -1.90443195455 -1.1128928821 0.888073524836 -0.601893753282
3.81038249872 1.79505835475 -0.0597585903378 7.37794941605 2.9668 -1.06664540876 -0.257347022116 -1.90430315842 -1.11374998354 0.886880409251 -0.601642473168
3.82936925321 1.79109157501 -0.0597640653908 7.37848015664 2.9668 -1.06572892233 -0.258629299214 -1.90417186202 -1.11460585916 0.885688582096 -0.601391370997
3.8483572311 1.78712453955 -0.0597695658804 7.37901134652 2.9668 -1.06481216076 -0.259911589661 -1.90403806789 -1.11546049428 0.88449802997 -0.601140449188
3.8673464114 1.78315725304 -0.0597750928084 7.3795429771 2.9668 -1.06389513055 -0.261193895904 -1.90390178537 -1.11631389116 0.883308758811 -0.600889705768
3.88633679111 1.77918971586 -0.0597806456165 7.38007505135 2.9668 -1.06297783461 -0.262476215455 -1.90376302153 -1.11716604643 0.882120768121 -0.600639140209
3.90532836874 1.77522192836 -0.0597862237425 7.38060757224 2.9668 -1.06206027581 -0.263758545832 -1.90362178342 -1.11801695674 0.880934057409 -0.600388751982
3.92432114427 1.77125389089 -0.059791826621 7.38114054268 2.9668 -1.06114245704 -0.26504088456 -1.90347807811 -1.11886661875 0.879748626195 -0.600138540554
3.94331511322 1.76728560382 -0.0597974536835 7.38167396561 2.9668 -1.06022438115 -0.266323229172 -1.90333191265 -1.11971502913 0.878564474012 -0.599888505389
3.9623102546 1.76331707193 -0.0598031059169 7.38220783223 2.9668 -1.0593060547 -0.267605582215 -1.90318329646 -1.12056219023 0.877381606865 -0.599638644474
3.98130660737 1.75934828667 -0.059808779633 7.38274216881 2.9668 -1.05838747315 -0.268887931184 -1.90303223181 -1.12140808743 0.876200011361 -0.59938896018
4.00030415207 1.75537925282 -0.0598144758066 7.3832769665 2.9668 -1.05746864302 -0.270170278666 -1.90287872814 -1.12225272312 0.875019693535 -0.599139450523
4.01930288268 1.75140997073 -0.059820193856 7.38381222816 2.9668 -1.05654956717 -0.271452622218 -1.90272279248 -1.12309609402 0.873840652957 -0.598890114955
4.03830280221 1.74744044073 -0.0598259331955 7.38434795661 2.9668 -1.0556302484 -0.272734959399 -1.90256443186 -1.12393819688 0.872662889204 -0.598640952924
4.05730390466 1.74347066314 -0.0598316932372 7.38488415466 2.9668 -1.05471068955 -0.274017287778 -1.90240365332 -1.12477902844 0.871486401866 -0.598391963876
4.07630619152 1.73950063829 -0.0598374733895 7.38542082508 2.9668 -1.0537908934 -0.275299604927 -1.90224046388 -1.12561858549 0.870311190543 -0.598143147256
4.09530963882 1.73553037108 -0.0598432746136 7.38595795886 2.9668 -1.05287086656 -0.276581913538 -1.90207487307 -1.12645687047 0.869137261341 -0.597894501044
4.11431428853 1.73155985261 -0.0598490932064 7.38649558233 2.9668 -1.05195060421 -0.277864200943 -1.90190688287 -1.12729386886 0.867964600877 -0.597646027563
4.13332011815 1.72758908781 -0.059854930117 7.38703368642 2.9668 -1.05103011294 -0.27914646987 -1.90173650282 -1.12812958313 0.866793215285 -0.597397724824
4.1523271232 1.72361807698 -0.0598607847418 7.38757227384 2.9668 -1.05010939554 -0.280428717916 -1.90156373994 -1.1289640101 0.865623104205 -0.59714959226
4.17133530667 1.71964682041 -0.059866656474 7.38811134728 2.9668 -1.04918845476 -0.28171094268 -1.90138860123 -1.12979714663 0.864454267287 -0.596901629302
4.19034466407 1.71567531841 -0.0598725447041 7.38865090942 2.9668 -1.04826729338 -0.282993141768 -1.90121109369 -1.13062898956 0.863286704191 -0.596653835377
4.20935519389 1.71170357125 -0.0598784488195 7.3891909629 2.9668 -1.04734591415 -0.284275312791 -1.90103122434 -1.13145953576 0.862120414586 -0.596406209913
4.22836687364 1.70773158398 -0.0598843697569 7.38973149847 2.9668 -1.04642432372 -0.285557458584 -1.90084900282 -1.13228878778 0.860955404683 -0.596158750887
4.24737974831 1.70375934734 -0.0598903038004 7.39027254254 2.9668 -1.045502517 -0.286839566304 -1.90066443081 -1.13311673118 0.85979166111 -0.595911460578
4.2663937909 1.69978686639 -0.0598962518748 7.39081408578 2.9668 -1.04458050065 -0.288121638824 -1.90047751797 -1.13394336854 0.858629190102 -0.595664336994
4.28540900142 1.69581414139 -0.0599022133565 7.3913561308 2.9668 -1.0436582774 -0.289403673774 -1.9002882713 -1.13476869677 0.857467991371 -0.595417379552
4.30442537987 1.6918411726 -0.0599081876189 7.39189868012 2.9668 -1.04273584997 -0.290685668791 -1.90009669778 -1.13559271282 0.856308064641 -0.595170587669
4.32344292325 1.68786796029 -0.0599141740328 7.3924417363 2.9668 -1.04181322109 -0.291967621516 -1.8999028044 -1.13641541364 0.855149409644 -0.594923960758
4.34246163155 1.68389450471 -0.0599201719664 7.39298530186 2.9668 -1.04089039346 -0.293249529595 -1.89970659815 -1.13723679618 0.853992026122 -0.594677498231
4.36148147929 1.67992081103 -0.059926182333 7.39352936728 2.9668 -1.0399673738 -0.294531396005 -1.89950808879 -1.13805686312 0.852835920388 -0.594431198067
4.38050251295 1.67594686963 -0.0599322014063 7.39407395906 2.9668 -1.03904415676 -0.295813207721 -1.89930727773 -1.13887560007 0.851681079085 -0.594185062501
4.39952470705 1.6719726857 -0.0599382300881 7.39461906763 2.9668 -1.03812074907 -0.297094967758 -1.89910417472 -1.13969300972 0.85052750855 -0.593939089543
4.41854806007 1.66799825947 -0.0599442677364 7.39516469545 2.9668 -1.03719715341 -0.298376673779 -1.89889878677 -1.14050908909 0.84937520857 -0.5936932786
4.43757257352 1.66402359117 -0.0599503137066 7.39571084494 2.9668 -1.03627337249 -0.299658323455 -1.89869112084 -1.14132383521 0.848224178941 -0.593447629073
4.45659824291 1.66004868102 -0.0599563673514 7.39625751848 2.9668 -1.03534940896 -0.300939914458 -1.89848118391 -1.14213724513 0.847074419469 -0.593202140365
4.47562506973 1.65607352926 -0.0599624280214 7.39680471847 2.9668 -1.03442526551 -0.302221444468 -1.89826898294 -1.1429493159 0.845925929972 -0.592956811877
4.49465302699 1.65209814117 -0.059968496608 7.39735243515 2.9668 -1.03350094894 -0.303502916601 -1.89805452784 -1.1437600503 0.844778716862 -0.592711641592
4.51368216417 1.64812250678 -0.0599745693766 7.39790069509 2.9668 -1.03257645362 -0.304784317645 -1.8978378197 -1.14456943402 0.843632766801 -0.592466631704
4.53271245429 1.64414663139 -0.0599806472078 7.3984494885 2.9668 -1.03165178638 -0.306065650755 -1.89761886844 -1.14537746985 0.842488086228 -0.592221780229
4.55174389734 1.64017051522 -0.0599867294426 7.39899881766 2.9668 -1.03072694986 -0.307346913627 -1.89739768103 -1.14618415491 0.841344675004 -0.591977086562
4.57077649183 1.63619415845 -0.0599928154199 7.39954868488 2.9668 -1.02980194672 -0.30862810396 -1.89717426442 -1.14698948632 0.840202533 -0.591732550098
4.58981023625 1.63221756129 -0.0599989044762 7.4000990924 2.9668 -1.02887677962 -0.309909219456 -1.89694862559 -1.14779346123 0.839061660095 -0.59148817023
4.6088451306 1.62824072391 -0.0600049959463 7.40065004247 2.9668 -1.02795145118 -0.311190257825 -1.8967207715 -1.14859607678 0.837922056181 -0.591243946349
4.62788114941 1.62426365175 -0.0600110907009 7.40120152509 2.9668 -1.0270259683 -0.312471222329 -1.89649071218 -1.14939733587 0.836783727775 -0.590999876449
4.64691834214 1.62028633445 -0.0600171849997 7.40175356691 2.9668 -1.02610032511 -0.313752099552 -1.89625844843 -1.15019722425 0.835646661553 -0.590755962681
4.6659566803 1.61630877746 -0.0600232797027 7.40230615789 2.9668 -1.0251745285 -0.315032892795 -1.89602399031 -1.15099574482 0.83451086406 -0.590512203072
4.6849961669 1.61233098096 -0.0600293741363 7.40285930018 2.9668 -1.0242485811 -0.31631359978 -1.89578734478 -1.1517928948 0.833376335229 -0.59026859701
4.70403679744 1.60835294509 -0.0600354676245 7.40341299593 2.9668 -1.02332248555 -0.317594218236 -1.8955485188 -1.15258867141 0.832243075004 -0.590025143884
4.72307857342 1.60437467003 -0.0600415594894 7.40396724726 2.9668 -1.02239624446 -0.318874745893 -1.89530751933 -1.15338307187 0.831111083341 -0.589781843079
4.74212149334 1.60039615592 -0.0600476490511 7.40452205628 2.9668 -1.02146986046 -0.320155180487 -1.89506435333 -1.15417609346 0.829980360204 -0.589538693983
4.7611655317 1.59641740834 -0.0600537371617 7.40507741272 2.9668 -1.02054334052 -0.321435525426 -1.89481903098 -1.15496773915 0.828850912213 -0.5892956946
4.780210738 1.59243841654 -0.0600598200769 7.40563334334 2.9668 -1.01961667852 -0.322715767085 -1.89457155278 -1.15575799478 0.827722726062 -0.589052847043
4.79925708673 1.58845918611 -0.0600658986383 7.40618983782 2.9668 -1.01868988146 -0.323995908908 -1.89432192893 -1.15654686335 0.826595808396 -0.588810149353
4.8183045779 1.58447971719 -0.0600719721589 7.4067468982 2.9668 -1.01776295194 -0.325275948646 -1.89407016639 -1.15733434217 0.825470159223 -0.588567600911
4.83735320852 1.58050000991 -0.0600780399496 7.40730452647 2.9668 -1.01683589257 -0.326555884052 -1.89381627213 -1.15812042857 0.824345778561 -0.588325201104
4.85640298157 1.57652006438 -0.0600841013196 7.40786272461 2.9668 -1.01590870596 -0.327835712883 -1.89356025309 -1.15890511988 0.823222666438 -0.588082949315
4.87545389256 1.57253988073 -0.0600901555765 7.40842149458 2.9668 -1.01498139472 -0.3291154329 -1.89330211625 -1.15968841344 0.822100822893 -0.587840844927
4.89450591601 1.56855946468 -0.0600962035549 7.40898082588 2.9668 -1.01405396591 -0.330395047657 -1.89304187193 -1.16047031237 0.820980254646 -0.587598885959
4.91355910588 1.56457880508 -0.0601022415089 7.40954074533 2.9668 -1.01312641317 -0.331674543313 -1.89277952034 -1.16125080254 0.819860948408 -0.58735707449
4.9326134337 1.56059790768 -0.0601082702629 7.41010124239 2.9668 -1.0121987436 -0.332953923456 -1.89251507182 -1.1620298871 0.818742910925 -0.587115408573
4.95166889945 1.55661677256 -0.0601142891183 7.41066231893 2.9668 -1.01127095978 -0.334233185863 -1.89224853334 -1.16280756343 0.817626142278 -0.586873887591
4.97072550165 1.55263539984 -0.0601202973748 7.4112239768 2.9668 -1.01034306432 -0.335512328312 -1.89197991187 -1.16358382897 0.816510642557 -0.586632510928
4.98978324179 1.54865378958 -0.0601262943305 7.41178621785 2.9668 -1.00941505981 -0.336791348583 -1.89170921436 -1.16435868113 0.815396411864 -0.586391277966
5.00884211837 1.54467194188 -0.0601322792822 7.4123490439 2.9668 -1.00848694884 -0.338070244462 -1.89143644779 -1.16513211737 0.814283450307 -0.58615018809
5.02790210291 1.54068986262 -0.0601382530479 7.41291244417 2.9668 -1.00755873859 -0.339349019652 -1.89116162265 -1.16590414092 0.813171764709 -0.585909239336
5.04696325088 1.53670754022 -0.0601442118833 7.4134764456 2.9668 -1.00663042245 -0.340627660083 -1.89088473882 -1.16667473771 0.812061341795 -0.585668433747
5.06602553529 1.5327249806 -0.0601501565966 7.41404103737 2.9668 -1.00570200763 -0.341906169494 -1.89060580683 -1.16744391099 0.810952188411 -0.585427769396
5.08508895464 1.52874218381 -0.0601560864795 7.41460622122 2.9668 -1.0047734967 -0.343184545685 -1.89032483364 -1.16821165827 0.80984430471 -0.585187245667
5.10415350893 1.52475914992 -0.0601620008221 7.41517199885 2.9668 -1.00384489226 -0.344462786457 -1.89004182623 -1.16897797707 0.808737690853 -0.584946861945
5.12321919667 1.52077587897 -0.060167898913 7.41573837197 2.9668 -1.0029161969 -0.345740889612 -1.88975679157 -1.1697428649 0.80763234701 -0.584706617616
5.14228601935 1.51679237101 -0.0601737800401 7.41630534226 2.9668 -1.0019874132 -0.347018852959 -1.88946973663 -1.17050631932 0.806528273363 -0.584466512066
5.16116515668 1.51280863209 -0.0601796450063 7.41687289867 2.9668 -1.00105854844 -0.348296680352 -1.88918067208 -1.17126834369 0.805425476829 -0.584226543352
5.18004544544 1.50882465022 -0.0601854900712 7.41744106825 2.9668 -1.00012959579 -0.349574357486 -1.88888959748 -1.17202892398 0.804323944152 -0.583986713483
5.19892685716 1.50484043145 -0.0601913160285 7.41800983991 2.9668 -0.99920056256 -0.350851888253 -1.88859652353 -1.17278806357 0.803223682274 -0.583747020556
5.21780939032 1.50085597582 -0.0601971221617 7.41857921524 2.9668 -0.998271451327 -0.352129270472 -1.88830145722 -1.17354576007 0.802124691416 -0.583507463956
5.23669304643 1.49687128334 -0.0602029077529 7.41914919582 2.9668 -0.997342264679 -0.353406501967 -1.88800440551 -1.1743020111 0.801026971808 -0.583268043075
5.25557782549 1.49288635405 -0.0602086720834 7.41971978319 2.9668 -0.9964130052 -0.354683580563 -1.8877053754 -1.17505681427 0.799930523691 -0.583028757302
5.274463726 1.48890118794 -0.0602144144339 7.4202909789 2.9668 -0.995483675477 -0.35596050409 -1.88740437387 -1.17581016725 0.798835347315 -0.582789606028
5.29335071947 1.48491579124 -0.0602201355932 7.42086277162 2.9668 -0.994554282915 -0.357237276553 -1.88710141176 -1.1765620735 0.797741449689 -0.582550587336
5.31223886437 1.48093015151 -0.0602258318278 7.42143518853 2.9668 -0.993624820432 -0.358513883409 -1.88679648833 -1.17731251906 0.796648817575 -0.5823117032
5.33112813223 1.47694427498 -0.0602315039179 7.42200821825 2.9668 -0.992695295457 -0.3597903287 -1.88648961444 -1.17806150745 0.795557458008 -0.582072951743
5.35001852154 1.47295816165 -0.0602371511409 7.42258186224 2.9668 -0.991765710578 -0.361066610268 -1.88618079708 -1.17880903635 0.794467371276 -0.581834332358
5.36891003379 1.4689718115 -0.0602427727726 7.42315612193 2.9668 -0.99083606838 -0.362342725956 -1.88587004326 -1.1795551035 0.793378557676 -0.581595844441
5.38780266749 1.46498522453 -0.0602483680888 7.42373099872 2.9668 -0.98990637145 -0.363618673611 -1.88555735997 -1.18029970662 0.792291017515 -0.58135748739
5.40669642414 1.46099840071 -0.0602539363642 7.42430649401 2.9668 -0.988976622376 -0.364894451085 -1.88524275421 -1.18104284345 0.791204751108 -0.581119260603
5.42559127376 1.45701134642 -0.0602594783756 7.4248825962 2.9668 -0.988046828687 -0.366170062537 -1.884926237 -1.18178451761 0.790119765557 -0.58088116219
5.44448727481 1.45302404879 -0.0602649903986 7.42545933259 2.9668 -0.987116983066 -0.367445493174 -1.88460780727 -1.18252471519 0.789036047638 -0.580643194095
5.46338440031 1.44903651423 -0.0602704732017 7.42603669153 2.9668 -0.986187093068 -0.368720747196 -1.88428747609 -1.18326343982 0.787953604476 -0.580405354467
5.48228264875 1.44504874268 -0.0602759260575 7.42661467432 2.9668 -0.985257161283 -0.369995822465 -1.88396525045 -1.1840006893 0.786872436424 -0.580167642709
5.50118202015 1.44106073412 -0.0602813482377 7.42719328225 2.9668 -0.984327190304 -0.371270716843 -1.88364113738 -1.18473646146 0.785792543844 -0.579930058227
5.52008251449 1.43707248849 -0.060286739014 7.4277725166 2.9668 -0.983397182723 -0.3725454282 -1.88331514388 -1.18547075413 0.784713927104 -0.579692600427
5.53898413328 1.43308400573 -0.0602920976575 7.42835237859 2.9668 -0.982467141136 -0.373819954404 -1.88298727696 -1.18620356516 0.783636586585 -0.579455268716
5.55788684354 1.42909529242 -0.0602974249335 7.42893285638 2.9668 -0.981537073197 -0.375094299776 -1.88265754785 -1.1869348983 0.782560529474 -0.579218061238
5.57679071122 1.42510633521 -0.0603027171303 7.42951397736 2.9668 -0.98060697136 -0.376368449266 -1.88232595515 -1.18766473968 0.781485742564 -0.578980979903
5.59569570186 1.42111714068 -0.0603079750055 7.43009572962 2.9668 -0.979676843306 -0.377642407231 -1.88199251011 -1.18839309307 0.780412233064 -0.578744022892
5.61460181844 1.41712770878 -0.0603131978287 7.43067811431 2.9668 -0.978746691636 -0.378916171554 -1.88165721974 -1.18911995638 0.779340001389 -0.578507189621
5.63350906097 1.41313803941 -0.0603183848696 7.43126113258 2.9668 -0.97781651895 -0.380189740118 -1.88132009108 -1.18984532753 0.778269047961 -0.578270479505
5.65241742795 1.40914813251 -0.0603235353972 7.43184478556 2.9668 -0.976886327853 -0.381463110811 -1.88098113117 -1.19056920447 0.777199373212 -0.578033891963
5.67132692238 1.40515798797 -0.060328648681 7.43242907435 2.9668 -0.975956120947 -0.382736281522 -1.88064034703 -1.19129158516 0.77613097758 -0.577797426415
5.69023750976 1.40116761256 -0.0603337254761 7.43301398679 2.9668 -0.97502590602 -0.38400925673 -1.88029775008 -1.19201247346 0.775063868336 -0.577561081038
5.70914925758 1.39717699246 -0.0603387620865 7.43359955043 2.9668 -0.974095675298 -0.385282021128 -1.87995333859 -1.19273185558 0.773998032287 -0.577324857711
5.72806213285 1.39318613445 -0.0603437592599 7.43418575306 2.9668 -0.973165436592 -0.386554579231 -1.879607124 -1.1934497354 0.772933476723 -0.57708875465
5.74697613556 1.38919503842 -0.0603487162651 7.43477259571 2.9668 -0.972235192516 -0.387826928941 -1.87925911335 -1.19416611095 0.771870202118 -0.576852771285
5.76589126722 1.38520370427 -0.060353632371 7.43536007937 2.9668 -0.971304945683 -0.389099068163 -1.8789093137 -1.19488098027 0.770808208951 -0.576616907044
5.78480752632 1.38121213188 -0.0603585068464 7.43594820502 2.9668 -0.970374698709 -0.390370994802 -1.87855773211 -1.1955943414 0.769747497712 -0.57638116136
5.80372491737 1.37722032113 -0.0603633389607 7.43653697362 2.9668 -0.969444454213 -0.391642706769 -1.87820437562 -1.1963061924 0.768688068897 -0.576145533669
5.82264340288 1.37322827896 -0.0603681294597 7.43712637274 2.9668 -0.968514220114 -0.392914208704 -1.87784925584 -1.1970165373 0.767629929851 -0.575910022183
5.84156305481 1.36923599109 -0.0603728746665 7.43771643006 2.9668 -0.967583988414 -0.394185485035 -1.87749237071 -1.19772536232 0.766573067399 -0.575674628751
5.8604838372 1.36524346448 -0.0603775753201 7.43830713307 2.9668 -0.966653767058 -0.395456540439 -1.87713373188 -1.19843267152 0.765517488906 -0.575439351629
5.87940575152 1.361250699 -0.0603822306904 7.43889848267 2.9668 -0.965723558675 -0.396727372838 -1.87677334641 -1.19913846301 0.7644631949 -0.57520419026
5.89832879929 1.3572576945 -0.0603868400469 7.43949047971 2.9668 -0.964793365895 -0.397997980154 -1.87641122136 -1.19984273494 0.763410185915 -0.574969144089
5.91725297901 1.35326445085 -0.0603914026605 7.44008312503 2.9668 -0.96386319135 -0.399268360317 -1.87604736383 -1.20054548547 0.762358462495 -0.574734212566
5.93617829367 1.34927096789 -0.0603959178018 7.44067641943 2.9668 -0.962933037673 -0.400538511253 -1.87568178088 -1.20124671278 0.761308025188 -0.574499395142
5.95510470878 1.34527725275 -0.0604003862088 7.44127035022 2.9668 -0.962002912921 -0.401808437769 -1.87531448433 -1.20194642101 0.760258881413 -0.574264690071
5.97403229483 1.34128329067 -0.0604048042269 7.44186494518 2.9668 -0.961072808873 -0.403078124021 -1.87494547177 -1.20264459647 0.759211018008 -0.57403009917
5.99296101581 1.33728908882 -0.0604091725874 7.44246019156 2.9668 -0.960142733613 -0.404347574852 -1.87457475504 -1.20334124332 0.758164442408 -0.573795620737
6.01189087474 1.33329464701 -0.0604134905629 7.44305609009 2.9668 -0.959212689787 -0.405616788203 -1.87420234125 -1.20403635982 0.757119155194 -0.573561254233
6.0308218716 1.32929996509 -0.0604177574262 7.44365264148 2.9668 -0.958282680041 -0.406885762018 -1.87382823747 -1.20472994421 0.756075156949 -0.573326999121
6.04975400641 1.32530504288 -0.0604219724508 7.44424984643 2.9668 -0.957352707027 -0.408154494242 -1.87345245082 -1.20542199476 0.755032448267 -0.573092854869
6.06868728216 1.3213098802 -0.0604261349114 7.44484770561 2.9668 -0.956422773398 -0.409422982826 -1.87307498839 -1.20611250977 0.753991029747 -0.572858820946
6.08762166137 1.31731448438 -0.060430245539 7.44544620602 2.9668 -0.955492887348 -0.410691232741 -1.8726958622 -1.20680149353 0.752950908873 -0.572624895651
6.106557219 1.31331884016 -0.0604343007045 7.4460453756 2.9668 -0.954563040437 -0.411959227868 -1.8723150695 -1.20748893238 0.751912072497 -0.57239108077
6.12549391756 1.30932295491 -0.0604383011324 7.44664520131 2.9668 -0.953633240887 -0.413226973219 -1.87193262233 -1.20817483066 0.750874528119 -0.572157374644
6.14443176007 1.30532682843 -0.0604422461 7.44724568374 2.9668 -0.952703491365 -0.414494466753 -1.87154852783 -1.2088591867 0.749838276368 -0.571923776755
6.16337074652 1.30133046052 -0.0604461348848 7.44784682346 2.9668 -0.951773794537 -0.415761706435 -1.87116279309 -1.20954199888 0.748803317873 -0.571690286587
6.1823108784 1.29733385098 -0.0604499667657 7.44844862101 2.9668 -0.950844153076 -0.41702869023 -1.87077542525 -1.21022326559 0.747769653273 -0.571456903627
6.20125215572 1.29333699959 -0.0604537410224 7.44905107693 2.9668 -0.949914569655 -0.418295416109 -1.87038643143 -1.21090298523 0.746737283214 -0.571223627364
6.22019454399 1.28933991391 -0.0604574583806 7.44965417795 2.9668 -0.94898505261 -0.419561889213 -1.86999582386 -1.21158116224 0.745706215242 -0.570990456146
6.23951888324 1.28534257816 -0.0604611152391 7.45025795214 2.9668 -0.948055593282 -0.420828093142 -1.86960359942 -1.21225778302 0.744676436218 -0.570757391726
6.25903765003 1.28134499992 -0.0604647123173 7.45086238618 2.9668 -0.947126200034 -0.422094033078 -1.86920977039 -1.21293285203 0.743647953704 -0.570524432495
6.2787528009 1.27734717896 -0.0604682488992 7.4514674805 2.9668 -0.946196875555 -0.423359707003 -1.86881434391 -1.21360636776 0.742620768371 -0.570291577954
6.29866631337 1.27334911507 -0.0604717242688 7.45207323555 2.9668 -0.945267622535 -0.424625112899 -1.8684173271 -1.21427832867 0.741594880892 -0.57005882761
6.31878018448 1.26935080799 -0.0604751377118 7.45267965173 2.9668 -0.944338443667 -0.425890248755 -1.86801872713 -1.21494873328 0.740570291947 -0.569826180972
6.33909643073 1.2653522575 -0.0604784885148 7.45328672943 2.9668 -0.943409341647 -0.427155112557 -1.86761855113 -1.21561758011 0.739547002223 -0.569593637554
6.35961704913 1.26135347136 -0.0604817773991 7.4538944551 2.9668 -0.942480324953 -0.428419709624 -1.86721681156 -1.21628487373 0.73852501932 -0.569361195751
6.38034417914 1.25735443329 -0.0604850007953 7.45450285695 2.9668 -0.94155138471 -0.429684023269 -1.86681350493 -1.21695060062 0.737504330113 -0.569128857286
6.40127985976 1.25335515107 -0.0604881594189 7.45511192137 2.9668 -0.940622529425 -0.430948058847 -1.86640864373 -1.21761476538 0.736484942217 -0.568896620599
6.42242618846 1.24935562445 -0.0604912525613 7.45572164868 2.9668 -0.939693761809 -0.432211814361 -1.86600223512 -1.2182773666 0.73546685634 -0.568664485217
6.44378528669 1.24535585318 -0.0604942795155 7.45633203915 2.9668 -0.938765084575 -0.433475287814 -1.86559428626 -1.21893840289 0.734450073195 -0.56843245067
6.46535929691 1.241355837 -0.0604972395754 7.45694309308 2.9668 -0.937836500441 -0.434738477214 -1.86518480432 -1.21959787287 0.733434593499 -0.568200516491
6.48715038254 1.23735557565 -0.0605001320369 7.45755481069 2.9668 -0.936908012127 -0.436001380571 -1.86477379647 -1.22025577516 0.732420417976 -0.567968682218
6.50916068455 1.2333550771 -0.0605029576177 7.45816717816 2.9668 -0.935979628253 -0.437264003376 -1.86436127539 -1.22091211453 0.731407554274 -0.5677369463
6.5313924998 1.22935432456 -0.0605057127833 7.45878022384 2.9668 -0.935051339731 -0.438526328655 -1.8639472372 -1.22156687748 0.730395989281 -0.567505310428
6.55384801572 1.22535332603 -0.0605083982461 7.45939393385 2.9668 -0.93412315521 -0.439788361939 -1.86353169462 -1.22222006876 0.729385730658 -0.567273773095
6.57652948121 1.22135208123 -0.0605110133074 7.46000830836 2.9668 -0.933195077427 -0.441050101252 -1.86311465483 -1.22287168709 0.728376779147 -0.567042333854
6.59943917364 1.21735058989 -0.0605135572704 7.46062334752 2.9668 -0.932267109119 -0.442311544618 -1.86269612502 -1.2235217312 0.727369135496 -0.566810992261
6.62304450802 1.21334885172 -0.0605160294395 7.46123905146 2.9668 -0.931339253029 -0.443572690065 -1.86227611238 -1.22417019983 0.726362800454 -0.566579747874
6.64712579723 1.20934686644 -0.0605184291214 7.46185542029 2.9668 -0.930411511902 -0.444833535626 -1.86185462408 -1.22481709173 0.725357774779 -0.566348600258
6.67169258707 1.20534464223 -0.0605207570308 7.46247243989 2.9668 -0.929483894502 -0.446094086969 -1.86143167303 -1.22546241181 0.72435406616 -0.566117547917
6.69675477418 1.20134216179 -0.0605230096722 7.46309013878 2.9668 -0.928556391527 -0.447354326829 -1.86100725498 -1.22610614662 0.723351661496 -0.56588659251
6.72232229419 1.19733943333 -0.0605251877552 7.46370850278 2.9668 -0.927629011772 -0.448614260914 -1.86058138287 -1.22674830109 0.722350568489 -0.565655732588
6.74840534058 1.19333645657 -0.060527290593 7.46432753193 2.9668 -0.926701757999 -0.449873887269 -1.8601540639 -1.22738887404 0.72135078791 -0.56542496773
6.77501430776 1.18933323119 -0.060529317501 7.46494722624 2.9668 -0.92577463297 -0.451133203942 -1.85972530527 -1.22802786433 0.720352320538 -0.565194297518
6.80215980302 1.18532975689 -0.0605312677958 7.4655675857 2.9668 -0.924847639453 -0.452392208982 -1.85929511419 -1.22866527081 0.71935516715 -0.56496372154
6.83012957558 1.18132603335 -0.0605331407959 7.4661886103 2.9668 -0.923920780219 -0.453650900443 -1.85886349787 -1.22930109238 0.71835932853 -0.564733239388
6.85894859419 1.17732206901 -0.0605349372149 7.46681028564 2.9668 -0.922994064176 -0.454909284172 -1.85843046941 -1.22993533408 0.717364812406 -0.564502849626
6.88864277511 1.17331784601 -0.0605366535991 7.46743264037 2.9668 -0.922067481813 -0.456167342611 -1.8579960242 -1.23056798253 0.716371605686 -0.564272553878
6.91923862983 1.1693133728 -0.0605382906568 7.46805566005 2.9668 -0.921141042067 -0.457425081649 -1.85756017539 -1.23119904281 0.715379716105 -0.564042350755
6.95107879263 1.16530864908 -0.0605398477147 7.46867934457 2.9668 -0.920214747725 -0.458682499353 -1.85712293019 -1.23182851388 0.714389144462 -0.563812239864
6.98421386816 1.1613036745 -0.0605413241016 7.46930369382 2.9668 -0.919288601578 -0.459939593791 -1.85668429583 -1.2324563947 0.713399891557 -0.563582220819
7.01904135026 1.15729844874 -0.060542719148 7.46992870765 2.9668 -0.918362606418 -0.461196363037 -1.85624427954 -1.23308268427 0.712411958194 -0.563352293235
7.05564768199 1.15329297145 -0.060544032187 7.47055438591 2.9668 -0.917436765043 -0.462452805165 -1.85580288853 -1.23370738158 0.711425345181 -0.563122456735
7.09450839838 1.14928725132 -0.0605452639311 7.47118071391 2.9668 -0.916511086505 -0.463708926206 -1.85536013614 -1.23433049187 0.710440060272 -0.562892709942
7.13659172855 1.14528126994 -0.0605464109718 7.47180772049 2.9668 -0.915585561081 -0.464964708305 -1.85491601736 -1.23495200179 0.709456090386 -0.562663054448
7.18262054858 1.141275036 -0.0605474740171 7.47243539091 2.9668 -0.914660197856 -0.466220157532 -1.85447054556 -1.23557191658 0.708473443288 -0.562433488926
7.23449025039 1.13726854917 -0.0605484524088 7.47306372494 2.9668 -0.91373499964 -0.467475271978 -1.85402372798 -1.23619023533 0.707492119794 -0.562204013015
7.29531539731 1.1332618091 -0.0605493454909 7.47369272231 2.9668 -0.912809969252 -0.468730049734 -1.85357557184 -1.23680695713 0.706512120728 -0.561974626356
7.37336761118 1.12925481542 -0.06055015261 7.47432238277 2.9668 -0.911885109509 -0.469984488896 -1.8531260844 -1.23742208109 0.70553344691 -0.561745328599
7.52030557992 1.12524756779 -0.0605508731147 7.47495270601 2.9668 -0.910960423236 -0.471238587562 -1.85267527288 -1.23803560636 0.704556099168 -0.561516119393
7.66866530661 1.12491757295 -0.0648585129612 7.473857256 2.96570454999 -0.906960009451 -0.468566213212 -1.84572851793 -1.23730501654 0.707331066978 -0.559940726629
7.74926993781 1.12458537219 -0.0691565491565 7.47274356874 2.96459086272 -0.902952261544 -0.465893857235 -1.83885626625 -1.23665669596 0.710073576173 -0.558428875141
7.81248440014 1.1242508952 -0.0734468581293 7.47161010342 2.96345739741 -0.898946703843 -0.463225058586 -1.83206993177 -1.23609379367 0.712775940302 -0.556977791957
7.86632256198 1.12391406051 -0.0777313992809 7.47045539576 2.96230268974 -0.894953023227 -0.460563431586 -1.82538060747 -1.23561893267 0.715430626883 -0.555584072404
7.91405939293 1.12357477512 -0.0820121917022 7.46927807703 2.96112537102 -0.890980959331 -0.457912624288 -1.81879891921 -1.2352341649 0.718030359287 -0.554243704432
7.95768979552 1.12323293418 -0.0862912889679 7.46807689216 2.95992418615 -0.887040189559 -0.455276274601 -1.81233488229 -1.23494093538 0.720568217793 -0.552952107218
7.99798519052 1.12288842101 -0.0905707526756 7.46685071617 2.95869801016 -0.883140211795 -0.452657965215 -1.80599776519 -1.23474005717 0.723037736858 -0.551704183681
8.03594329906 1.12241002252 -0.0948499936935 7.46561095202 2.95745824601 -0.879266860102 -0.450109807035 -1.7997877392 -1.2346576756 0.725397514728 -0.550483713096
8.07173846906 1.12192872138 -0.0991336522656 7.46434441722 2.9561917112 -0.875452299126 -0.447586518379 -1.79372062136 -1.23466701603 0.727677688108 -0.549294879653
8.10584675727 1.12144436673 -0.103423651456 7.46305045439 2.95489774838 -0.871704779585 -0.445091246008 -1.78780270735 -1.23476696225 0.729873678991 -0.548131483177
8.13868655877 1.12095679846 -0.10772181884 7.46172857752 2.95357587151 -0.868031944118 -0.442626913957 -1.78203915276 -1.23495579022 0.731981656143 -0.546987130288
8.17031749779 1.12046584877 -0.112029865109 7.46037847484 2.95222576883 -0.864440746691 -0.440196190742 -1.77643392933 -1.23523120369 0.733998572444 -0.545855330475
8.20109980097 1.11997134399 -0.11634936551 7.45900000844 2.95084730243 -0.860937386752 -0.437801462278 -1.77098980566 -1.23559038035 0.735922185656 -0.544729592964
8.2310658824 1.1194731065 -0.12068174477 7.45759321042 2.9494405044 -0.857527260231 -0.435444811136 -1.7657083528 -1.23603002687 0.737751061858 -0.543603521159
8.26020578395 1.11884015756 -0.125022334337 7.45616997454 2.94801726852 -0.854195973901 -0.433180006 -1.76058696272 -1.23657163803 0.739445313393 -0.542456270104
8.28858775514 1.118203147 -0.129378128321 7.45471903182 2.94656632581 -0.850965865218 -0.430956349466 -1.75562754523 -1.23718548172 0.741044606959 -0.541296016814
8.31651346433 1.11756189819 -0.13375004334 7.45324087028 2.94508816427 -0.847839768262 -0.428774949378 -1.75082831191 -1.23786726114 0.742549804214 -0.540117181401
8.34399453233 1.11691623911 -0.138138823918 7.45173610443 2.94358339842 -0.844819695292 -0.426636595801 -1.74618652357 -1.23861247941 0.743962430848 -0.538914577874
8.37104117513 1.11626600463 -0.14254504596 7.45020546037 2.94205275436 -0.841906871464 -0.424541772516 -1.74169859128 -1.23941650748 0.745284611812 -0.537683459834
8.39766233133 1.11561103836 -0.146969122944 7.44864975996 2.94049705395 -0.839101780068 -0.422490673332 -1.73736018462 -1.24027464857 0.746519001194 -0.536419553879
8.4238658016 1.11495119416 -0.15141131475 7.44706990416 2.93891719815 -0.836404217951 -0.420483222179 -1.73316634433 -1.24118219868 0.747668707362 -0.535119080255
8.44960345507 1.11415590089 -0.155862238867 7.44547830981 2.93732560379 -0.833796998528 -0.418573430342 -1.72911046442 -1.24215774875 0.748696502661 -0.533760502317
8.47493676157 1.11335550174 -0.160331295801 7.44386465232 2.9357119463 -0.831294425537 -0.416706139179 -1.72518699757 -1.24317299379 0.749647428996 -0.532359025769
8.49987093553 1.11254988865 -0.164818354237 7.44222996761 2.93407726159 -0.828894620301 -0.414880612067 -1.72138978508 -1.24422354438 0.750525489955 -0.530912393716
8.52441059019 1.11173896726 -0.169323179548 7.44057530959 2.93242260357 -0.826595289009 -0.413095945554 -1.7177124743 -1.24530517883 0.751334850072 -0.529418814278
8.54880135445 1.11092265708 -0.173845447289 7.43890173786 2.93074903184 -0.824393791633 -0.411351095783 -1.7141486095 -1.24641386929 0.752079771637 -0.527876933917
8.5730416286 1.11010089154 -0.178384756326 7.43721030686 2.92905760085 -0.822287206266 -0.409644903824 -1.71069171215 -1.24754580112 0.752764559002 -0.526285806875
8.59712954006 1.10927361753 -0.182940641556 7.43550205624 2.92734935023 -0.82027239001 -0.407976119495 -1.70733535083 -1.24869738657 0.753393508974 -0.524644861176
8.62171617715 1.1083108336 -0.187499226 7.43378953998 2.92563683397 -0.818330576508 -0.406399132305 -1.70407160932 -1.24988627811 0.753930368498 -0.52293304463
8.64614153843 1.10734250528 -0.192073195213 7.43206232978 2.92390962376 -0.816472946567 -0.404856503626 -1.70089498867 -1.25108797531 0.754420398897 -0.521171193945
8.67040331952 1.10636861708 -0.196661965176 7.43032136872 2.92216866271 -0.814696030576 -0.403346847102 -1.69779956564 -1.25229963822 0.75486761083 -0.519359653757
8.69426062169 1.1053891642 -0.201264930356 7.42856756134 2.92041485532 -0.812996330126 -0.401868761541 -1.69477964375 -1.25351865753 0.75527587759 -0.517498995168
8.71842756385 1.10440415174 -0.205881471317 7.42680177094 2.91864906492 -0.811370352043 -0.400420844923 -1.69182977691 -1.25474264741 0.755648917432 -0.515589982409
8.74290464073 1.10341359391 -0.210510961523 7.42502481771 2.9168721117 -0.809814636791 -0.399001706086 -1.68894478539 -1.25596943672 0.755990280875 -0.513633541917
8.76769228714 1.10241751298 -0.21515277331 7.42323747752 2.91508477151 -0.808325782556 -0.397609974513 -1.68611976548 -1.25719705886 0.756303341905 -0.511630733464
8.79269699847 1.10128659075 -0.219788872416 7.42145227632 2.9132995703 -0.8068848637 -0.39630077203 -1.68334701376 -1.25844276782 0.756551808094 -0.509560423559
8.81801146371 1.10015024656 -0.224435932181 7.41965821231 2.91150550629 -0.805503358639 -0.395015949232 -1.6806244162 -1.25968570029 0.756778718727 -0.50744625063
8.84389234037 1.09900852213 -0.229093355597 7.41785591968 2.90970321367 -0.804178174034 -0.393754256549 -1.67794796165 -1.26092445988 0.756986864784 -0.505289522217
8.8703488654 1.09786146396 -0.233760559713 7.41604599062 2.9078932846 -0.802906328324 -0.392514487772 -1.67531390713 -1.26215780385 0.757178860628 -0.503091588666
8.89739044518 1.09670912263 -0.238436977602 7.41422897676 2.90607627075 -0.801684958197 -0.391295482957 -1.67271876975 -1.26338463105 0.757357148272 -0.500853827099
8.925026669 1.09555155229 -0.243122059853 7.41240539091 2.9042526849 -0.800511322037 -0.390096130159 -1.67015931693 -1.26460397028 0.757524003222 -0.498577628144
8.95326732557 1.09438880994 -0.247815275849 7.41057570867 2.90242300266 -0.799382802237 -0.38891536654 -1.66763255523 -1.26581496917 0.757681540918 -0.496264383976
8.98199016639 1.09309236715 -0.252494570403 7.40875248757 2.90059978156 -0.798280697794 -0.387809078717 -1.6651309717 -1.26703436719 0.75779346021 -0.49389245404
9.01133429018 1.09179091105 -0.257180884652 7.40692410335 2.89877139733 -0.797218000861 -0.386719040841 -1.66265604633 -1.26824390185 0.757900292974 -0.491486369158
9.04160986765 1.09048450421 -0.261873755205 7.40509092465 2.89693821863 -0.796192497596 -0.385644353582 -1.66020547513 -1.26944303246 0.758003690498 -0.489047458955
9.07284345526 1.08917321034 -0.266572738409 7.40325329136 2.89510058534 -0.795202090105 -0.384584164032 -1.65777714068 -1.27063129662 0.758105177607 -0.486577025158
9.10506241008 1.08785709387 -0.271277410359 7.40141151623 2.89325881022 -0.794244794128 -0.383537665127 -1.65536909994 -1.27180830198 0.758206160379 -0.484076336295
9.13862723912 1.08653621974 -0.275987366286 7.39956588693 2.89141318091 -0.793318734423 -0.382504093762 -1.65297957272 -1.27297371926 0.758307933732 -0.48154662551
9.17359125768 1.08521065315 -0.280702220205 7.3977166677 2.88956396168 -0.792422140871 -0.381482729362 -1.6506069303 -1.27412727555 0.758411688795 -0.478989087917
9.20995960076 1.08375277555 -0.28539591307 7.39587655215 2.88772384613 -0.791536403845 -0.380530094281 -1.64824346682 -1.27528508848 0.758481410026 -0.476381575742
9.24479697201 1.08229037472 -0.290093688839 7.39403337933 2.88588067331 -0.790676117034 -0.379588014538 -1.64589346267 -1.27643058223 0.758555572602 -0.473748644919
9.27830177201 1.08082351517 -0.294795221058 7.39218734796 2.88403464195 -0.789839829128 -0.378655900698 -1.64355571402 -1.27756362714 0.758635077029 -0.471091350865
9.31052282431 1.07935226098 -0.299500199272 7.39033864001 2.882185934 -0.789026173788 -0.377733197858 -1.64122912558 -1.27868412763 0.758720748606 -0.46841070835
9.34181720257 1.07787667574 -0.304208328377 7.38848742194 2.88033471593 -0.788233865526 -0.376819384207 -1.63891270219 -1.27979201796 0.758813343172 -0.465707691397
9.37220973762 1.07639682247 -0.308919327916 7.38663384594 2.87848113993 -0.787461695328 -0.375913969258 -1.63660554099 -1.28088725868 0.758913552334 -0.462983233937
9.40172473851 1.0749127635 -0.313632931386 7.38477805109 2.87662534508 -0.786708526422 -0.375016492083 -1.63430682405 -1.28196983352 0.759022008333 -0.46023823066
9.43048958721 1.0732979196 -0.318319069888 7.382932941 2.87478023499 -0.785955646677 -0.374183980748 -1.6320084248 -1.28305525401 0.759103176498 -0.457450192506
9.4586998567 1.07167903124 -0.323007235812 7.38108590905 2.87293320303 -0.785218994274 -0.373358267389 -1.62971659551 -1.28412802369 0.759193984242 -0.454643398155
9.48636491286 1.07005615822 -0.327697205939 7.37923705767 2.87108435165 -0.784497649668 -0.372538981248 -1.62743075775 -1.28518818329 0.759294898181 -0.451818613401
9.51349406615 1.06842935957 -0.332388768195 7.37738648026 2.86923377424 -0.783790748717 -0.371725774458 -1.62515039166 -1.28623578596 0.759406343739 -0.448976569736
9.54009655051 1.06679869356 -0.337081721024 7.37553426195 2.86738155594 -0.783097479419 -0.37091832066 -1.62287503101 -1.28727089557 0.75952870837 -0.446117965672
9.56618152346 1.06516421764 -0.34177587281 7.37368048036 2.86552777434 -0.782417078759 -0.370116313614 -1.6206042587 -1.28829358524 0.759662344492 -0.443243468134
9.59175805704 1.06352598854 -0.346471041394 7.37182520613 2.86367250011 -0.781748829817 -0.36931946622 -1.61833770273 -1.28930393572 0.759807572519 -0.440353713558
9.61740297205 1.0617592757 -0.351132151784 7.3699822519 2.86182954588 -0.781067323047 -0.368578740298 -1.61606202735 -1.29032157672 0.759927955673 -0.437433958328
9.64255179712 1.05998825027 -0.355794970848 7.36813727819 2.85998457218 -0.780402897701 -0.367849016598 -1.61379447501 -1.29132237924 0.76006201903 -0.434491945566
9.66745391083 1.05821368119 -0.360458218058 7.36629104129 2.85813833527 -0.779747992683 -0.367123390397 -1.61152985793 -1.29231116129 0.760208728909 -0.431536586225
9.69211109728 1.05643561557 -0.365121773428 7.36444357785 2.85629087183 -0.779102164006 -0.366401681594 -1.60926799095 -1.29328800021 0.760368264774 -0.428568300262
9.71652504166 1.05465410619 -0.369785498446 7.3625949301 2.85444222409 -0.778464902136 -0.365683689549 -1.60700869055 -1.29425300027 0.760540814301 -0.42558757825
9.74118332558 1.05286920507 -0.374449261466 7.36074513641 2.8525924304 -0.777835729171 -0.364969226671 -1.60475179886 -1.29520626716 0.760726546449 -0.422594887276
9.76608772566 1.05108096357 -0.379112937015 7.35889423165 2.85074152564 -0.777214195748 -0.364258117209 -1.60249718109 -1.29614790776 0.760925613313 -0.419590673235
9.79103270332 1.04916572289 -0.383737960826 7.35705600989 2.84890330388 -0.776577145961 -0.36360322508 -1.60023249429 -1.29709620692 0.761101653268 -0.416557588448
9.81648040515 1.04724674662 -0.388363226656 7.3552163338 2.84706362778 -0.775951071818 -0.362956945206 -1.59797347574 -1.29802874469 0.761293701678 -0.413507475499
9.84243675325 1.04532462319 -0.392987984202 7.35337567799 2.84522297198 -0.775330785398 -0.362313282315 -1.59571612645 -1.29895002984 0.76149966783 -0.410447177187
9.86891143586 1.04339939631 -0.397612149714 7.35153405819 2.84338135218 -0.774716014761 -0.361672129194 -1.59346040624 -1.299860152 0.761719627298 -0.407376987888
9.89591423718 1.04147111427 -0.402235626871 7.34969149497 2.84153878896 -0.774106441754 -0.361033364957 -1.59120627893 -1.30075921766 0.761953661965 -0.404297251123
9.9234551483 1.03953982477 -0.406858323831 7.34784800708 2.83969530107 -0.773501767705 -0.360396876746 -1.5889537211 -1.30164733201 0.76220184406 -0.401208294739
9.95154435672 1.03760557505 -0.411480152802 7.34600361164 2.83785090562 -0.77290171155 -0.359762559 -1.58670272069 -1.30252459901 0.762464237122 -0.398110432442
9.97993050336 1.03554607636 -0.416058809512 7.34417227556 2.83601956954 -0.772283473492 -0.359183272125 -1.5844405766 -1.30340936223 0.762704110228 -0.394986051472
10.0091718106 1.03348336259 -0.420636688484 7.34233982284 2.83418711682 -0.771672116066 -0.358611026474 -1.58218313197 -1.30427939864 0.762961259946 -0.391848301829
10.0392914751 1.03141786687 -0.425213399665 7.34050654263 2.83235383662 -0.771064055049 -0.358040435335 -1.57992701314 -1.30513894007 0.763232939797 -0.388702558144
10.0703154717 1.02934963032 -0.429788883461 7.33867244086 2.83051973485 -0.770459125864 -0.357471437063 -1.57767225239 -1.30598807104 0.763519172259 -0.385549029169
10.1022704751 1.02727869796 -0.434363071572 7.33683752801 2.828684822 -0.769857130103 -0.356903960566 -1.57541888754 -1.30682688648 0.763819984881 -0.382387959162
10.1355130868 1.02520511443 -0.438935898674 7.3350018138 2.82684910778 -0.769257881435 -0.356337939695 -1.57316696245 -1.30765547923 0.764135400321 -0.379219582127
10.1700947106 1.02312892401 -0.443507302152 7.3331653073 2.82501260128 -0.768661204479 -0.355773312806 -1.57091652626 -1.30847394023 0.764465436843 -0.376044122811
10.2056902596 1.02092925331 -0.448031303865 7.33134211612 2.82318941011 -0.768045097668 -0.355263657224 -1.56865496844 -1.30930011687 0.764773405024 -0.37284302244
10.2399019176 1.0187268492 -0.452553800965 7.32951803419 2.82136532817 -0.767433033451 -0.35475998277 -1.5663979249 -1.31011246145 0.765099354158 -0.369631164702
10.2727666878 1.01652200678 -0.457074652576 7.32769321749 2.81954051148 -0.766822544369 -0.354257321434 -1.5641423305 -1.31091498203 0.765440109251 -0.366412858203
10.3043372905 1.01431476529 -0.461593815655 7.32586766799 2.81771496198 -0.76621353382 -0.353755640341 -1.56188825216 -1.31170775229 0.765795666369 -0.363188254017
10.3349676238 1.01210516752 -0.466111241049 7.32404139214 2.81588868612 -0.76560587955 -0.353254899803 -1.55963576344 -1.31249085204 0.766166025757 -0.359957529761
10.3646853776 1.00989325597 -0.470626881643 7.32221439618 2.81406169017 -0.764999466872 -0.352755063171 -1.55738494042 -1.313264359 0.766551185258 -0.356720856431
10.3935174458 1.00767907293 -0.475140692188 7.32038668621 2.8122339802 -0.764394187978 -0.352256096588 -1.55513586135 -1.31402834895 0.766951140571 -0.353478399039
10.4220205575 1.00534329274 -0.47960300251 7.31857253291 2.8104198269 -0.763768588287 -0.351812177008 -1.55287595707 -1.31480027381 0.767329307343 -0.350210919718
10.4499493357 1.00300523353 -0.484063283348 7.31675766324 2.80860495722 -0.763145010114 -0.351373506914 -1.55062079713 -1.31555910108 0.767725855581 -0.346934578399
10.4773155481 1.00066506445 -0.488521567109 7.31494212871 2.8067894227 -0.762521783475 -0.350935414204 -1.54836744212 -1.31630866972 0.768137314419 -0.343652893809
10.5041303327 0.998322823445 -0.492977822445 7.31312593041 2.8049732244 -0.761898855331 -0.350497884266 -1.54611597372 -1.31704904162 0.768563667603 -0.340365978462
10.5304045847 0.995978551785 -0.497432013704 7.31130907395 2.80315636793 -0.761276152526 -0.350060897294 -1.54386648101 -1.31778028191 0.769004902379 -0.337073965398
10.5561489969 0.993632290551 -0.501884106685 7.309491565 2.80133885899 -0.760653606708 -0.349624435354 -1.54161905379 -1.31850245392 0.769461004865 -0.333776983434
10.581374061 0.991284080643 -0.506334068525 7.30767340939 2.79952070337 -0.760031153897 -0.349188482232 -1.53937378247 -1.31921561925 0.769931960194 -0.330475157564
10.6067852963 0.988816270495 -0.510728543682 7.30586905023 2.79771634421 -0.759387733373 -0.348807736652 -1.53711814243 -1.31993691109 0.770381313149 -0.327148748456
10.6321825899 0.986346616469 -0.515120608012 7.3040641304 2.79591142439 -0.758744853305 -0.348431721409 -1.53486769105 -1.32064569028 0.770849286271 -0.323814882342
10.6580770468 0.9838751704 -0.519510413984 7.30225861229 2.79410590627 -0.758101428115 -0.348055980479 -1.53261950741 -1.32134567479 0.771332191884 -0.320476478835
10.684478258 0.981401969319 -0.523897938842 7.30045249766 2.79229979164 -0.757457433088 -0.347680510892 -1.53037367762 -1.32203691565 0.771830008747 -0.317133624785
10.7113959716 0.978927053463 -0.528283156822 7.29864579295 2.79049308693 -0.756812827214 -0.347305305451 -1.52813029567 -1.32271946518 0.772342718547 -0.313786423458
10.7388401323 0.976450462919 -0.532666043239 7.29683850479 2.78868579878 -0.756167572576 -0.346930358093 -1.5258894554 -1.32339337418 0.772870302487 -0.310434975464
10.7668208764 0.973972237632 -0.537046574412 7.29503064008 2.78687793407 -0.755521634085 -0.346555663817 -1.52365125043 -1.32405869204 0.773412741354 -0.307079379021
10.7952587282 0.971376521764 -0.541367732714 7.2932368164 2.78508411038 -0.754854251597 -0.346236389271 -1.5214032287 -1.32473228907 0.773933713965 -0.303699513209
10.8245400598 0.968779383217 -0.545686204426 7.29144258686 2.78328988084 -0.754186292282 -0.345921463884 -1.51916094396 -1.32539382914 0.77447346097 -0.300313257433
10.8546915102 0.966180762829 -0.550002223598 7.28964783236 2.78149512635 -0.753517109953 -0.345606595728 -1.51692142991 -1.32604694923 0.775028126261 -0.296923065335
10.8857388113 0.963580696947 -0.554315774064 7.2878525562 2.77969985019 -0.7528466986 -0.345291789263 -1.51468477178 -1.32669169098 0.775597687286 -0.293529006781
10.9180281311 0.960979225053 -0.55862683761 7.28605676645 2.77790406043 -0.752175038614 -0.344977045238 -1.51245106302 -1.327328096 0.776182123925 -0.29013116519
10.9516090082 0.958376386504 -0.562935396864 7.28426047146 2.77610776544 -0.751502112415 -0.344662365082 -1.51022039649 -1.3279562047 0.776781415868 -0.286729622364
10.9868821975 0.955772220525 -0.567241435245 7.28246367988 2.77431097387 -0.75082790428 -0.34434775086 -1.50799286446 -1.32857605632 0.777395542653 -0.283324458652
11.0236480359 0.953052784873 -0.571484308051 7.28068118124 2.77252847523 -0.750131898924 -0.344088798217 -1.50575612625 -1.32920429678 0.777988313326 -0.279895253484
11.0583801948 0.950332336982 -0.5757242991 7.27889844013 2.77074573412 -0.749434449542 -0.343833902937 -1.50352571662 -1.32982082802 0.778599969776 -0.276460490865
11.0917366891 0.947610711585 -0.579961695276 7.27711525927 2.76896255325 -0.748735248588 -0.343578903547 -1.50129858544 -1.33042923827 0.779226518055 -0.273022252507
11.1237719136 0.94488794445 -0.584196485697 7.27533164383 2.76717893781 -0.748034302621 -0.343323809214 -1.49907481447 -1.33102956139 0.779867936015 -0.269580597139
11.1545381027 0.942164074444 -0.588428658162 7.2735476039 2.76539489789 -0.74733160654 -0.34306862562 -1.49685449388 -1.33162183023 0.780524203474 -0.266135595037
11.1843809102 0.939439140309 -0.592658201159 7.27176314991 2.76361044389 -0.746627156605 -0.342813358827 -1.49463771308 -1.3322060767 0.781195300176 -0.262687315535
11.2133279614 0.936713180654 -0.596885103833 7.26997829256 2.76182558655 -0.745920950326 -0.342558015274 -1.49242456071 -1.3327823318 0.781881205813 -0.259235827139
11.2421019721 0.93387428152 -0.601045138093 7.26820798792 2.7600552819 -0.745192685533 -0.342358589982 -1.49020285019 -1.33336704157 0.782545852552 -0.255760466655
11.2700095147 0.931034771472 -0.605202159271 7.26643761764 2.75828491162 -0.744462285242 -0.342162987466 -1.48798806963 -1.33394030089 0.783229475353 -0.252280217391
11.2970787365 0.928194383214 -0.609356484893 7.26466690698 2.75651420097 -0.743729709039 -0.341967155353 -1.4857770619 -1.33450567512 0.783927962634 -0.248796856401
11.323597328 0.925353151948 -0.613508108488 7.26289586316 2.75474315715 -0.7429949721 -0.341771105745 -1.4835699041 -1.33506319169 0.784641293305 -0.245310435241
11.3495764334 0.922511115953 -0.61765702284 7.26112449843 2.75297179242 -0.742258079366 -0.341574847271 -1.48136668186 -1.33561287641 0.785369447794 -0.241821015577
11.3750269794 0.919668313374 -0.621803221325 7.25935282538 2.75120011936 -0.741519036718 -0.341378388755 -1.47916747998 -1.33615475432 0.786112406475 -0.238328658589
11.3999596691 0.916824782205 -0.62594669788 7.2575808569 2.74942815088 -0.740777850905 -0.341181739222 -1.47697238241 -1.33668884975 0.786870149685 -0.234833425034
11.4249608601 0.913870748672 -0.630019691445 7.2558237081 2.74767100208 -0.740014416772 -0.341041269289 -1.47476940004 -1.33723142218 0.787606725009 -0.23131444981
11.4494508247 0.910916496965 -0.63408959296 7.2540666862 2.74591398018 -0.739248282152 -0.340904423133 -1.47257394042 -1.33776272992 0.7883623562 -0.227791139374
11.4739241714 0.90796166144 -0.638156732899 7.25230943829 2.74415673228 -0.738479621874 -0.340767244504 -1.47038272568 -1.33828633609 0.789132828153 -0.224265014861
11.4988724639 0.905006276681 -0.642221108607 7.25055197361 2.74239926759 -0.737708457171 -0.34062974727 -1.46819582782 -1.33880226289 0.789918120939 -0.220736123342
11.5243048913 0.90205038033 -0.64628271715 7.24879430659 2.74064160058 -0.736934800105 -0.340491941691 -1.46601332745 -1.33931053044 0.790718215693 -0.217204520967
11.5502308193 0.899094009868 -0.650341556114 7.247036452 2.73888374598 -0.736158663418 -0.340353838101 -1.46383530427 -1.33981115826 0.791533093471 -0.213670263695
11.5766597983 0.896137202609 -0.654397623582 7.24527842489 2.73712571887 -0.73538006048 -0.340215446926 -1.46166183717 -1.34030416532 0.792362735268 -0.210133407324
11.6031280686 0.893072434311 -0.658379681446 7.24353549038 2.73538278437 -0.734579077544 -0.340133494233 -1.45948117696 -1.34080562884 0.793171297077 -0.206572915037
11.6301071486 0.890007831712 -0.662358612521 7.2417928918 2.73364018578 -0.733774922675 -0.340054987189 -1.45730861375 -1.34129595333 0.793998988452 -0.203008559851
11.6578841773 0.886942934418 -0.666334745732 7.24005019649 2.73189749047 -0.732967947401 -0.339976058487 -1.45514074114 -1.34177871622 0.794841501338 -0.199441642785
11.6864827441 0.88387777629 -0.67030808182 7.23830741566 2.73015470965 -0.732158177342 -0.339896722983 -1.45297762605 -1.34225393543 0.795698816779 -0.195872208242
11.7159271402 0.880812394221 -0.674278621624 7.23656456589 2.72841185988 -0.73134562977 -0.339816991687 -1.45081934386 -1.34272162651 0.796570916427 -0.192300308963
11.7462423762 0.877746824918 -0.678246366455 7.23482166403 2.72666895801 -0.730530322473 -0.339736875607 -1.44866596912 -1.34318180454 0.797457781808 -0.188725997682
11.7777663232 0.874681104891 -0.682211318075 7.23307872723 2.72492602122 -0.72971227372 -0.339656385771 -1.44651757557 -1.34363448414 0.798359394341 -0.185149327142
11.8101143317 0.871510066347 -0.686098821948 7.23135116025 2.72319845423 -0.728871762868 -0.339632585778 -1.44436269512 -1.34409555727 0.799240012642 -0.181549112403
11.8409976882 0.868339567652 -0.689983202554 7.22962415459 2.72147144858 -0.728027679991 -0.33961206406 -1.44221646198 -1.34454556723 0.800139829022 -0.177945449477
11.8706545315 0.86516905738 -0.693864775111 7.22789719589 2.71974448988 -0.727180523961 -0.33959103913 -1.44007533755 -1.3449881191 0.801054451015 -0.174339445931
11.8994183757 0.861998568529 -0.697743543435 7.22617029725 2.71801759123 -0.726330323696 -0.339569526316 -1.43793938371 -1.34542322727 0.801983860329 -0.170731144733
11.9273161266 0.858828137094 -0.701619511759 7.22444347724 2.71629077123 -0.725477100426 -0.339547536787 -1.43580867072 -1.34585090359 0.802928038801 -0.167120596635
11.954373882 0.855657798855 -0.705492684747 7.22271675473 2.71456404872 -0.724620875792 -0.33952508166 -1.43368326801 -1.34627115955 0.803886968091 -0.163507852497
11.9806169523 0.852487589361 -0.709363067482 7.22099014886 2.71283744285 -0.723761671826 -0.339502172027 -1.43156324422 -1.34668400629 0.8048606297 -0.159892963298
12.0068286565 0.849214801794 -0.713152653809 7.21927919243 2.71112648642 -0.72287996803 -0.339536192405 -1.42943745225 -1.34710514138 0.805813380448 -0.156254615703
12.0322487629 0.845942917246 -0.716939154048 7.2175690385 2.70941633249 -0.721994348493 -0.339573327438 -1.4273208312 -1.34751524747 0.806785391638 -0.152613193585
12.0569030543 0.842671297238 -0.720722859332 7.2158590888 2.70770638279 -0.721105436446 -0.339609881209 -1.42520970924 -1.34791796809 0.80777219384 -0.148969631254
12.0810537489 0.839399973742 -0.724503776294 7.21414935821 2.70599665219 -0.720213263408 -0.339645869175 -1.42310414343 -1.34831331473 0.80877376906 -0.145323971053
12.1047111662 0.83612898168 -0.728281912253 7.21243986719 2.70428716118 -0.719317853746 -0.339681302265 -1.42100419902 -1.34870129621 0.809790098942 -0.141676262694
12.1278854158 0.832858355725 -0.732057274929 7.21073063651 2.70257793049 -0.718419232179 -0.33971619133 -1.41890994044 -1.34908192112 0.8108211649 -0.138026556062
12.150361638 0.829588130285 -0.735829872425 7.20902168713 2.70086898112 -0.717517423763 -0.339750547165 -1.41682143138 -1.34945519772 0.811866948138 -0.134374901222
12.1730029652 0.826218161636 -0.739518415635 7.2073286672 2.69917596119 -0.716593119312 -0.339842059249 -1.41472788441 -1.34983661508 0.812891900554 -0.13069987428
12.1951800018 0.822849446665 -0.74320393982 7.20563670578 2.69748399976 -0.715664601701 -0.339936521292 -1.41264400381 -1.35020700225 0.813936167716 -0.127022116977
12.2169037765 0.819481264182 -0.746886703085 7.20394511848 2.69579241247 -0.714732599985 -0.340030324722 -1.4105659855 -1.35057005006 0.814995210123 -0.123342405961
12.2388283956 0.816113644954 -0.750566714658 7.20225392184 2.69410121582 -0.713797147842 -0.340123484895 -1.40849388195 -1.35092576755 0.81606900972 -0.119660783467
12.2609557646 0.812746622639 -0.754243984676 7.20056313809 2.69241043207 -0.71285827225 -0.340216012243 -1.40642775351 -1.35127416109 0.817157547572 -0.115977298778
12.2835111285 0.809380230607 -0.757918523645 7.1988727897 2.69072008369 -0.711916000505 -0.340307917099 -1.40436765978 -1.35161523683 0.818260804466 -0.112292001381
12.3065028232 0.806014501932 -0.761590342428 7.19718289939 2.68903019338 -0.710970360214 -0.340399209725 -1.4023136596 -1.35194900071 0.819378760936 -0.108604940969
12.3293995305 0.80255195563 -0.765174941271 7.19550921676 2.68735651075 -0.710002268093 -0.340547868814 -1.40025536315 -1.35229071476 0.820475961957 -0.104894600453
12.3527374022 0.799090999458 -0.768756614756 7.19383686232 2.6856841563 -0.709029704982 -0.34069930879 -1.39820719947 -1.35262136701 0.821592521632 -0.101181852204
12.3765263634 0.795630834277 -0.77233558023 7.19216506345 2.68401235743 -0.708053490341 -0.340850011615 -1.39616523493 -1.35294470284 0.822723837084 -0.0974673275387
12.4007751999 0.792171489464 -0.775911849302 7.19049383818 2.68234113217 -0.70707365973 -0.340999992399 -1.39412951753 -1.35326072923 0.823869889847 -0.0937510688955
12.4254928771 0.788712997213 -0.779485434678 7.18882321038 2.68067050436 -0.706090242408 -0.341149260909 -1.3921001029 -1.35356945048 0.825030660048 -0.0900331254917
12.4506885347 0.785255389392 -0.783056349404 7.18715320409 2.67900049808 -0.705103267941 -0.341297826801 -1.39007704588 -1.35387087074 0.826206127491 -0.0863135467607
12.4766283295 0.781798697542 -0.786624606849 7.18548384361 2.67733113759 -0.704112766185 -0.341445699656 -1.38806040062 -1.35416499398 0.827396271689 -0.0825923823438
12.5026903382 0.778249124069 -0.790102424256 7.18383187194 2.67567916593 -0.703099007073 -0.341654545331 -1.38604435603 -1.35446301993 0.828570361196 -0.0788476102334
12.5295344544 0.774700554895 -0.793577588236 7.18218061712 2.6740279111 -0.70208142651 -0.341862569405 -1.38403476129 -1.35475373126 0.829759202865 -0.0751011775735
12.5571839032 0.771153021257 -0.797050113212 7.18053010404 2.67237739802 -0.701060055266 -0.342069781041 -1.38203166883 -1.35503713085 0.830962776213 -0.0713531332904
12.5856625964 0.767606554025 -0.800520013917 7.1788803578 2.67072765178 -0.700034924419 -0.342276189266 -1.38003513029 -1.3553132215 0.832181060355 -0.0676035265233
12.6152884709 0.764061183728 -0.803987305386 7.1772314037 2.66907869769 -0.699006065322 -0.34248180306 -1.37804519662 -1.3555820058 0.833414034127 -0.0638524066187
12.6461074731 0.760516940533 -0.807452002953 7.17558326724 2.66743056122 -0.697973509625 -0.342686631307 -1.37606191805 -1.35584348619 0.834661676023 -0.0600998231248
12.6784879826 0.756973854259 -0.810914122248 7.1739359741 2.66578326808 -0.696937289246 -0.342890682849 -1.37408534415 -1.35609766493 0.835923964267 -0.0563458257844
12.711756566 0.753340896669 -0.814282890861 7.17230628731 2.66415358129 -0.69587800392 -0.343155310888 -1.37210964082 -1.35635595475 0.837169632785 -0.0525684982425
12.7433362002 0.749709179634 -0.817649088513 7.17067751536 2.66252480934 -0.694814772411 -0.343419035654 -1.37014067628 -1.35660691544 0.838430023 -0.04878967604
12.7733726301 0.746078732553 -0.821012731747 7.16904968444 2.66089697842 -0.693747627498 -0.343681865361 -1.36817849824 -1.3568505485 0.839705112743 -0.0450094083382
12.802226721 0.742449584512 -0.824373837391 7.16742282098 2.65927011497 -0.692676602182 -0.34394380831 -1.36622315393 -1.35708685508 0.84099487976 -0.0412277444861
12.8299447912 0.738821764191 -0.827732422543 7.16579695158 2.65764424557 -0.691601729774 -0.34420487267 -1.36427468977 -1.35731583627 0.842299301361 -0.0374447340181
12.85683762 0.735195299864 -0.831088504561 7.16417210298 2.65601939696 -0.69052304389 -0.344465066481 -1.36233315143 -1.35753749307 0.843618354424 -0.0336604266458
12.884260527 0.731570219444 -0.834442101068 7.16254830209 2.65439559608 -0.689440578402 -0.34472439779 -1.36039858398 -1.35775182629 0.844952015606 -0.0298748722517
12.9117845834 0.727858635024 -0.837699502941 7.16094259372 2.65278988771 -0.688335044551 -0.345044836956 -1.35846636683 -1.35796933037 0.846269811204 -0.0260661895149
12.9404149227 0.724148515488 -0.840954429688 7.15933800766 2.65118530164 -0.687225457639 -0.345364286324 -1.35654115551 -1.35817947295 0.847602286346 -0.0222561758109
12.9701957835 0.72043988831 -0.844206899742 7.15773457132 2.64958186531 -0.686111852311 -0.345682753406 -1.35462299344 -1.35838225398 0.848949417334 -0.018444880514
13.0014829458 0.716732780542 -0.847456931772 7.15613231226 2.64797960624 -0.684994263523 -0.346000245603 -1.35271192325 -1.35857767333 0.850311180031 -0.0146323531541
13.0346810474 0.713027218814 -0.850704544684 7.15453125817 2.64637855216 -0.683872726528 -0.346316770225 -1.35080798687 -1.35876573077 0.851687549898 -0.0108186434122
13.0702588032 0.709323229366 -0.853949757614 7.15293143693 2.64477873091 -0.682747276841 -0.346632334564 -1.34891122559 -1.35894642591 0.853078502117 -0.00700380111562
13.1087677937 0.705620837987 -0.857192589915 7.1513328765 2.64318017048 -0.681617950298 -0.34694694577 -1.34702167987 -1.35911975833 0.854484011381 -0.0031878762243
13.1499445265 0.701835243586 -0.860336508251 7.14975275224 2.64160004622 -0.680465729024 -0.347322685431 -1.34513537782 -1.35929581382 0.855873727942 0.000650909058912
13.1881440181 0.698051324058 -0.86347805868 7.14817396444 2.64002125842 -0.679309367925 -0.347697345048 -1.34325632512 -1.3594644587 0.857278069971 0.00449086438315
13.2278767003 0.69426910472 -0.866617261244 7.14659654149 2.63844383548 -0.678148903565 -0.348070931277 -1.34138456072 -1.35962569168 0.858697011758 0.00833194025763
13.2708818784 0.690488610439 -0.869754136183 7.14502051191 2.6368678059 -0.676984372822 -0.348443450676 -1.33952012281 -1.35977951141 0.860130527153 0.0121740870774
13.3183643652 0.686709865664 -0.872888703938 7.14344590436 2.63529319834 -0.675815812842 -0.348814909779 -1.33766304895 -1.35992591638 0.861578589688 0.0160172551227
13.3730345556 0.6829328944 -0.876020985142 7.1418727476 2.63372004158 -0.674643261073 -0.349185315045 -1.33581337596 -1.36006490503 0.863041172486 0.0198613945709
13.4204721769 0.679157720186 -0.8791510006 7.1403010705 2.63214836448 -0.673466755272 -0.349554672813 -1.33397113988 -1.36019647574 0.864518248191 0.0237064555093
13.4696599025 0.675302706765 -0.882179484238 7.13874816005 2.63059545403 -0.672267587063 -0.349985151749 -1.33213304666 -1.36033026929 0.86597958356 0.0275740913583
13.5139298281 0.671449562727 -0.885205716501 7.1371968054 2.62904409939 -0.671064212609 -0.350414456548 -1.33030242323 -1.36045658707 0.867455476628 0.0314427391334
13.5543877028 0.667598311073 -0.888229718756 7.13564703576 2.62749432975 -0.669856670409 -0.350842593025 -1.3284793041 -1.36057542664 0.868945899486 0.0353123493835
13.5952298404 0.663748974338 -0.891251512525 7.1340988804 2.62594617439 -0.668644999272 -0.351269566917 -1.32666372302 -1.36068678555 0.870450823781 0.0391828725901
13.6396182273 0.659901574647 -0.894271119498 7.13255236876 2.62439966274 -0.667429238257 -0.351695384001 -1.32485571321 -1.36079066107 0.87197022093 0.0430542591579
13.6804190302 0.656056133627 -0.897288561507 7.13100753031 2.6228548243 -0.666209426749 -0.352120049925 -1.32305530705 -1.36088705053 0.873504061825 0.0469264594413
13.718455081 0.652212672457 -0.900303860525 7.12946439465 2.62131168864 -0.664985604413 -0.352543570307 -1.32126253627 -1.36097595113 0.875052317003 0.0507994237436
13.7548460644 0.648292793959 -0.903215111391 7.12794033986 2.61978763384 -0.663739413694 -0.353028175682 -1.31947481335 -1.3610665206 0.876584861936 0.0546946565678
13.7936181024 0.644374962855 -0.906124234582 7.12641806388 2.61826535786 -0.662488971109 -0.35351150897 -1.31769475789 -1.36114953352 0.87813188155 0.0585907464329
13.8355805049 0.640459199738 -0.909031252493 7.12489759654 2.61674489053 -0.661234317086 -0.35399357525 -1.3159224001 -1.36122498629 0.8796933457 0.0624876441185
13.8819083846 0.636545524705 -0.911936187636 7.12337896773 2.61522626171 -0.659975492373 -0.354474379515 -1.31415776943 -1.36129287528 0.881269223758 0.0663853003884
13.9344726174 0.632633957405 -0.91483906264 7.1218622074 2.61370950139 -0.658712537988 -0.354953926758 -1.31240089466 -1.36135319672 0.882859484779 0.0702836659817
13.9807503692 0.628724517016 -0.917739900243 7.12034734562 2.61219463961 -0.657445495241 -0.355432221939 -1.31065180391 -1.36140594674 0.884464097435 0.0741826916277
14.0288807539 0.624817222207 -0.920638723269 7.11883441245 2.61068170644 -0.656174405761 -0.355909269907 -1.30891052447 -1.3614511215 0.886083029879 0.0780823280658
14.0848623969 0.620836985196 -0.923431083254 7.11734085486 2.60918814885 -0.654881307045 -0.356447336747 -1.30717520348 -1.36149735619 0.887686258028 0.0820039024312
14.1335232677 0.616858956309 -0.926221444225 7.11584930122 2.60769659521 -0.653583932158 -0.356984029928 -1.30544772551 -1.36153593789 0.889303861513 0.0859261828393
14.1774200685 0.612883153603 -0.929009829298 7.11435978175 2.60620707574 -0.652282323511 -0.357519353781 -1.3037281164 -1.36156686192 0.890935807744 0.0898491205312
14.2212920954 0.608909594663 -0.931796261667 7.11287232675 2.60471962073 -0.650976523797 -0.358053312637 -1.30201640136 -1.36159012347 0.892582063778 0.0937726667733
14.2697265339 0.604938296584 -0.934580764594 7.11138696654 2.60323426052 -0.649666576011 -0.358585910787 -1.30031260485 -1.36160571766 0.894242596259 0.0976967728659
14.3247873004 0.600969275969 -0.937363361401 7.10990373148 2.60175102547 -0.648352523443 -0.359117152466 -1.29861675062 -1.36161363956 0.895917371393 0.101621390155
14.3731659887 0.597002548946 -0.940144075463 7.10842265199 2.60026994598 -0.647034409663 -0.359647041906 -1.29692886172 -1.36161388413 0.897606355036 0.105546470035
14.4257866614 0.592966403267 -0.942816012826 7.10696121992 2.5988085139 -0.64569471463 -0.360237853013 -1.29524784727 -1.36161452352 0.899279614254 0.109493129731
14.4725167141 0.58893260849 -0.945486082544 7.10550201736 2.59734931135 -0.644350741083 -0.360827185402 -1.29357482968 -1.36160739779 0.900967132017 0.113440349187
14.5148673675 0.584901180084 -0.948154308143 7.10404507478 2.59589236877 -0.64300253342 -0.361415042756 -1.29190983055 -1.3615925011 0.902668873294 0.117388080341
14.5567739405 0.580872133021 -0.950820713176 7.10259042263 2.59443771662 -0.641650136343 -0.362001428727 -1.29025287078 -1.36156982752 0.904384802622 0.121336275216
14.6025792877 0.576845481797 -0.953485321225 7.10113809141 2.59298538539 -0.640293594827 -0.362586346975 -1.2886039706 -1.36153937102 0.906114884207 0.125284885912
14.6541630094 0.572821240406 -0.956148155886 7.0996881116 2.59153540558 -0.638932954146 -0.36316980112 -1.2869631495 -1.36150112553 0.907859081812 0.12923386463
14.7140045538 0.568799422351 -0.958809240761 7.09824051371 2.59008780769 -0.637568259858 -0.363751794757 -1.28533042626 -1.36145508488 0.909617358805 0.133183163674
14.7661417348 0.564711752822 -0.961359336221 7.09681280867 2.58866010265 -0.636182485006 -0.364394580585 -1.28370549869 -1.36140871663 0.911359863278 0.137153653487
14.8126130416 0.560626558538 -0.963907695835 7.09538755746 2.58723485145 -0.634792451918 -0.365035779323 -1.28208870064 -1.36135445522 0.913116491145 0.141124562405
14.8550777275 0.556543852336 -0.966454343221 7.09396479054 2.58581208453 -0.633398207009 -0.365675394045 -1.2804800495 -1.36129229359 0.914887204849 0.145095843312
14.9001272418 0.552463646555 -0.968999301982 7.09254453833 2.58439183232 -0.63199979699 -0.366313427809 -1.27887956197 -1.36122222466 0.916671966428 0.149067449229
14.9502264419 0.548385953059 -0.971542595701 7.09112683129 2.58297412528 -0.63059726884 -0.366949883697 -1.27728725411 -1.36114424118 0.918470737591 0.153039333308
14.9952203546 0.544310783188 -0.974084247927 7.0897116998 2.58155899378 -0.629190669848 -0.367584764722 -1.27570314112 -1.36105833595 0.920283479541 0.15701144886
15.039300277 0.54023814782 -0.976624282179 7.08829917426 2.58014646824 -0.627780047553 -0.368218073942 -1.27412723766 -1.36096450159 0.922110153205 0.160983749339
15.0895393614 0.536103266996 -0.979051214876 7.08690675691 2.5787540509 -0.626348922087 -0.36891201221 -1.272560056 -1.36086955912 0.923920976189 0.164976817041
15.1347123176 0.531970967037 -0.981476541695 7.08551701467 2.57736430866 -0.624913581933 -0.369604251852 -1.27100111593 -1.36076657915 0.925745768266 0.168970169741
15.1764026277 0.527841258133 -0.983900286034 7.08412997777 2.57597727176 -0.62347407554 -0.370294795373 -1.2694504307 -1.36065555344 0.927584489312 0.172963761519
15.2185560605 0.523714149976 -0.986322471227 7.08274567639 2.57459297037 -0.622030451648 -0.370983645276 -1.26790801283 -1.36053647368 0.9294370988 0.176957546646
15.2577806632 0.519589651783 -0.988743120546 7.08136414069 2.57321143467 -0.62058275926 -0.371670804089 -1.26637387422 -1.36040933141 0.931303555876 0.180951479572
15.2947085526 0.515467772284 -0.991162257191 7.07998540078 2.57183269477 -0.619131047655 -0.372356274339 -1.26484802604 -1.36027411811 0.933183819296 0.184945514947
15.3298217794 0.511348519707 -0.993579904278 7.07860948671 2.5704567807 -0.61767536639 -0.373040058531 -1.26333047874 -1.36013082525 0.935077847394 0.188939607633
15.3642233761 0.507170661786 -0.995882437867 7.0772538623 2.56910115629 -0.616199840041 -0.373784273453 -1.26182258397 -1.35998558503 0.936955914503 0.192954005721
15.3970901898 0.502995471491 -0.998183491496 7.07590112938 2.56774842336 -0.614720166457 -0.374526675089 -1.26032302284 -1.35983214647 0.938847776448 0.196968562137
15.4286543156 0.498822956396 -1.00048308804 7.07455131774 2.56639861173 -0.613236396118 -0.375267265446 -1.25883180456 -1.35967049999 0.940753390571 0.200983232391
15.4589673207 0.494653123566 -1.00278125025 7.07320445711 2.56505175109 -0.611748579796 -0.376006046509 -1.25734893759 -1.35950063598 0.942672713761 0.204997972237
15.4889608432 0.490485979606 -1.00507800081 7.07186057714 2.56370787113 -0.610256768516 -0.37674302031 -1.25587442977 -1.35932254472 0.944605702606 0.20901273766
15.5198432147 0.486321530622 -1.00737336224 7.07051970741 2.56236700139 -0.608761013578 -0.377478188856 -1.25440828817 -1.35913621644 0.94655231326 0.2130274849
15.5519586934 0.482159782278 -1.00966735697 7.06918187743 2.56102917142 -0.607261366514 -0.378211554224 -1.25295051929 -1.3589416412 0.948512501629 0.217042170431
15.5858193332 0.477943098057 -1.01184432608 7.06786448072 2.5597117747 -0.605742617111 -0.379005115064 -1.25150333767 -1.35874422058 0.95045658418 0.221076657261
15.6213841188 0.473729149435 -1.01401993498 7.06655018512 2.5583974791 -0.604219812383 -0.379796744864 -1.25006456246 -1.35853842382 0.952414266724 0.225111183966
15.6591123017 0.469517941382 -1.0161942057 7.06523901975 2.55708631373 -0.602693004861 -0.380586445115 -1.24863419884 -1.35832424005 0.954385503946 0.22914570772
15.6991354229 0.465309478399 -1.01836716016 7.06393101363 2.55577830762 -0.601162247337 -0.38137421734 -1.24721225133 -1.35810165829 0.956370250189 0.233180185977
15.742362495 0.461103764536 -1.02053882011 7.06262619573 2.55447348972 -0.599627592843 -0.38216006311 -1.24579872383 -1.35787066742 0.958368459501 0.237214576467
15.7823332934 0.456900803358 -1.02270920717 7.06132459486 2.55317188885 -0.598089094672 -0.382943983987 -1.24439361948 -1.35763125629 0.96038008551 0.241248837219
15.8199629027 0.452700597981 -1.02487834276 7.06002623976 2.55187353375 -0.596546806357 -0.383725981575 -1.24299694082 -1.35738341365 0.962405081531 0.245282926558
15.8561170939 0.448449150853 -1.02692864014 7.05874841962 2.5505957136 -0.594986246905 -0.384567900519 -1.24161178744 -1.35713176917 0.96441378993 0.249336266539
15.8905756971 0.444200488694 -1.02897768884 7.05747390151 2.5493211955 -0.593421749013 -0.385407767429 -1.24023509462 -1.35687155362 0.966435882096 0.253389536812
15.9236680106 0.439954613956 -1.03102550983 7.05620271366 2.54805000765 -0.591853367234 -0.386245583331 -1.23886686365 -1.35660275473 0.968471310116 0.257442696408
15.9554481819 0.43571152865 -1.03307212389 7.05493488419 2.54678217817 -0.59028115636 -0.387081349307 -1.23750709524 -1.35632536006 0.970520025788 0.261495704674
15.9859682128 0.431471234333 -1.03511755161 7.05367044109 2.54551773508 -0.588705171424 -0.387915066469 -1.2361557894 -1.35603935707 0.972581980568 0.265548521285
16.0167731474 0.4272337321 -1.03716181339 7.05240941221 2.5442567062 -0.587125467703 -0.388746735936 -1.23481294546 -1.35574473322 0.974657125519 0.269601106256
16.0488077587 0.422999022601 -1.03920492942 7.05115182525 2.54299911924 -0.585542100703 -0.389576358858 -1.23347856206 -1.35544147586 0.976745411373 0.273653419944
16.0825172383 0.418716785484 -1.04112749395 7.04991482893 2.54176212292 -0.583941385816 -0.390465588061 -1.23215664437 -1.35513340274 0.97881718819 0.277724382514
16.1179229415 0.41443736447 -1.04304891133 7.04868132493 2.54052861891 -0.58233687474 -0.391352640807 -1.23084322355 -1.35481654629 0.980902110478 0.281795175119
16.1551102035 0.410160759581 -1.04496920118 7.04745134034 2.53929863432 -0.580728624026 -0.392237517666 -1.22953829713 -1.35449089278 0.983000127719 0.285865758819
16.1945592415 0.405886970408 -1.04688838291 7.04622490212 2.53807219611 -0.579116690457 -0.393120219257 -1.22824186204 -1.35415642833 0.985111189088 0.289936095034
16.2371056373 0.401615996121 -1.04880647569 7.0450020371 2.53684933109 -0.577501131032 -0.394000746248 -1.22695391458 -1.35381313892 0.987235243468 0.294006145544
16.2765027199 0.397347835443 -1.05072349847 7.04378277192 2.5356300659 -0.575882002979 -0.394879099326 -1.22567445034 -1.35346101052 0.989372239361 0.298075872506
16.3135921039 0.393082486691 -1.05263947 7.04256713306 2.53441442705 -0.57425936373 -0.395755279229 -1.22440346435 -1.35310002894 0.991522124995 0.302145238447
16.3491051664 0.388773339797 -1.05443327601 7.04137209025 2.53321938424 -0.572620395204 -0.39669070705 -1.22314588551 -1.35273316206 0.99365523758 0.306232595615
16.3830042054 0.384467022355 -1.05622602473 7.04018071741 2.5320280114 -0.570977798415 -0.397623830221 -1.22189682271 -1.35235728237 0.995801234413 0.310319692148
16.4155591273 0.380163532076 -1.0580177342 7.0389930403 2.53084033428 -0.569331631873 -0.39855464886 -1.22065626988 -1.35197237458 0.997960062384 0.314406491269
