liuchen18/hilsys_new/sim_sys/data/fwx_planned_trajectory_zheng.txt
this is the FWX joint values,the following info is time,x,y,theta,joint1,joint2,joint3,joint4,joint5,joint6,joint7
0.0 0.135790261285 2.41668332531 5.34755715769 0.301867709533 -1.21747889969 0.190213183448 -2.0942 0.852692081027 0.778457144376 1.09282642747
0.215908044335 0.135926546016 2.41216918374 5.34873921235 0.302022324896 -1.21628553933 0.188453418502 -2.0942 0.851761513853 0.778138418548 1.09148478121
0.373150543066 0.136062630023 2.40765545167 5.34992353482 0.302177485286 -1.21509460328 0.186691538855 -2.0942 0.850831148846 0.777818719923 1.09014338815
0.503126258684 0.136198512313 2.40314212495 5.35111012293 0.302333185713 -1.21390610591 0.184927552042 -2.0942 0.849900991665 0.77749805233 1.08880225586
0.617321032735 0.136334190113 2.39862919442 5.35229897391 0.302489418846 -1.21272007565 0.1831614429 -2.0942 0.84897105855 0.777176397187 1.08746139873
0.72069089865 0.136469665372 2.39411666423 5.3534900858 0.302646182857 -1.21153650007 0.181393257462 -2.0942 0.848041336791 0.776853798246 1.08612081417
0.81614292692 0.136604936004 2.38960452692 5.35468345655 0.302803471792 -1.210355406 0.179622987727 -2.0942 0.847111839551 0.776530242059 1.08478051301
0.905165086478 0.136740001059 2.38509277835 5.35587908382 0.302961280556 -1.2091768076 0.177850641396 -2.0942 0.846182572292 0.776205732626 1.08344050275
0.989020898635 0.136874858586 2.38058141133 5.35707696555 0.303119603291 -1.20800073131 0.176076211711 -2.0942 0.845253547618 0.775880257469 1.08210079369
1.06880004209 0.137009509658 2.3760704277 5.35827709868 0.303278436314 -1.20682716674 0.174299735116 -2.0942 0.844324756682 0.775553853396 1.08076138778
1.14470082822 0.137143952365 2.37155982037 5.35947948106 0.303437773722 -1.20565614007 0.172521205282 -2.0942 0.843396211808 0.775226508317 1.07942229512
1.21763397391 0.137278185801 2.3670495852 5.36068411016 0.303597610315 -1.20448766526 0.170740630077 -2.0942 0.842467918254 0.774898226395 1.07808352313
1.28771561992 0.137412208187 2.36253971531 5.36189098378 0.303757940282 -1.20332176809 0.168958004347 -2.0942 0.841539887805 0.774568996465 1.07674508143
1.35573064425 0.137546020382 2.35803021194 5.36310009866 0.303918759543 -1.20215843887 0.16717336183 -2.0942 0.84061211263 0.774238853213 1.07540697303
1.42174009044 0.137679620646 2.35352106832 5.36431145249 0.304080062239 -1.20099770311 0.165386697783 -2.0942 0.839684604237 0.77390778585 1.07406920737
1.48580315439 0.137813008116 2.34901228031 5.36552504258 0.304241843072 -1.19983957457 0.163598020232 -2.0942 0.838757367676 0.773575798696 1.07273179176
1.54859906524 0.137946181174 2.34450384137 5.36674086662 0.304404096268 -1.19868407832 0.161807325543 -2.0942 0.83783041393 0.773242881846 1.07139473516
1.6101528687 0.138079140486 2.33999575214 5.3679589211 0.304566817374 -1.19753120542 0.160014644911 -2.0942 0.836903736124 0.772909067952 1.07005804158
1.67048922697 0.138211884473 2.33548800617 5.36917920357 0.304730000572 -1.19638098068 0.15821997509 -2.0942 0.835977344972 0.772574347467 1.06872171981
1.72963227196 0.138344412313 2.33098059935 5.37040171121 0.304893640467 -1.19523341764 0.156423324262 -2.0942 0.835051245309 0.772238724868 1.06738577706
1.78760568207 0.138476722541 2.32647352541 5.37162644155 0.305057731317 -1.19408854066 0.154624690227 -2.0942 0.834125447338 0.771902191453 1.06605022169
1.84443258871 0.138608815646 2.32196678448 5.37285339086 0.305222268316 -1.19294634154 0.152824101795 -2.0942 0.833199945077 0.771564777934 1.06471505857
1.90013573981 0.138740690202 2.3174603704 5.37408255657 0.305387245684 -1.19180684437 0.151021557134 -2.0942 0.832274748469 0.771226475947 1.0633802959
1.95419679577 0.138872345429 2.31295427906 5.37531393569 0.305552657932 -1.19067006248 0.149217064577 -2.0942 0.831349862126 0.770887290116 1.06204594077
2.00771883193 0.139003780004 2.3084485045 5.37654752561 0.305718499342 -1.18953601949 0.14741062327 -2.0942 0.830425295496 0.7705472129 1.06071200099
2.06070722761 0.13913499426 2.30394304635 5.3777833224 0.305884764786 -1.18840470795 0.1456022598 -2.0942 0.829501043426 0.770206273136 1.0593784822
2.1131673688 0.139265986909 2.29943789872 5.37902132336 0.306051448507 -1.18727615123 0.143791973661 -2.0942 0.828577115111 0.76986446361 1.05804539205
2.16510456814 0.139396757217 2.29493305754 5.38026152532 0.306218544929 -1.18615036241 0.141979773334 -2.0942 0.827653514933 0.769521789079 1.05671273749
2.21652410823 0.139527303992 2.29042851711 5.38150392555 0.306386048355 -1.18502736438 0.140165659228 -2.0942 0.826730251611 0.769178243108 1.05538052582
2.26743115162 0.139657627427 2.28592427661 5.3827485199 0.306553953352 -1.18390715044 0.138349655862 -2.0942 0.825807320756 0.768833852748 1.05404876336
2.31783087088 0.139787726368 2.28142033042 5.38399530555 0.306722254188 -1.18278974322 0.136531763972 -2.0942 0.824884730838 0.768488611871 1.05271745723
2.36772836853 0.13991760012 2.27691667449 5.38524427917 0.306890945199 -1.18167515554 0.134711992181 -2.0942 0.823962486007 0.768142525372 1.05138661427
2.41712870706 0.140047247619 2.27241330338 5.38649543788 0.307060020703 -1.18056340955 0.132890342078 -2.0942 0.823040594275 0.767795587865 1.05005624127
2.46603685226 0.140176668931 2.26791021586 5.38774877735 0.307229474991 -1.17945449931 0.13106683627 -2.0942 0.822119051952 0.767447824695 1.04872634515
2.5144577666 0.140305863028 2.26340740656 5.38900429461 0.307399302344 -1.17834844668 0.129241476649 -2.0942 0.821197866811 0.767099230769 1.04739693255
2.56239634582 0.140434829253 2.25890487147 5.39026198618 0.307569497019 -1.17724526424 0.127414271979 -2.0942 0.820277042761 0.766749811108 1.04606801017
2.60985745233 0.14056356666 2.25440260538 5.39152184905 0.30774005334 -1.17614497336 0.125585224945 -2.0942 0.819356587133 0.766399561335 1.04473958436
2.65684585514 0.140692075207 2.2499006067 5.39278387869 0.307910965346 -1.17504756887 0.123754356392 -2.0942 0.818436496877 0.766048505152 1.04341166252
2.70336631329 0.140820353979 2.24539887028 5.394048072 0.308082227327 -1.17395307187 0.121921669288 -2.0942 0.817516779087 0.765696638464 1.04208425084
2.74942353243 0.140948402361 2.24089739215 5.39531442535 0.308253833463 -1.17286149465 0.120087172532 -2.0942 0.816597437431 0.765343966406 1.04075735591
2.79502217486 0.141076219513 2.23639616733 5.39658293558 0.308425778082 -1.17177285782 0.118250869825 -2.0942 0.815678478582 0.764990485559 1.03943098364
2.83971984522 0.141203805302 2.2318951939 5.39785359799 0.308598054993 -1.17068715698 0.116412780397 -2.0942 0.814759900068 0.764636218054 1.03810514183
2.8844150677 0.141331158916 2.22739446694 5.39912640933 0.30877065849 -1.16960441243 0.114572908213 -2.0942 0.81384170833 0.764281160747 1.03677983627
2.92910788232 0.141458279782 2.22289398251 5.40040136583 0.30894358268 -1.16852463621 0.112731262302 -2.0942 0.812923906792 0.763925318874 1.03545507341
2.97379833911 0.141585167159 2.21839373584 5.40167846419 0.309116821888 -1.16744784812 0.110887847302 -2.0942 0.812006501491 0.763568689933 1.03413085878
3.01848645141 0.141711820833 2.21389372472 5.40295769953 0.309290369719 -1.16637404454 0.109042680973 -2.0942 0.811089490472 0.763211294557 1.03280720048
3.06317227591 0.141838240092 2.20939394444 5.40423906849 0.309464220464 -1.16530324498 0.107195768197 -2.0942 0.810172879549 0.762853130495 1.03148410394
3.10785584263 0.141964424401 2.20489439111 5.40552256712 0.309638368165 -1.16423546119 0.10534711813 -2.0942 0.809256671898 0.762494203082 1.03016157544
3.15253720493 0.142090373108 2.20039506013 5.40680819198 0.309812807133 -1.16317071216 0.103496736267 -2.0942 0.808340872947 0.762134510689 1.0288396202
3.19721637947 0.142216085938 2.19589594907 5.40809593807 0.309987530799 -1.16210899509 0.101644639041 -2.0942 0.807425481196 0.761774072505 1.02751824652
3.24189341629 0.142341562266 2.1913970534 5.40938580184 0.310162533444 -1.16105032864 0.0997908321738 -2.0942 0.80651050186 0.761412887135 1.02619745948
3.28656835541 0.142466801594 2.18689836927 5.41067777922 0.310337809045 -1.15999472429 0.0979353249423 -2.0942 0.805595937859 0.761050960011 1.02487726523
3.33124123351 0.142591803353 2.18239989227 5.41197186663 0.310513351898 -1.1589422002 0.0960781236248 -2.0942 0.804681794039 0.760688290323 1.02355766868
3.37591208395 0.142716567218 2.17790161975 5.41326805891 0.310689155283 -1.15789275436 0.094219243465 -2.0942 0.803768069299 0.760324895882 1.02223867824
3.42058094673 0.142841092645 2.17340354736 5.41456635238 0.310865213468 -1.15684640463 0.0923586909485 -2.0942 0.802854768275 0.759960776101 1.02092029871
3.46524785854 0.142965379171 2.1689056713 5.41586674283 0.311041520369 -1.1558031622 0.0904964754685 -2.0942 0.801941893633 0.759595936497 1.01960253607
3.50991286275 0.143089426304 2.16440798733 5.41716922652 0.311218070257 -1.15476304435 0.0886326040113 -2.0942 0.801029449662 0.759230377043 1.01828539497
3.55457598603 0.143213233677 2.15991049263 5.41847379816 0.311394856292 -1.15372604993 0.0867670907674 -2.0942 0.800117435598 0.758864114228 1.01696888384
3.59923727507 0.143336800822 2.15541318299 5.41978045395 0.311571872717 -1.15269219593 0.0848999429113 -2.0942 0.799205855528 0.758497148237 1.01565300723
3.64389675988 0.143460127311 2.15091605469 5.42108918951 0.311749113396 -1.15166149324 0.0830311699489 -2.0942 0.798294711859 0.758129484656 1.01433777095
3.68855448716 0.143583212717 2.14641910364 5.42240000096 0.311926572569 -1.15063395829 0.081160779501 -2.0942 0.797384008347 0.757761124201 1.01302317944
3.73321048358 0.14370605665 2.14192232686 5.42371288291 0.312104243302 -1.14960959077 0.079288784837 -2.0942 0.796473744513 0.757392082091 1.01170924104
3.77786478583 0.143828658705 2.13742572031 5.42502783139 0.312282119808 -1.14858840681 0.0774151937481 -2.0942 0.795563923919 0.757022359238 1.0103959601
3.82251743726 0.143951018489 2.13292928031 5.42634484191 0.3124601959 -1.147570417 0.0755400158479 -2.0942 0.79465454871 0.756651961295 1.00908334224
3.86716847457 0.144073135632 2.12843300292 5.42766391041 0.312638465782 -1.14655563688 0.0736632593206 -2.0942 0.793745622133 0.756280889684 1.00777139173
3.91181792775 0.144195009734 2.12393688504 5.42898503142 0.312816922454 -1.14554406701 0.0717849366435 -2.0942 0.792837143944 0.755909158395 1.00646011674
3.95646583351 0.144316640442 2.11944092279 5.4303082008 0.312995560091 -1.14453572263 0.0699050561534 -2.0942 0.791929117197 0.755536769044 1.00514952145
4.00111223185 0.144438027401 2.11494511254 5.43163341394 0.313174372464 -1.14353061403 0.0680236275674 -2.0942 0.791021543781 0.755163727324 1.00383961129
4.04575715613 0.144559170288 2.11044945047 5.43296066663 0.313353353727 -1.14252875585 0.0661406595634 -2.0942 0.790114426457 0.754790035332 1.00253039039
4.09040064303 0.144680068702 2.10595393342 5.43428995331 0.313532496848 -1.14153014953 0.0642561639521 -2.0942 0.78920776516 0.754415705883 1.00122186668
4.13504272591 0.144800722342 2.10145855761 5.43562126969 0.313711795955 -1.14053480942 0.0623701495468 -2.0942 0.788301562466 0.75404074124 0.999914044172
4.17968344144 0.14492113088 2.09696331949 5.43695461103 0.31389124478 -1.13954274549 0.0604826261638 -2.0942 0.787395820004 0.75366514715 0.998606928145
4.21539501604 0.14501730422 2.09336722923 5.43802281735 0.314034846562 -1.13875154035 0.0589714872134 -2.0942 0.78667149163 0.753364291678 0.997561802707
4.25110576023 0.145113320309 2.08977122307 5.43909231372 0.314178536408 -1.13796244069 0.0574593944298 -2.0942 0.785947458879 0.753063042405 0.996517136728
4.28681568402 0.145209179043 2.08617529916 5.44016309803 0.314322311458 -1.1371754545 0.0559463524779 -2.0942 0.785223723002 0.752761400021 0.99547293177
4.32252481074 0.145304880264 2.08257945569 5.44123516779 0.314466168482 -1.13639058671 0.0544323664253 -2.0942 0.78450028471 0.752459367497 0.994429190452
4.35823315708 0.145400423824 2.07898369087 5.4423085205 0.314610104254 -1.13560784227 0.0529174413498 -2.0942 0.783777144692 0.752156947788 0.993385915362
4.39394073971 0.145495809622 2.07538800287 5.44338315398 0.31475411587 -1.13482722879 0.0514015820197 -2.0942 0.783054304055 0.751854141818 0.992343108086
4.4296475753 0.145591037421 2.07179239002 5.44445906506 0.314898199456 -1.13404874601 0.0498847940882 -2.0942 0.7823317626 0.751550956407 0.991300773087
4.46535368053 0.145686107125 2.06819685052 5.44553625151 0.315042352085 -1.13327240119 0.0483670824231 -2.0942 0.781609521321 0.751247392705 0.990258911973
4.50105907874 0.145781018596 2.0646013826 5.44661471078 0.315186570519 -1.13249819917 0.0468484521391 -2.0942 0.780887580798 0.750943453677 0.989217527253
4.53676378328 0.145875771701 2.06100598451 5.44769444031 0.315330851515 -1.13172614471 0.0453289083601 -2.0942 0.780165941585 0.750639142292 0.988176621417
4.57246781081 0.145970366351 2.05741065446 5.4487754378 0.315475192101 -1.13095624463 0.0438084560789 -2.0942 0.779444604512 0.750334460027 0.987136196127
4.60817117802 0.146064802322 2.0538153908 5.44985770012 0.315619588487 -1.1301884996 0.0422871006966 -2.0942 0.778723569491 0.750029412782 0.986096255436
4.64387390491 0.146159079539 2.05022019175 5.45094122494 0.31576403769 -1.12942291629 0.040764847245 -2.0942 0.778002837283 0.749724002096 0.985056800979
4.67957600817 0.146253197873 2.04662505558 5.45202600964 0.315908536453 -1.12865949932 0.039241700883 -2.0942 0.777282408332 0.749418230957 0.984017835178
4.71527750112 0.146347157205 2.04302998059 5.45311205161 0.316053081523 -1.12789825334 0.0377176667788 -2.0942 0.776562283059 0.749112102338 0.982979360418
4.75097840711 0.146440957453 2.03943496503 5.45419934842 0.316197669855 -1.12713918443 0.0361927500559 -2.0942 0.775842462063 0.748805618127 0.981941378438
4.78667873615 0.146534598424 2.03584000725 5.45528789701 0.316342297768 -1.12638229419 0.0346669559915 -2.0942 0.775122945315 0.748498783421 0.980903892829
4.82237851158 0.146628080044 2.03224510553 5.45637769492 0.316486962203 -1.12562758856 0.0331402897403 -2.0942 0.774403733344 0.748191600176 0.979866905315
4.85807774675 0.146721402201 2.02865025817 5.45746873948 0.316631659898 -1.12487507204 0.0316127565043 -2.0942 0.773684826466 0.747884071368 0.978830418202
4.89377645832 0.146814564789 2.02505546349 5.45856102802 0.316776387586 -1.12412474908 0.0300843614939 -2.0942 0.772966224967 0.747576199978 0.977794433778
4.92947466298 0.146907567728 2.02146071981 5.45965455798 0.316921142148 -1.1233766251 0.0285551099253 -2.0942 0.772247929231 0.747267988282 0.976758953873
4.9651723774 0.147000410856 2.01786602547 5.46074932638 0.317065920024 -1.12263070254 0.0270250070214 -2.0942 0.771529939257 0.746959440612 0.975723981583
5.00086961824 0.147093094105 2.01427137881 5.46184533064 0.317210718083 -1.12188698671 0.0254940580231 -2.0942 0.770812255364 0.746650559294 0.974689518718
5.0365664022 0.147185617374 2.01067677817 5.46294256803 0.317355533051 -1.1211454819 0.0239622681725 -2.0942 0.770094877733 0.746341347315 0.973655567488
5.07226273927 0.147278353947 2.00708222248 5.46404172888 0.31750116399 -1.12041176462 0.0224302558364 -2.0942 0.769378029131 0.746028061415 0.972619167855
5.10795867947 0.147370818462 2.0034877069 5.46514178818 0.317646441839 -1.11967794859 0.020897225846 -2.0942 0.768661310864 0.745716000404 0.971584436373
5.14365418279 0.147462790775 1.99989323508 5.46624258895 0.31779114672 -1.11894209556 0.019362825586 -2.0942 0.767944807326 0.745406491353 0.970552574088
5.1793493126 0.147554549256 1.99629880108 5.46734434285 0.317935570538 -1.11820675072 0.0178275065432 -2.0942 0.767228436699 0.745097804718 0.969522033433
5.21504405888 0.147646126253 1.99270440557 5.46844721151 0.318079884815 -1.11747295759 0.0162913330032 -2.0942 0.766512307494 0.744789253524 0.968492331642
5.25073843497 0.147737534433 1.98911004767 5.46955125689 0.318224155076 -1.11674113147 0.0147543337818 -2.09419801445 0.765796462585 0.744480567872 0.967463279072
5.29535600907 0.147851784115 1.98461713959 5.47093244134 0.318404150889 -1.11582833083 0.0128324875919 -2.09419070261 0.764901409268 0.744094845004 0.966177452571
5.33997284279 0.147965493632 1.98012430658 5.47231565387 0.318584192369 -1.1149174341 0.0109086890838 -2.09417826758 0.764007463956 0.743709715438 0.964893929901
5.38458902287 0.148078836139 1.9756315391 5.4737003258 0.318763758451 -1.11400736623 0.00898355452318 -2.09416172862 0.763113620028 0.743325927934 0.963612385291
5.42920454928 0.148191850587 1.97113883752 5.47508650993 0.318942914024 -1.11309823054 0.00705702936045 -2.09414098157 0.762220007515 0.742943389283 0.962332856112
5.4738195521 0.148304799034 1.96664618843 5.47647382509 0.319121350608 -1.1121893117 0.00512950720193 -2.09411665826 0.761326052766 0.742562507076 0.961055149555
5.51843371117 0.148417132778 1.96215362467 5.47786307556 0.319299723997 -1.11128212685 0.003200178576 -2.09408744516 0.760432972449 0.742182442194 0.959779668957
5.56304715656 0.148529139651 1.95766113249 5.47925384488 0.319477697256 -1.11037589176 0.00126947565928 -2.09405403559 0.759540133801 0.741803642721 0.958506200153
5.60765987825 0.148640820216 1.9531687132 5.4806461341 0.319655272593 -1.10947061169 -0.000662597783158 -2.09401643412 0.758647540261 0.741426113261 0.957234742859
5.65227204634 0.148752462509 1.94867635003 5.48203952067 0.319832106302 -1.1085654964 -0.00259562025205 -2.09397533356 0.757754557233 0.741050292615 0.955965085522
5.6968832773 0.14886349185 1.94418408074 5.48343485315 0.320008893348 -1.10766214165 -0.00453041974816 -2.09392936132 0.756862466437 0.740675318107 0.954697650623
5.74149373454 0.148974196109 1.93969188986 5.48483171181 0.320185292617 -1.10675975992 -0.00646657399889 -2.09387920934 0.755970630976 0.740301629457 0.953432223721
5.78610339472 0.149084575873 1.93519977872 5.48623009768 0.320361306371 -1.10585835672 -0.00840407934394 -2.09382488231 0.755079054293 0.739929231107 0.952168804517
5.83071245127 0.149194918837 1.93070772878 5.4876295844 0.320536586065 -1.10495713724 -0.0103425235351 -2.09376707279 0.754187096311 0.739558554645 0.950907180788
5.87532048731 0.149304651092 1.92621578123 5.48903102821 0.320711836513 -1.1040577072 -0.0122827164511 -2.09370440902 0.753296049811 0.739188751226 0.949647776345
5.91992767961 0.149414059873 1.9217239189 5.49043400513 0.320886711274 -1.10315927379 -0.0142242446364 -2.0936375835 0.752405271431 0.738820254084 0.948390375777
5.96453401148 0.149523145896 1.91723214309 5.49183851635 0.321061212847 -1.10226184306 -0.0161671046866 -2.09356660076 0.751514764981 0.73845306723 0.947134978873
6.00913968635 0.14963219681 1.91274043356 5.49324413216 0.321234988384 -1.10136461622 -0.0181108938954 -2.09349215231 0.750623885832 0.738087614515 0.945881372994
6.05374426069 0.149740638654 1.90824883487 5.49465171518 0.321408751071 -1.10046920716 -0.0200564030698 -2.09341286945 0.749733935169 0.737723062566 0.944629982538
6.09834792123 0.149848758915 1.90375732814 5.49606083853 0.321582150688 -1.09957481992 -0.0220032287313 -2.09332944276 0.748844266102 0.737359836124 0.943380591974
6.14295065466 0.149956558066 1.89926591466 5.497471503 0.321755189313 -1.0986814601 -0.023951367195 -2.09324187767 0.747954881534 0.736997939697 0.94213320081
6.18755268106 0.150064323826 1.89477457251 5.49888327569 0.321927510019 -1.09778832508 -0.0259004253515 -2.09315086438 0.747065132626 0.736637789306 0.940887596076
6.23215352355 0.15017148217 1.89028334957 5.50029702559 0.322099834295 -1.09689703722 -0.0278511751353 -2.09305503711 0.746176329036 0.736278566681 0.939644202806
6.27675338556 0.150278320606 1.88579222529 5.50171232255 0.322271807754 -1.09600679665 -0.0298032226 -2.0929550853 0.745287819503 0.735920688844 0.938402805088
6.32135225707 0.150384839663 1.88130120092 5.50312916741 0.322443432578 -1.09511760927 -0.0317565641993 -2.0928510144 0.744399607042 0.735564160061 0.937163402451
6.36595036821 0.150491326906 1.87681025286 5.50454712378 0.322614347378 -1.09422866784 -0.0337108160068 -2.09274351398 0.743511037779 0.735209389264 0.935925781348
6.41054721539 0.150597208603 1.87231943232 5.50596706747 0.322785282536 -1.09334160458 -0.0356667317667 -2.09263122007 0.742623431175 0.734855572032 0.934690367848
6.45514301538 0.150702771867 1.86782871706 5.50738856448 0.322955878773 -1.09245561433 -0.0376239264001 -2.09251482217 0.741736130114 0.734503118868 0.933456945225
6.49973775819 0.150808017451 1.8633381083 5.50881161595 0.323126138666 -1.09157070381 -0.0395823967152 -2.09239432527 0.740849138293 0.734152033397 0.93222551319
6.54433169393 0.150913232928 1.85884758079 5.51023578226 0.323295696688 -1.09068606137 -0.0415417680936 -2.09227041794 0.73996179732 0.733802717255 0.930995857771
6.58892428234 0.151017844341 1.854357189 5.51166194521 0.323465291112 -1.08980332804 -0.0435027755772 -2.09214173935 0.73907543476 0.733454380745 0.929768405586
6.6335157602 0.151122139045 1.84986690902 5.51308966791 0.323634558942 -1.08892169494 -0.045465043711 -2.09200897729 0.738189389791 0.733107426501 0.928542939714
6.6781061175 0.151226117583 1.84537674207 5.51451895115 0.323803502366 -1.0880411684 -0.0474285690775 -2.09187213754 0.737303665296 0.732761858547 0.92731945962
6.72269561772 0.151330067745 1.84088666123 5.51594935245 0.323971752117 -1.08716093277 -0.049392986537 -2.09173190713 0.73641759903 0.732418070924 0.926097751094
6.76728368722 0.151433415383 1.83639672421 5.51738175953 0.324140054364 -1.08628263834 -0.0513590126675 -2.09158692811 0.735532526881 0.732075288183 0.924878241374
6.81187058615 0.151536447829 1.83190690547 5.51881573229 0.32430804193 -1.0854054716 -0.0533262811858 -2.09143788742 0.734647783341 0.731733905922 0.92366071306
6.85645629783 0.151639165756 1.82741720618 5.52025127165 0.324475717234 -1.08452943942 -0.0552947888888 -2.09128479064 0.733763371662 0.731393927756 0.922445165711
6.90104110572 0.151741856918 1.82292759779 5.52168793192 0.324642706834 -1.08365372125 -0.0572641796946 -2.09112832403 0.732878624821 0.731055740919 0.921231384614
6.9456244062 0.151843947066 1.81843814122 5.52312660683 0.32480976489 -1.08277997728 -0.0592351520073 -2.09096713216 0.731994887422 0.73071858362 0.920019797742
6.99020646941 0.151945723539 1.81394880927 5.5245668531 0.324976520127 -1.08190738924 -0.0612073486634 -2.09080190105 0.731111489333 0.730382844538 0.918810187232
7.03478728533 0.15204718704 1.80945960312 5.52600867165 0.325142975009 -1.08103596426 -0.063180766539 -2.09063263638 0.730228433824 0.730048527116 0.917602552639
7.07936715078 0.152148625545 1.8049704926 5.52745161402 0.325308752435 -1.08016487745 -0.0651550588482 -2.09046002298 0.729345049964 0.72971601136 0.916396679004
7.12394542878 0.152249464273 1.80048154174 5.52889657915 0.325474613658 -1.07929579801 -0.0671309054472 -2.090282709 0.728462689612 0.729384549781 0.915192994601
7.16852240614 0.152349990859 1.79599272177 5.53034312113 0.325640183889 -1.07842790356 -0.0691079585645 -2.09010137881 0.727580679 0.729054523644 0.913991281399
7.21309807618 0.152450206027 1.79150403383 5.53179124083 0.325805465618 -1.07756120149 -0.071086215138 -2.0899160382 0.726699021384 0.728725936241 0.912791538939
7.25767274907 0.15255039792 1.78701544616 5.53324048698 0.32597007802 -1.07669486218 -0.0730653375202 -2.08972737077 0.725817041695 0.728399160671 0.911593551956
7.30224575779 0.15264999123 1.78252702588 5.53469176364 0.326134789354 -1.07583056425 -0.0750459871985 -2.08953402812 0.724936099119 0.728073463352 0.910397749036
7.34681740585 0.152749273997 1.77803874263 5.53614462247 0.32629922157 -1.07496748131 -0.0770278258253 -2.08933669271 0.724055516608 0.72774921808 0.909203912087
7.39138768323 0.152848246744 1.77355059753 5.53759906397 0.326463376754 -1.07410562036 -0.0790108501331 -2.08913537106 0.723175296611 0.727426428512 0.908012040409
7.43595692009 0.152947198018 1.76906255726 5.53905463444 0.326626870856 -1.07324414759 -0.080994731812 -2.08893074496 0.722294760743 0.727105460471 0.906821918677
7.48052441943 0.153045551774 1.76457469197 5.54051224266 0.326790478632 -1.07238475074 -0.0829801138916 -2.08872146988 0.721415274798 0.7267855944 0.905633975564
7.52509049473 0.153143596544 1.76008696974 5.54197143802 0.326953818993 -1.07152659951 -0.0849666674566 -2.08850822621 0.720536158748 0.726467196614 0.904447993015
7.56965514266 0.153241332701 1.75559939165 5.5434322207 0.327116893706 -1.07066970064 -0.0869543890986 -2.08829102104 0.719657414405 0.726150271012 0.903263970135
7.61421870338 0.153339048972 1.75111192287 5.54489413433 0.327279315111 -1.06981321533 -0.088942959504 -2.08807053503 0.718778359247 0.72583517684 0.902081691318
7.65878045321 0.153436169096 1.74662463649 5.54635809308 0.327441865369 -1.06895884222 -0.0909330039911 -2.08784542593 0.717900367575 0.725521207014 0.900901585848
7.70334072231 0.153532981587 1.74213749909 5.54782364332 0.32760415941 -1.06810574551 -0.0929242024055 -2.08761637354 0.717022754532 0.725208721717 0.899723435182
7.747899504 0.153629486865 1.73765051171 5.54929078525 0.327766199056 -1.06725393222 -0.094916551426 -2.08738338498 0.716145521994 0.724897724638 0.898547238438
7.79245715514 0.153725973864 1.733163638 5.55075905986 0.327927593143 -1.06640255846 -0.0969097406988 -2.08714713976 0.715267983387 0.724588568558 0.897372779768
7.83701292201 0.153821866018 1.72867695398 5.55222938651 0.328089130959 -1.06555333389 -0.0989043778429 -2.086906298 0.714391521225 0.724280558727 0.89620048895
7.88156715145 0.153917451795 1.72419042472 5.55370130854 0.328250423435 -1.06470541689 -0.100900151378 -2.08666153909 0.713515445696 0.723974049427 0.895030146932
7.9261198368 0.154012731712 1.71970405122 5.55517482621 0.328411472548 -1.06385881492 -0.102897058118 -2.08641286999 0.712639758913 0.723669044028 0.893861752898
7.97067134824 0.154107995407 1.71521779568 5.55664947882 0.32857188468 -1.06301268031 -0.104894797144 -2.08616096775 0.711763772059 0.723365887908 0.892695091296
8.0152209087 0.154202664738 1.71073173693 5.5581261886 0.328732453578 -1.06216873029 -0.106893957108 -2.08590449831 0.710888871234 0.723063901153 0.891530591025
8.05976887505 0.154297029221 1.70624583857 5.55960449777 0.328892788412 -1.06132612049 -0.108894236333 -2.0856441376 0.710014365637 0.722763429868 0.890368033693
8.10431523727 0.15439108918 1.7017601016 5.56108440619 0.329052890741 -1.06048485795 -0.110895631446 -2.08537989325 0.709140256581 0.722464477745 0.889207418245
8.14886038556 0.15448513452 1.69727448675 5.56256545077 0.329212363677 -1.05964408979 -0.112897850422 -2.08511244112 0.708265851409 0.722167383918 0.888048528991
8.19340351285 0.154578586768 1.69278907564 5.56404855861 0.329372007789 -1.05880554473 -0.114901464413 -2.08484044934 0.707392544323 0.72187148018 0.886891795209
8.23794499266 0.154671735338 1.68830383044 5.56553326891 0.329531428249 -1.05796837215 -0.116906180238 -2.08456459366 0.706519639358 0.721577107197 0.885736997983
8.28248481498 0.154764580748 1.68381875208 5.56701958176 0.329690626962 -1.05713257979 -0.118911994748 -2.08428488131 0.705647138418 0.721284268133 0.88458413642
8.32702338335 0.154857413289 1.67933379993 5.56850703197 0.329849204074 -1.05629730974 -0.120918624878 -2.08400198668 0.704774345448 0.72099329578 0.883432994847
8.37155986402 0.154949653527 1.67484905827 5.56999655027 0.330007965569 -1.05546430067 -0.122926623717 -2.08371458171 0.703902660433 0.720703534696 0.8822840022
8.41609464052 0.155041591384 1.67036448788 5.57148767395 0.330166513909 -1.05463269731 -0.124935707168 -2.08342334033 0.703031384465 0.720415318927 0.881136939703
8.4606277095 0.155133227366 1.66588008967 5.57298040302 0.330324850931 -1.05380250751 -0.126945872084 -2.08312826994 0.702160519299 0.720128651563 0.879991806418
8.50515948451 0.155224852257 1.66139582162 5.57447427039 0.330482574112 -1.05297286852 -0.128956844417 -2.0828300432 0.701289365899 0.719843858984 0.878848386833
8.54968910512 0.15531588558 1.65691177063 5.57597021015 0.330640494515 -1.05214552895 -0.130969159207 -2.08252733597 0.700419329659 0.719560298366 0.877707109376
8.59421697153 0.155406617885 1.65242789615 5.57746775798 0.330798212224 -1.05131962912 -0.132982541503 -2.08222082008 0.699549709215 0.719278297036 0.876567755586
8.63874307707 0.155497049524 1.64794419902 5.57896691349 0.330955728708 -1.05049517655 -0.134996988013 -2.08191050347 0.698680505625 0.718997858328 0.875430324313
8.68326785196 0.155587471679 1.64346063589 5.58046720767 0.331112638644 -1.04967130321 -0.137012233567 -2.08159705743 0.697811016546 0.718719302577 0.874294600153
8.72779040908 0.155677303265 1.63897729624 5.58196957856 0.331269758938 -1.04884976926 -0.139028795667 -2.08127916036 0.696942654358 0.718441998299 0.873161011413
8.77231116197 0.155766834952 1.63449413815 5.58347355937 0.331426686301 -1.0480297089 -0.141046407957 -2.08095748346 0.696074713354 0.718166267383 0.87202933943
8.81683010397 0.155856067247 1.63001116245 5.58497914992 0.331583422483 -1.04721113026 -0.143065067305 -2.08063203436 0.69520719506 0.717892112723 0.870899583187
8.86134767529 0.155945291939 1.62552832449 5.58648587969 0.331739559878 -1.04639316055 -0.145084517573 -2.08030348245 0.694339394635 0.717619848326 0.869771527651
8.90586296882 0.156033926471 1.62104571619 5.58799468893 0.331895919241 -1.04557756902 -0.147105257961 -2.07997051094 0.693472728111 0.71734885561 0.868645599972
8.95037641144 0.15612226236 1.61656329437 5.58950510982 0.332052095531 -1.0447634859 -0.149127031373 -2.07963378845 0.692606488225 0.717079449592 0.867521582131
8.99488799313 0.156210300097 1.61208105981 5.59101714203 0.332208090407 -1.04395091938 -0.151149834659 -2.07929332274 0.691740676309 0.716811633113 0.866399473049
9.0393981708 0.156298331894 1.60759896662 5.5925303133 0.332363493671 -1.04313899122 -0.153173420502 -2.07894978189 0.690874584369 0.716545714408 0.865279057916
9.08390600731 0.156385774322 1.6031171091 5.59404556702 0.332519131046 -1.04232948186 -0.155198270441 -2.07860185209 0.690009634291 0.716281086165 0.864160763282
9.12841194621 0.15647291926 1.59863544281 5.59556243352 0.332674594772 -1.0415215159 -0.157224136132 -2.07825020079 0.689145115428 0.716018057764 0.863044371282
9.1729159775 0.156559767162 1.59415396852 5.5970809123 0.332829886383 -1.04071510154 -0.159251014389 -2.07789483594 0.688281028858 0.715756632022 0.861929880756
9.21741857142 0.156646610636 1.58967263906 5.59860052935 0.332984593105 -1.03990935485 -0.161278666671 -2.07753642446 0.687416663369 0.715497111612 0.860817077145
9.26191876415 0.156732865771 1.58519155112 5.60012223181 0.333139546296 -1.03910606895 -0.163307557231 -2.07717365424 0.686553448083 0.715238899367 0.85970638671
9.30641701592 0.156818824375 1.58071065901 5.60164554739 0.333294334634 -1.03830436131 -0.165337446077 -2.07680719288 0.68569066737 0.714982300094 0.858597591316
9.35091331339 0.156904487135 1.57622996345 5.60317047594 0.3334489601 -1.03750424096 -0.167368330222 -2.07643704775 0.684828323075 0.714727316016 0.857490690024
9.39540814014 0.156990147262 1.57174941611 5.60469654216 0.333603007883 -1.03670481885 -0.16939998006 -2.07606388405 0.683965701614 0.714474243957 0.856385468814
9.43990051234 0.157075219414 1.56726911589 5.60622469499 0.333757312743 -1.03590789795 -0.171432841746 -2.07568639395 0.683104235596 0.714222498623 0.855282352476
9.48439089688 0.157159996172 1.56278901594 5.60775446118 0.333911461703 -1.03511259117 -0.173466684371 -2.07530524283 0.682243207695 0.713972378586 0.85418112361
9.52887928378 0.157244478237 1.55830911695 5.60928584051 0.334065456718 -1.03431890767 -0.175501504941 -2.07492043811 0.681382619676 0.713723885956 0.853081781246
9.5733661666 0.157328959606 1.55382936946 5.6108183569 0.334218881444 -1.03352595379 -0.177537082919 -2.07453264282 0.680521756372 0.713477311459 0.851984112187
9.61785054151 0.157412853162 1.54934987448 5.61235296013 0.334372573077 -1.03273554137 -0.179573846113 -2.07414055423 0.679662052382 0.713232082109 0.850888539213
9.66233288541 0.157496452529 1.54487058405 5.61388917669 0.334526117682 -1.03194677956 -0.181611572893 -2.0737448348 0.678802789809 0.712988489828 0.849794846033
9.70681319498 0.157579758272 1.54039149882 5.61542700596 0.33467951686 -1.03115967717 -0.183650260127 -2.07334549241 0.67794396976 0.712746536923 0.848703031484
9.75129196379 0.157663065019 1.53591256822 5.61696597084 0.334832352484 -1.03037333528 -0.1856896962 -2.07294318843 0.677084874947 0.712506508507 0.847612883089
9.79576817466 0.157745784464 1.53143389535 5.61850702298 0.334985465282 -1.02958957672 -0.187730291089 -2.0725366234 0.676226944086 0.712267842358 0.84652482212
9.84024231451 0.157828210844 1.52695543116 5.62004968779 0.335138439512 -1.02880750537 -0.189771832055 -2.07212645815 0.675369457111 0.712030824813 0.84543863299
9.88471437667 0.157910344635 1.52247717625 5.62159396438 0.335291276525 -1.02802712983 -0.191814315873 -2.07171270086 0.674512414652 0.711795458275 0.844354314391
9.92918487138 0.15799248114 1.51799907898 5.62313937482 0.335443556598 -1.02724754599 -0.193857539875 -2.07129601123 0.673655097543 0.7115620223 0.843271654702
9.97365275814 0.1580740307 1.51352124445 5.62468687206 0.335596123432 -1.02647058727 -0.195901896076 -2.07087509332 0.672798947817 0.711329965484 0.842191073328
10.0181185339 0.158155288278 1.50904362256 5.62623598079 0.335748559829 -1.02569535256 -0.19794718071 -2.07045060611 0.671943243759 0.711099568491 0.8411123556
10.0625821919 0.1582362543 1.50456621385 5.62778669992 0.335900866968 -1.02492185035 -0.199993390489 -2.07002255797 0.671087985665 0.710870833734 0.840035500106
10.1070442524 0.158317224722 1.5000889657 5.62933855073 0.33605262359 -1.02414917121 -0.202040331671 -2.06959160701 0.670232452504 0.710644035399 0.838960296148
10.1515036616 0.158397608653 1.49561198509 5.63089248753 0.336204676429 -1.02337915969 -0.204088378389 -2.06915646035 0.669378089907 0.710418632374 0.837887161216
10.1959609165 0.158477701504 1.4911352209 5.63244803382 0.336356606313 -1.02261090868 -0.206137335641 -2.06871777594 0.668524173512 0.710194900361 0.836815881333
10.2404160203 0.158557503807 1.48665867366 5.63400518862 0.336508414594 -1.02184442709 -0.208187200186 -2.06827556189 0.667670703894 0.709972841467 0.835746455161
10.2848694999 0.158637312431 1.48218228975 5.63556347305 0.336659679177 -1.02107880092 -0.210237787404 -2.06783047408 0.66681695928 0.709752724106 0.834678673317
10.3293202782 0.158716534586 1.47770617798 5.63712384121 0.3368112481 -1.02031588377 -0.212289453036 -2.06738122439 0.665964386054 0.709534018563 0.833612950415
10.3737688721 0.158795466753 1.47323028626 5.6386858168 0.336962701731 -1.01955476452 -0.214342011302 -2.06692846806 0.665112259773 0.709316994431 0.83254907398
10.4182152749 0.158874109317 1.46875461508 5.6402493984 0.337114041024 -1.01879545164 -0.21639545882 -2.06647221365 0.664260580277 0.709101654035 0.831487042455
10.4626600302 0.15895275979 1.46427910988 5.64181410656 0.337264842535 -1.01803702561 -0.218449619906 -2.06601311562 0.663408624092 0.708888260709 0.830426647572
10.5071020375 0.15903082437 1.45980388123 5.64338089675 0.337415957425 -1.01728135217 -0.220504832508 -2.06554988794 0.662557841679 0.708676294033 0.829368301872
10.551541827 0.159108599747 1.4553288761 5.64494929121 0.337566963733 -1.01652751321 -0.222560919468 -2.06508318564 0.661707505168 0.708466019407 0.828311793494
10.5959793888 0.159186086546 1.45085409494 5.64651928889 0.337717862903 -1.01577551806 -0.22461787753 -2.06461301662 0.660857615221 0.708257438574 0.827257121108
10.6404152798 0.159263583094 1.44637948232 5.64809041019 0.337868230655 -1.01502444223 -0.226675540079 -2.06414003353 0.660007447463 0.70805080957 0.826204077872
10.6848483827 0.159340493612 1.44190515041 5.64966360981 0.338018918817 -1.01427616033 -0.228734226562 -2.06366295495 0.659158452322 0.707845622995 0.825153072912
10.7292792344 0.159417116035 1.43743104534 5.65123841071 0.338169505604 -1.01352975081 -0.230793769168 -2.06318243287 0.658309902781 0.707642138052 0.824103896291
10.7737078284 0.159493450786 1.43295716751 5.65281481133 0.338319991934 -1.01278522232 -0.23285416446 -2.06269847576 0.657461798552 0.707440356811 0.823056546397
10.8181347249 0.159569796887 1.42848346062 5.65439233179 0.338469952508 -1.01204164487 -0.234915254837 -2.06221173488 0.656613413975 0.707240532397 0.822010817785
10.8625587934 0.159645557385 1.42401003847 5.65597192743 0.338620241484 -1.01130090492 -0.236977341714 -2.06172093094 0.655766202466 0.707042164504 0.820967116864
10.9069805773 0.159721030554 1.4195368463 5.65755312019 0.338770435243 -1.01056207418 -0.239040266053 -2.06122671554 0.654919434303 0.706845508147 0.819925234682
10.9514000735 0.159796216953 1.41506388448 5.6591359087 0.33892053497 -1.00982516181 -0.241104024457 -2.06072909675 0.65407310962 0.706650565019 0.81888516974
10.9958178488 0.159871416798 1.41059109594 5.66071981394 0.339070115646 -1.00908923409 -0.243168468671 -2.06022872309 0.653226503649 0.70645758244 0.817846718702
11.0402327627 0.159946030388 1.40611859585 5.66230578837 0.339220029803 -1.00835618375 -0.245233881037 -2.05972432172 0.65238106608 0.706266072183 0.816810283158
11.0846453588 0.160020357886 1.40164632878 5.66389335628 0.339369855773 -1.00762508124 -0.247300112272 -2.05921653948 0.651536070974 0.706076282004 0.815775657089
11.1290556404 0.160094399468 1.397174295 5.66548251539 0.339519593772 -1.0068959344 -0.249367158692 -2.05870538551 0.650691516747 0.705888214303 0.814742838491
11.1734641812 0.160168456096 1.39270243667 5.66707278672 0.339668818123 -1.0061678041 -0.25143488115 -2.05819150698 0.649846677834 0.705702111633 0.813711625754
11.2178698172 0.160241926734 1.38823087042 5.66866512259 0.339818382844 -1.00544259443 -0.253503543697 -2.05767363322 0.649003005712 0.705517494688 0.81268241703
11.2622731153 0.160315112056 1.38375954001 5.67025904688 0.339967865077 -1.00471936968 -0.255573005992 -2.05715241035 0.648159772714 0.705334606934 0.81165500775
11.3066740657 0.160388012324 1.3792884457 5.67185455734 0.340117265183 -1.00399813797 -0.25764326435 -2.05662784723 0.647316977462 0.705153450505 0.810629395961
11.3510732551 0.160460928995 1.37481752886 5.67345117466 0.34026615633 -1.00327795385 -0.259714188643 -2.05610059049 0.646473892691 0.704974263826 0.809605381618
11.3954695098 0.16053326031 1.37034690758 5.67504985206 0.340415395276 -1.00256073507 -0.261786024836 -2.05556936964 0.645631973931 0.704796575027 0.808583359875
11.4398633933 0.160605306769 1.36587652478 5.67665011167 0.340564556437 -1.00184553717 -0.263858641225 -2.05503483215 0.644790489072 0.704620624794 0.807563126942
11.484254909 0.160677069088 1.36140638073 5.67825195208 0.340713641199 -1.0011323699 -0.265932034312 -2.05449698552 0.643949438474 0.704446414251 0.806544681354
11.5286446404 0.160748849718 1.35693641614 5.67985489479 0.340862222902 -1.0004202833 -0.268006083311 -2.0539564745 0.643108095398 0.704274176796 0.805527825367
11.5730314071 0.160820044373 1.35246675025 5.6814598899 0.341011156473 -0.999711202178 -0.270081015005 -2.05341203375 0.64226791163 0.704103451431 0.80451294871
11.6174157792 0.160890955281 1.3479973254 5.6830664619 0.341160018283 -0.999004180266 -0.272156707404 -2.05286430669 0.64142815867 0.703934472308 0.803499850768
11.6617977569 0.160961582784 1.34352814178 5.68467460849 0.341308808765 -0.998299225939 -0.274233156743 -2.05231330186 0.640588835179 0.703767241228 0.802488529581
11.7061779336 0.161032230171 1.33905913945 5.68628385174 0.341457101165 -0.997595384078 -0.27631025156 -2.05175966266 0.639749214448 0.703601987 0.801478789683
11.7505551155 0.161102291809 1.33459043888 5.68789514094 0.341605751199 -0.99689459097 -0.278388199935 -2.05120212524 0.63891074913 0.70343825686 0.800471016455
11.7949298762 0.161172070182 1.3301219817 5.68950799992 0.34175433376 -0.996195893044 -0.280466888892 -2.05064133334 0.638072708344 0.703276281539 0.799465010871
11.8393022224 0.161241565991 1.3256537681 5.69112242703 0.341902850099 -0.995499300004 -0.282546314767 -2.05007729439 0.637235092124 0.703116062023 0.798460771347
11.8836727477 0.161311083282 1.32118573752 5.69273794489 0.342050873281 -0.994803851262 -0.284626375448 -2.0495106508 0.636397173598 0.702957822822 0.797458104759
11.9280402482 0.161380014704 1.31671801153 5.69435550092 0.342199258695 -0.994111493201 -0.286707259969 -2.04894014102 0.635560404424 0.702801119918 0.796457391375
11.9724053108 0.161448663652 1.31225053117 5.69597461982 0.342347581457 -0.993421267387 -0.288788864767 -2.04836640731 0.63472405425 0.702646179409 0.795458434699
12.0167679322 0.161517030705 1.30778329657 5.69759529959 0.342495842469 -0.992733183031 -0.290871186034 -2.04778945737 0.633888122457 0.702493002446 0.794461232949
12.0611287226 0.161585421016 1.30331624664 5.69921706422 0.342643615595 -0.992046275406 -0.292954131244 -2.04720993173 0.633051883666 0.702341808647 0.793465595932
12.1054864583 0.161653225053 1.29884950391 5.70084085806 0.342791754523 -0.991362499203 -0.295037870016 -2.04662657219 0.632216786237 0.702192163445 0.792471897906
12.149841736 0.161720747358 1.2943830089 5.70246620732 0.342939835293 -0.990680892015 -0.297122308372 -2.04604001899 0.631382101515 0.702044287947 0.791479945358
12.1941945526 0.16178798843 1.2899167617 5.7040931097 0.343087858561 -0.990001462716 -0.299207442378 -2.04545027993 0.630547828411 0.701898183383 0.790489736362
12.2385455215 0.161855254334 1.28545070067 5.7057210903 0.343235398632 -0.989323241695 -0.301293189087 -2.04485799435 0.629713242397 0.701754064982 0.789501083603
12.2828934123 0.161921933808 1.28098494934 5.70735109112 0.343383308378 -0.988648193651 -0.303379698716 -2.04426190581 0.628879790097 0.701611506494 0.788514355507
12.3272388252 0.161988332212 1.27651944765 5.70898263929 0.34353116406 -0.98797535094 -0.305466886806 -2.04366265359 0.628046743324 0.701470724818 0.787529361326
12.3715817602 0.162054450026 1.27205419569 5.71061573236 0.343678966256 -0.987304722329 -0.307554749324 -2.04306024542 0.627214100795 0.701331721132 0.786546099066
12.4159228276 0.162120594447 1.26758913133 5.71224989713 0.343826290366 -0.986635334187 -0.309643213072 -2.04245531893 0.626381139946 0.701194705956 0.78556438474
12.4602608001 0.162186151716 1.26312437888 5.71388607134 0.343973986315 -0.985969158178 -0.311732408379 -2.04184662136 0.625549302026 0.70105926267 0.784584579652
12.5045962747 0.162251428751 1.25865987792 5.71552378478 0.344121632546 -0.985305224328 -0.313822260665 -2.041234789 0.624717862674 0.70092560259 0.783606496892
12.5489292548 0.162316425734 1.25419562843 5.71716303423 0.344269228863 -0.984643540187 -0.315912765694 -2.04061983031 0.623886819214 0.700793727405 0.782630134064
12.5932603573 0.162381450893 1.24973156786 5.71880334808 0.344416351631 -0.983983127732 -0.318003860073 -2.04000238165 0.623055450814 0.700663843237 0.781655310589
12.6375883382 0.162445888617 1.24526782132 5.72044566104 0.344563849198 -0.983325968044 -0.320095654264 -2.03938119171 0.622225195718 0.700535541586 0.780682381017
12.6819138079 0.162510046587 1.2408043279 5.72208950389 0.34471130035 -0.982671085747 -0.322188083376 -2.03875689626 0.621395330207 0.700409029883 0.779711161533
12.726236763 0.162573925145 1.2363410876 5.72373487368 0.344858705238 -0.982018488938 -0.32428114312 -2.03812950312 0.62056585215 0.700284309421 0.778741649882
12.7705578339 0.162637833269 1.2318780374 5.72538129987 0.345005640615 -0.981367194113 -0.326374779934 -2.03749964837 0.619736041448 0.700161582587 0.777773668762
12.8148757631 0.162701153711 1.22741530319 5.72702971439 0.345152953577 -0.980719192582 -0.328469084222 -2.03686608116 0.618907333893 0.700040448359 0.776807565822
12.8591911645 0.162764194864 1.22295282362 5.72867964903 0.345300223226 -0.980073503349 -0.330564000889 -2.03622943703 0.618079006363 0.699921110496 0.775843160481
12.903504038 0.16282695711 1.21849059865 5.73033110082 0.345447449776 -0.979430134596 -0.332659525545 -2.03558972351 0.61725105678 0.699803570128 0.774880450486
12.9478150105 0.162889750416 1.21402856489 5.73198360094 0.345594211072 -0.9787880983 -0.334755614656 -2.03494757583 0.616422766997 0.699688025544 0.77391926231
12.9921228315 0.162951955599 1.20956684888 5.73363807768 0.345741352003 -0.978149394749 -0.336852338205 -2.03430174412 0.615595568687 0.69957408358 0.772959935923
13.0364281045 0.163013881846 1.20510538889 5.73529406411 0.345888452296 -0.977513037652 -0.338949651046 -2.0336528636 0.614768739865 0.699461944268 0.772002294284
13.0807308396 0.163075529718 1.20064418485 5.73695155759 0.346035512588 -0.976879035842 -0.341047548715 -2.03300094108 0.613942279127 0.699351608298 0.771046335313
13.1250316671 0.163137210044 1.19618317302 5.73861009083 0.346182111606 -0.976246396295 -0.343145997808 -2.03234661149 0.61311546993 0.699243270217 0.770091889334
13.1693293197 0.163198301814 1.19172248056 5.7402705885 0.346329092099 -0.975617128635 -0.34524504761 -2.03168862521 0.612289739905 0.699136544295 0.769139288316
13.2136244211 0.163259115019 1.18726204535 5.74193258509 0.346476034549 -0.97499024133 -0.347344663076 -2.03102761729 0.611464368445 0.699031626926 0.768188358999
13.2579169645 0.163319650235 1.18280186732 5.74359607791 0.346622939608 -0.974365743192 -0.349444839609 -2.03036359428 0.610639354108 0.698928518686 0.76723909928
13.3022075936 0.163380219414 1.17834188242 5.74526060192 0.346769387655 -0.973742637307 -0.351545554138 -2.02969719022 0.609813983318 0.698827409963 0.766291343873
13.3464950345 0.163440199209 1.17388221828 5.74692707681 0.346916217797 -0.973122940423 -0.353646834831 -2.0290271568 0.608989677012 0.698727923278 0.765345415686
13.3907799108 0.163499900956 1.16942281254 5.74859503982 0.347063012759 -0.972505658043 -0.355748656994 -2.02835412751 0.608165718548 0.698630250405 0.764401146113
13.4350622224 0.163559325033 1.16496366506 5.75026448773 0.347209772673 -0.971890798074 -0.357851015846 -2.02767810923 0.607342105529 0.698534392234 0.763458532777
13.4793426065 0.163618784491 1.16050471154 5.75193495779 0.347356079606 -0.971277359644 -0.359953898801 -2.02699973539 0.606518127439 0.698440535147 0.762517414994
13.5236197957 0.163677653799 1.15604608002 5.75360736487 0.347502769227 -0.970667367149 -0.362057312601 -2.02631775808 0.605695198791 0.698348309405 0.761578106318
13.5678944069 0.163736245345 1.15158770788 5.75528124841 0.347649425857 -0.970059821959 -0.364161242995 -2.02563281027 0.604872605838 0.698257902851 0.760640442688
13.6121664435 0.163794559541 1.14712959496 5.75695660518 0.3477960497 -0.969454732021 -0.366265685058 -2.02494489847 0.604050346243 0.698169316227 0.759704421732
13.6564365491 0.163852910452 1.14267167674 5.75863297461 0.347942224404 -0.968851092209 -0.368370636836 -2.02425465596 0.603227712413 0.698082732178 0.75876988752
13.7007034465 0.163910670401 1.1382140816 5.76031126668 0.3480887821 -0.968250934589 -0.370476083287 -2.02356083463 0.602406112163 0.697997788433 0.757837143799
13.744967756 0.163968152834 1.1337567467 5.76199102313 0.348235308831 -0.967653256483 -0.372582020771 -2.02286406712 0.601584834903 0.69791466899 0.756906031314
13.7892294842 0.164025358135 1.12929967185 5.76367224059 0.348381804715 -0.967058065596 -0.374688444194 -2.02216435973 0.600763878081 0.697833374573 0.755976547624
13.8334892747 0.164082601369 1.12484279231 5.76535446076 0.348527855045 -0.966464352552 -0.376795362426 -2.02146234587 0.599942537204 0.697754084211 0.755048541801
13.877745847 0.16413925286 1.1203862368 5.76703858883 0.348674288607 -0.965874157571 -0.378902738246 -2.02075677624 0.599122213596 0.697676442618 0.754122307443
13.9219998247 0.164195626995 1.11592994225 5.7687241687 0.348820692967 -0.965286473479 -0.381010578795 -2.02004828373 0.598302199535 0.697600630279 0.753197690222
13.9662512177 0.164251724099 1.11147390844 5.77041119679 0.348967068087 -0.964701307607 -0.383118878803 -2.01933687451 0.597482492135 0.697526647958 0.7522746876
14.0105006632 0.164307860308 1.10701807048 5.7720992173 0.349113001166 -0.964117646665 -0.38522765817 -2.01862318214 0.596662390527 0.697454671031 0.751353154
14.0547468837 0.164363403923 1.10256255732 5.77378913047 0.349259317433 -0.963537538814 -0.387336857044 -2.01790595564 0.595843289025 0.69738435105 0.750433372316
14.0989905062 0.164418670196 1.09810730571 5.77548048224 0.349405605864 -0.962959972091 -0.389446493552 -2.01718582862 0.595024482651 0.697315865238 0.749515193323
14.1432315342 0.164473659524 1.09365231541 5.77717326912 0.349551866603 -0.962384954003 -0.391556562241 -2.01646280669 0.594205968774 0.697249214141 0.748598614546
14.1874706112 0.164528689251 1.08919752144 5.77886703823 0.349697689211 -0.961811468037 -0.393667094258 -2.01573752342 0.593387051015 0.697184569297 0.747683496205
14.2317064599 0.164583125012 1.08474305278 5.7805626832 0.349843893532 -0.961241567304 -0.395778006632 -2.01500872746 0.592569113347 0.6971215902 0.746770109179
14.275939704 0.164637283596 1.08028884619 5.78225975365 0.349990071775 -0.960674238056 -0.397889328705 -2.01427705139 0.591751456777 0.697060449564 0.745858310419
14.3201703501 0.164691165214 1.07583490133 5.78395824561 0.350136223611 -0.960109486848 -0.400001054821 -2.01354250101 0.59093407779 0.697001148231 0.744948097213
14.364399042 0.164745088219 1.07138115315 5.78565770873 0.350281940525 -0.959546293125 -0.402113227608 -2.01280571078 0.590116283842 0.696943854397 0.744039335639
14.4086245022 0.164798416216 1.06692773072 5.78735903136 0.35042803848 -0.958986717579 -0.404225740469 -2.01206542641 0.589299450963 0.696888234038 0.743132284735
14.4528473545 0.164851466912 1.06247457068 5.78906176544 0.350574111394 -0.958429742027 -0.406338634184 -2.0113222816 0.588482883607 0.696834456698 0.74222680719
14.4970676022 0.164904240556 1.0580216727 5.79076590706 0.350720159057 -0.957875373044 -0.408451902885 -2.01057628163 0.587666578395 0.696782523064 0.741322900327
14.5412858955 0.164957056509 1.05356897163 5.79247100846 0.35086577495 -0.957322586104 -0.41056560094 -2.00982806213 0.586849846862 0.696732598084 0.740420436388
14.585500954 0.165009276283 1.04911659658 5.79417795243 0.351011770851 -0.956773449019 -0.412679597556 -2.00907636541 0.586034056336 0.696684354173 0.739519661893
14.6297134011 0.16506121854 1.04466448412 5.79588629342 0.351157742572 -0.956226939407 -0.414793945211 -2.00832182643 0.585218515149 0.696637957711 0.738620445625
14.673923247 0.165112883471 1.04021263387 5.79759602733 0.35130368977 -0.955683063422 -0.416908637815 -2.00756445022 0.584403219629 0.696593409433 0.737722784835
14.7181311352 0.16516459172 1.03576098072 5.7993067097 0.351449208708 -0.955140793881 -0.419023741735 -2.00680487313 0.583587486874 0.696550870574 0.736826558563
14.7623357851 0.165215702294 1.03130965364 5.80101921671 0.351595105792 -0.954602203669 -0.421139101403 -2.00604183447 0.582772673197 0.696510020643 0.73593199972
14.8065378271 0.165266535057 1.02685858922 5.80273310594 0.351740979437 -0.954066267396 -0.423254781255 -2.00527597008 0.581958092164 0.696471022451 0.735038983783
14.8507372645 0.16531709025 1.02240778705 5.80444837336 0.351886829456 -0.953532991269 -0.425370774946 -2.00450728439 0.58114374031 0.696433876564 0.734147508064
14.8949347409 0.165367689788 1.0179571821 5.80616457786 0.352032254925 -0.953001345494 -0.42748716113 -2.00373641486 0.580328940497 0.696398740621 0.73325745871
14.9391289858 0.165417689685 1.01350690302 5.80788258776 0.352178055506 -0.952473405577 -0.429603758895 -2.00296209842 0.579515035349 0.696365302034 0.732369053837
14.9833206193 0.165467411591 1.00905688656 5.80960196518 0.35232383379 -0.951948145872 -0.431720644834 -2.00218497043 0.578701346546 0.696333718965 0.731482176604
15.0275096482 0.165516855471 1.00460713225 5.81132270545 0.352469588918 -0.951425571154 -0.433837812375 -2.00140503562 0.577887869388 0.696303992465 0.730596824019
15.0716967228 0.165566344023 1.00015757503 5.81304436968 0.352614921552 -0.950904646849 -0.435955352873 -2.00062293441 0.577073930545 0.696276277643 0.729712889139
15.1158805624 0.165615232042 0.995708343554 5.8147678224 0.352760629153 -0.950387459029 -0.438073059055 -1.99983739519 0.576260866503 0.696250266082 0.72883057662
15.1600617975 0.165663841188 0.991259374407 5.81649262621 0.352906313924 -0.949872973723 -0.440191020293 -1.99904905849 0.575447999282 0.696226114958 0.727949775632
15.2042404279 0.165712171787 0.986810667161 5.81821877723 0.353051975971 -0.949361197153 -0.442309229666 -1.99825792744 0.574635325812 0.696203824535 0.727070483612
15.2484171074 0.165760547771 0.982362156898 5.81994583995 0.353197218804 -0.948851092194 -0.444427791504 -1.99746464447 0.573822178925 0.696183546552 0.726192601399
15.2925905519 0.165808321178 0.977913971827 5.82167467143 0.353342833568 -0.948344748109 -0.446546471662 -1.99666793304 0.573009881473 0.696164979724 0.725316317753
15.3367613985 0.165855815135 0.973466048735 5.82340483817 0.353488425928 -0.947841129417 -0.448665372387 -1.99586843495 0.572197762692 0.696148277381 0.724441529867
15.3809296471 0.165903029899 0.969018387147 5.82513633612 0.353633995867 -0.947340241834 -0.450784486451 -1.99506615295 0.571385819237 0.696133439862 0.723568235129
15.4250959415 0.165950290698 0.964570922336 5.82686873333 0.35377914992 -0.946841046054 -0.452903931532 -1.99426173173 0.570573390627 0.696120615501 0.722696342598
15.4692590142 0.165996946613 0.960123781946 5.82860287884 0.353924672345 -0.946345633304 -0.455023445839 -1.99345388941 0.569761784676 0.696109510403 0.721826024208
15.5134194923 0.166043322499 0.955676903055 5.83033834375 0.354070172997 -0.945852967974 -0.457143144778 -1.99264326871 0.568950339306 0.696100273597 0.720957185827
15.5575773758 0.166089418254 0.951230285078 5.83207512314 0.354215650981 -0.945363053867 -0.45926302088 -1.99182987281 0.568139049585 0.696092906095 0.72008982449
15.6017333117 0.16613556038 0.946783863517 5.83381278856 0.354360715826 -0.944874849508 -0.461383205591 -1.99101434926 0.567327261896 0.696087552945 0.719223857845
15.6458860326 0.166181095661 0.942337765506 5.83555218263 0.354506146605 -0.944390450934 -0.463503408374 -1.9901954077 0.566516271525 0.696083926163 0.718359440978
15.6900361656 0.166226349892 0.937891928282 5.83729287917 0.354651555327 -0.943908818792 -0.465623758419 -1.98937369461 0.565705421755 0.696082172158 0.717496487948
15.734183714 0.166271322993 0.933446351234 5.83903487331 0.354796941218 -0.943429956747 -0.467744247891 -1.98854921241 0.564894707821 0.696082291846 0.716634995875
15.7783293148 0.166316342546 0.929000970096 5.84077773968 0.354941916316 -0.942952820353 -0.469865022527 -1.98772261266 0.564083482372 0.696084427455 0.715774891194
15.822471714 0.166360753287 0.924555911451 5.84252231503 0.355087255154 -0.942479511384 -0.471985761916 -1.98689259449 0.563273028794 0.696088296276 0.714916311626
15.8666115352 0.166404881611 0.920111112664 5.84426817512 0.355232571019 -0.942008985194 -0.474106609636 -1.98605980972 0.562462694454 0.696094042863 0.714059179469
15.9107487785 0.166448727753 0.915666573159 5.84601531585 0.355377864035 -0.941541246709 -0.47622755734 -1.9852242591 0.561652476114 0.696101667448 0.713203492256
15.9548840842 0.166492620368 0.911222228953 5.8477633149 0.35552274875 -0.941075248622 -0.478348765574 -1.98438659874 0.560841732957 0.696111309518 0.712349185637
15.9990162016 0.166535901703 0.906778205871 5.84951300214 0.355667993992 -0.940613095984 -0.480469883075 -1.98354551731 0.560031733911 0.696122692425 0.711496378669
16.0431457478 0.166578899272 0.902334441572 5.8512639565 0.355813215701 -0.94015374147 -0.482591068146 -1.98270167094 0.559221833092 0.696135957882 0.710645002881
16.0872727294 0.166621613358 0.897890935455 5.85301617403 0.355958414214 -0.939697189982 -0.484712311975 -1.98185505947 0.558412027594 0.696151105983 0.709795055947
16.1313977766 0.166664374022 0.893447623948 5.85476923624 0.356103207464 -0.939242393125 -0.486833790334 -1.9810063432 0.557601684976 0.696168272853 0.708946483543
16.1755196557 0.166706520334 0.889004631846 5.85652396452 0.35624835679 -0.938791455476 -0.48895512019 -1.98015420092 0.556792055988 0.696187189218 0.708099384476
16.2196389768 0.166748381564 0.884561897299 5.85827994251 0.356393482467 -0.938343330315 -0.491076474835 -1.97929929181 0.555982504737 0.696207992704 0.707253700634
16.2637557466 0.166789957713 0.880119419603 5.8600371656 0.356538584182 -0.937898020878 -0.493197845096 -1.9784416157 0.555173027155 0.69623068395 0.706409429502
16.3078705922 0.166831580306 0.875677135669 5.86179521926 0.356683283392 -0.937454478122 -0.495319422544 -1.97758183763 0.554362999744 0.696255395663 0.70556652731
16.3519822829 0.166872585451 0.871235169186 5.86355491702 0.356828334571 -0.937014806795 -0.497440790969 -1.97671862424 0.553553655517 0.696281865411 0.704725071969
16.3960914323 0.166913303924 0.866793458796 5.86531584656 0.356973361654 -0.936577959727 -0.49956213933 -1.97585263922 0.552744367724 0.696310227306 0.703885015917
16.4401980471 0.166953735546 0.862352003713 5.8670780029 0.357118363964 -0.936143938956 -0.501683458022 -1.97498388198 0.551935131637 0.69634048233 0.703046356588
16.4843027476 0.166994213211 0.85791074137 5.8688409752 0.357262966204 -0.935711694519 -0.50380495511 -1.97411302337 0.551125332594 0.696372760014 0.702209061165
16.5284043166 0.167034070169 0.853469794238 5.87060556946 0.357407916336 -0.935283331376 -0.505926179703 -1.97323871581 0.550316185763 0.696406804492 0.701373185841
16.5725033611 0.167073638551 0.849029101478 5.87237137706 0.357552841542 -0.934857801364 -0.508047337141 -1.97236162866 0.549507073181 0.696442746714 0.700538693945
16.6165998876 0.167112918111 0.844588662244 5.8741383929 0.357697741076 -0.934435105826 -0.510168417292 -1.97148176056 0.548697989988 0.696480587794 0.699705583
16.6606945098 0.16715224312 0.840148414561 5.87590620978 0.357842242879 -0.934014194138 -0.512289645436 -1.97059978896 0.547888330746 0.696520454105 0.698873831679
16.7056722686 0.16719094392 0.835708479523 5.87767562624 0.357987088382 -0.933597170728 -0.514410534409 -1.96971435023 0.54707929196 0.696562096399 0.698043473438
16.7510972218 0.167229353932 0.831268796862 5.87944623709 0.358131907797 -0.933182986287 -0.516531306692 -1.9688261205 0.54627026447 0.69660564265 0.697214482943
16.7969738284 0.167267472934 0.826829365687 5.88121803739 0.358276700567 -0.93277164191 -0.518651951515 -1.96793509721 0.545461243753 0.696651093922 0.696386857936
16.843307214 0.167305636576 0.822390124691 5.88299062353 0.35842109782 -0.932362086535 -0.520772712174 -1.96704196533 0.544651633951 0.696698573458 0.695560589132
16.8901006671 0.167343172156 0.817951193396 5.88476478638 0.35856583424 -0.931956422812 -0.522893063537 -1.96614534352 0.543842611664 0.696747838887 0.694735686102
16.9373593936 0.167380414556 0.813512512217 5.8865401246 0.358710543469 -0.931553601377 -0.525013245904 -1.96524591499 0.543033577678 0.696799014886 0.693912135569
16.985088029 0.167417363427 0.80907408018 5.88831663299 0.358855224757 -0.931153622274 -0.527133247906 -1.96434367638 0.542224527145 0.696852102791 0.693089935378
17.0332919027 0.167454355861 0.804635836739 5.89009391162 0.358999512504 -0.930755434554 -0.529253331703 -1.96343932104 0.54141487443 0.696907222621 0.692269088932
17.0819744531 0.167490716236 0.8001978997 5.89187274424 0.359144135161 -0.930361139125 -0.531372932133 -1.9625314471 0.540605776188 0.696964138609 0.691449580976
17.1311410861 0.167526780585 0.795760210161 5.89365273248 0.359288728919 -0.929969685216 -0.533492308398 -1.96162074686 0.53979664208 0.697022972809 0.690631410568
17.1807966274 0.16756254864 0.791322767111 5.89543387145 0.35943329338 -0.92958107283 -0.535611448324 -1.96070721541 0.538987467919 0.697083726419 0.6898145759
17.2309466132 0.167598359092 0.786885510898 5.89721576511 0.359577466563 -0.92919425225 -0.537730633801 -1.95979155507 0.538177679427 0.697146515903 0.688999093831
17.2815946452 0.167633532789 0.782448557254 5.89899918894 0.359721969285 -0.928811318774 -0.539849257878 -1.95887234277 0.537368409824 0.697211113414 0.688184922587
17.3327463363 0.167668407487 0.778011848195 5.90078374878 0.359866441694 -0.928431223429 -0.54196759923 -1.95795027921 0.536559080658 0.697277637204 0.687372074718
17.3844067087 0.167702982802 0.77357538262 5.90256943958 0.360010883263 -0.92805396515 -0.544085644931 -1.9570253584 0.535749687568 0.69734608875 0.686560548625
17.4365815155 0.167737598909 0.769139101835 5.90435586883 0.360154935203 -0.927678495142 -0.546203697772 -1.95609829329 0.534939667477 0.697416581213 0.685750375164
17.4892745219 0.167771573396 0.764703119352 5.90614380465 0.360299311669 -0.927306903705 -0.548321106401 -1.9551676358 0.534130130753 0.697488894156 0.684941485142
17.5424915672 0.167805245551 0.760267378153 5.90793285654 0.360443656173 -0.926938143011 -0.550438170158 -1.95423409688 0.533320510363 0.697563142428 0.684133905067
17.5962378709 0.167838614871 0.755831877037 5.90972301931 0.360587968052 -0.926572210826 -0.552554875288 -1.95329766933 0.532510801785 0.697639327816 0.683327633598
17.6505194059 0.167872023183 0.751396558425 5.91151390417 0.360731892026 -0.926208060517 -0.554671546559 -1.95235907758 0.531700454349 0.697717559811 0.682522716436
17.7058883384 0.16790478444 0.746961533261 5.91330627142 0.360876134911 -0.925847774524 -0.556787485818 -1.95141684649 0.530890553142 0.697797626274 0.68171905542
17.7623671563 0.16793723965 0.742526745656 5.91509973448 0.361020343946 -0.925490307493 -0.558903014095 -1.950471698 0.530080543831 0.697879638242 0.680916691863
17.8199781339 0.167969388101 0.738092194271 5.91689428782 0.361164518104 -0.925135655463 -0.561018116799 -1.94952362386 0.529270421362 0.697963598039 0.680115624676
17.8787447028 0.168001573427 0.733657822809 5.91868954659 0.361308305887 -0.924782775225 -0.563133141877 -1.94857336103 0.528459648668 0.698049611102 0.679315915273
17.9386885904 0.168033105939 0.729223739373 5.92048626365 0.361452407099 -0.924433740273 -0.56524734138 -1.94761940371 0.527649284777 0.698137473767 0.678517435262
17.999834132 0.168064328173 0.724789889266 5.92228405572 0.361596472056 -0.924087507104 -0.567361059503 -1.94666248695 0.526838787609 0.698227293635 0.677720241309
18.0622054329 0.168095239442 0.72035627107 5.9240829175 0.361740500007 -0.923744071221 -0.56947428051 -1.94570260054 0.526028152746 0.698319073086 0.676924332868
18.1258278591 0.168126185128 0.71592282989 5.92588246772 0.361884142893 -0.923402392964 -0.571587377069 -1.94474049588 0.525216856892 0.698412913589 0.676129787778
18.1913739428 0.168156471481 0.711489670567 5.92768345131 0.362028092826 -0.923064533482 -0.57369954845 -1.94377463374 0.524405930347 0.698508621041 0.675336445754
18.2589026534 0.168186443073 0.707056739869 5.9294854893 0.362172004351 -0.922729454285 -0.575811163027 -1.94280576242 0.523594846097 0.698606298476 0.674544380018
18.3284739871 0.168216098932 0.702624036206 5.9312885759 0.362315876205 -0.922397148595 -0.577922204071 -1.94183387049 0.522783598996 0.698705949025 0.673753590389
18.4015912939 0.168245786462 0.69819150631 5.93309233383 0.362459364282 -0.922066582319 -0.580033070389 -1.94085972489 0.521971681296 0.698807669518 0.672964172185
18.4776727393 0.168274807478 0.693759251313 5.93489749976 0.362603152491 -0.921739800854 -0.582142905081 -1.93988174957 0.521160092048 0.69891127649 0.67217593157
18.5576310714 0.168303508701 0.689327219635 5.93670369905 0.362746899709 -0.921415771896 -0.584252102196 -1.93890070761 0.520348320336 0.699016868081 0.671388959214
18.641663881 0.168331888975 0.684895409524 5.9385109257 0.362890604442 -0.92109448681 -0.586360643798 -1.9379165858 0.519536360836 0.699124448 0.670603255502
18.7308629781 0.16836029756 0.680463769467 5.94031880571 0.36303392586 -0.920774916775 -0.588468956858 -1.93693016934 0.518723721092 0.699234108687 0.669818933959
18.8264907199 0.168388032196 0.676032396605 5.94212806907 0.363177541176 -0.920459091868 -0.590576123739 -1.93593983907 0.517911369822 0.699345676872 0.669035766109
18.9300367829 0.168415441257 0.671601241035 5.94393834397 0.363321112058 -0.920145983849 -0.592682566476 -1.93494637654 0.517098810402 0.699459246772 0.668253860514
19.0444104921 0.16844252359 0.667170300884 5.94574962467 0.36346463729 -0.919835583129 -0.594788265585 -1.93394976592 0.516286038298 0.699574822315 0.667473218411
19.1745735736 0.168469630335 0.662739526591 5.94756154019 0.363607779103 -0.919526866961 -0.596893678301 -1.93295081306 0.515472576995 0.699692491374 0.666693972467
19.3327806859 0.1684960551 0.658309010863 5.94937481445 0.363751208516 -0.919221848081 -0.598997821511 -1.93194785002 0.514659363866 0.699812091385 0.665915858098
19.5562439219 0.168522147823 0.653878705632 5.95118907795 0.363894589464 -0.918919502425 -0.601101147425 -1.9309416795 0.513845916662 0.699933712738 0.665139002598
20.0 0.168547907373 0.649448608896 5.95300432528 0.364037921096 -0.91861981945 -0.603203634796 -1.9299322827 0.513032231869 0.700057359575 0.664363408227
