liuchen18/hilsys_new/sim_sys/data/fwx_planned_trajectory_zheng.txt
this is the FWX joint values,the following info is time,x,y,theta,joint1,joint2,joint3,joint4,joint5,joint6,joint7
0.0 1.71788177761 -0.129233663325 -0.425543595816 -0.425824875676 -0.210472865871 0.224568704226 0.754600957092 0.884356713787 -0.870764384362 0.847355431369
0.0943797711811 1.71802146298 -0.124415148171 -0.425489311275 -0.425770591136 -0.211710453916 0.225563804728 0.753146862739 0.885996836677 -0.872556187164 0.84675284951
0.162055440701 1.71816562609 -0.119603605175 -0.42543903185 -0.42572031171 -0.212969490916 0.226565025681 0.751708664219 0.887657977389 -0.874330096407 0.846160096301
0.218118247423 1.71831505178 -0.114799494758 -0.425392342511 -0.425673622371 -0.214252420694 0.22757302382 0.750287439394 0.889340868247 -0.87608323288 0.845574160686
0.267165940189 1.71847055652 -0.110003281407 -0.425348785791 -0.425630065651 -0.215561770769 0.228588485258 0.748884265246 0.891046159779 -0.877812645949 0.844991647336
0.31149095915 1.7186329493 -0.105215408832 -0.425307878883 -0.425589158744 -0.216900034371 0.229612098838 0.747500150251 0.892774369557 -0.879515446603 0.844408867238
0.354863142329 1.71880301865 -0.10043629163 -0.425269119035 -0.425550398895 -0.218269630636 0.230644546385 0.74613601268 0.894525863723 -0.881188857044 0.843821869522
0.402208014888 1.71898151944 -0.0956663070665 -0.425231989817 -0.425513269677 -0.219672863993 0.231686492505 0.74479265963 0.896300840967 -0.882830261123 0.843226481949
0.455451544774 1.71916915927 -0.090905787087 -0.425195968324 -0.425477248185 -0.221111883021 0.232738573977 0.743470767066 0.898099319333 -0.884437255095 0.842618360474
0.518507722104 1.71936658511 -0.0861550108465 -0.425160533124 -0.425441812985 -0.22258864018 0.23380138909 0.742170861691 0.899921126591 -0.886007696876 0.841993046937
0.601099386712 1.71943337054 -0.0814167139264 -0.42510523136 -0.42538651122 -0.224123680688 0.23486799223 0.740875075294 0.901734860416 -0.887519312958 0.841369803174
0.664018996708 1.71951112117 -0.0766886297674 -0.425049565497 -0.425330845358 -0.225699940925 0.235946449644 0.739602314049 0.903571755022 -0.888990500794 0.840721282386
0.716916521578 1.71960026405 -0.0719708606867 -0.424993050686 -0.425274330546 -0.227318673567 0.237037209973 0.738352618525 0.905431083112 -0.890420032336 0.840042964545
0.763640445053 1.71970112317 -0.0672634365322 -0.424935236778 -0.425216516638 -0.228980810463 0.238140647256 0.73712583794 0.907311928066 -0.891807090254 0.839330482503
0.806268499708 1.7198139141 -0.0625663137213 -0.424875715509 -0.425156995369 -0.230686948032 0.239257056422 0.735921629738 0.909213199773 -0.893151279773 0.83857968939
0.845549428521 1.71993874018 -0.057879376482 -0.424814128446 -0.425095408306 -0.232437337726 0.240386646899 0.734739467497 0.911133647234 -0.894452643498 0.837786728588
0.888418741578 1.72007559265 -0.0532024392752 -0.424750171677 -0.425031451537 -0.234231888009 0.241529542556 0.733578649397 0.913071883245 -0.895711650873 0.836948087887
0.935674421696 1.7202243527 -0.048535251234 -0.42468360032 -0.424964880181 -0.236070172474 0.242685781006 0.732438313476 0.915026406557 -0.896929186682 0.836060649545
0.988815615649 1.72038479633 -0.0438775019299 -0.424614231155 -0.424895511016 -0.237951446349 0.243855316036 0.731317454997 0.916995628701 -0.898106525311 0.835121727586
1.0517208421 1.72055660138 -0.0392288283883 -0.424541943773 -0.424823223633 -0.239874669059 0.245038020981 0.730214948007 0.918977899075 -0.899245301228 0.83412909471
1.13401857297 1.72059943817 -0.0345963662327 -0.424446504194 -0.424727784054 -0.241858343876 0.246225761003 0.729116457599 0.920946662688 -0.900321786187 0.833117008072
1.19641179481 1.72065316383 -0.0299723544872 -0.424347913618 -0.424629193478 -0.243882349762 0.247426510249 0.72803459394 0.92292601456 -0.901362197657 0.832047541886
1.24889185101 1.72071723191 -0.0253563192087 -0.424246214392 -0.424527494253 -0.245944975292 0.248639950947 0.726967991498 0.924914241726 -0.902368969701 0.830919731798
1.29555385635 1.72079103679 -0.0207477650899 -0.424141504114 -0.424422783974 -0.248044335403 0.249865710453 0.725915250997 0.926909662334 -0.903344734106 0.829733074934
1.33773244525 1.72087392599 -0.0161461841266 -0.424033930661 -0.424315210521 -0.25017840911 0.251103369916 0.724874962232 0.928910644826 -0.904292272056 0.828487504719
1.37662897867 1.72096521209 -0.0115510636192 -0.42392368703 -0.424204966891 -0.252345076198 0.252352473254 0.723845723766 0.930915625949 -0.905214464734 0.827183359513
1.41911445734 1.72106418445 -0.00696189339702 -0.423811005058 -0.424092284918 -0.254542152096 0.253612535524 0.722826162433 0.932923122318 -0.906114251933 0.825821345601
1.46598913312 1.72117011979 -0.0023781722764 -0.423696149598 -0.423977429459 -0.256767420196 0.254883051261 0.72181494846 0.934931741822 -0.90699458957 0.824402497246
1.51875150846 1.72128229194 0.00220058641585 -0.423579412474 -0.423860692334 -0.25901866104 0.256163502096 0.720810808628 0.936940190895 -0.907858413337 0.82292813472
1.58149293215 1.72139608938 0.0067766269262 -0.423464572145 -0.423745852005 -0.261281393709 0.257450985983 0.719807767506 0.938948758689 -0.908719360252 0.821424086017
1.66358421091 1.72137913883 0.0113347529411 -0.423325257886 -0.423606537747 -0.263595950995 0.258741008484 0.718804484131 0.940935640998 -0.909528027465 0.819896171992
1.72747324401 1.72137079213 0.01588730438 -0.423181129413 -0.423462409274 -0.265943968675 0.260042223101 0.717810238739 0.94291819127 -0.910315652505 0.81829102763
1.78086309922 1.72136624644 0.0204365335972 -0.423036209096 -0.423317488956 -0.268310441358 0.261351577109 0.716819130119 0.944896892252 -0.911096524199 0.816636376878
1.82781956876 1.72136489793 0.0249827905929 -0.422890810111 -0.423172089971 -0.270693548609 0.262668598882 0.715830270448 0.946870936831 -0.911872978011 0.814934049878
1.87030411565 1.72136612678 0.0295264237677 -0.422745279709 -0.42302655957 -0.273091418582 0.263992800302 0.714842824621 0.948839602581 -0.912647403759 0.813186249369
1.90951797447 1.72136934708 0.0340677514128 -0.422599960037 -0.422881239897 -0.275502284962 0.265323712163 0.713856043354 0.950802258697 -0.913422043483 0.811395211272
1.95196210773 1.72137400755 0.0386070624531 -0.422455185919 -0.422736465779 -0.277924488627 0.266660885495 0.712869260239 0.95275836009 -0.914198990849 0.809563184255
1.99882869606 1.72137959229 0.0431446171779 -0.422311282591 -0.422592562451 -0.280356479455 0.268003892802 0.711881888433 0.954707441189 -0.914980190392 0.807692408047
2.05162140766 1.72138562087 0.0476806482824 -0.422168563891 -0.422449843751 -0.282796816326 0.269352328801 0.710893416676 0.956649109549 -0.915767438958 0.805785095127
2.11438758388 1.72139164798 0.0522153621393 -0.422027330856 -0.422308610717 -0.285244165669 0.27070581075 0.709903404838 0.958583039453 -0.916562388918 0.803843415494
2.19636130582 1.72126207623 0.0567311600243 -0.421864701775 -0.422145981636 -0.28772436042 0.272056940751 0.708907676583 0.960495464771 -0.91732037649 0.801910307498
2.26079806494 1.72113415255 0.0612452903631 -0.421701405851 -0.421982685711 -0.290216853513 0.273413629573 0.707912594564 0.962396868044 -0.918084072265 0.799928935069
2.31462465066 1.72100537185 0.0657585709926 -0.421540176207 -0.421821456067 -0.292713700771 0.274774585408 0.706915225632 0.964290142666 -0.91885865917 0.797917851959
2.3619226288 1.72087542741 0.0702711172993 -0.421381237255 -0.421662517116 -0.295213992584 0.276139520217 0.705915340529 0.966175131552 -0.919645236359 0.795878776961
2.40453253668 1.72074401575 0.0747830384356 -0.421224824982 -0.421506104842 -0.297716827836 0.277508147434 0.704912752884 0.968051727967 -0.92044488859 0.793813570231
2.4438774166 1.72061086145 0.0792944257724 -0.421071160059 -0.421352439919 -0.300221390308 0.278880200066 0.70390732087 0.969919859935 -0.921258590471 0.791724006707
2.48057136747 1.72047571502 0.0838053546236 -0.42092044848 -0.421201728341 -0.302726942207 0.280255429467 0.702898942741 0.971779486038 -0.922087215261 0.78961177817
2.51513567973 1.72033835131 0.0883158857081 -0.420772881888 -0.421054161749 -0.305232819036 0.281633604351 0.701887552723 0.973630591356 -0.922931541988 0.787478492733
2.54801988441 1.72019856778 0.0928260665418 -0.420628637994 -0.420909917854 -0.30773842451 0.28301450976 0.700873117175 0.975473183765 -0.923792262425 0.785325675301
2.57961875421 1.72005618294 0.0973359327503 -0.420487881064 -0.420769160924 -0.310243225594 0.284397946049 0.699855631012 0.977307290603 -0.924669987835 0.783154768755
2.60983176955 1.71977934317 0.101823094114 -0.420324027432 -0.420605307292 -0.312779911582 0.285777584984 0.698834686673 0.979120609916 -0.925507905519 0.780994266626
2.63886321209 1.7195008693 0.106309842488 -0.420162154703 -0.420443434564 -0.315319043273 0.287159625531 0.697812744342 0.980922327277 -0.926363285786 0.778807322546
2.66703955976 1.71921954676 0.110796386483 -0.420003990295 -0.420285270156 -0.317856546204 0.288543847625 0.696787880998 0.982715823373 -0.92723649881 0.776604813037
2.69438601503 1.7189352609 0.115282728406 -0.419849644 -0.420130923861 -0.320392087664 0.289930102745 0.69576015338 0.984501151554 -0.928127905298 0.774387805662
2.72092701381 1.71864790082 0.119768867596 -0.419699229975 -0.419980509836 -0.322925346338 0.291318244386 0.694729639208 0.986278385076 -0.929037852365 0.772157415086
2.74694383515 1.71835736907 0.124254797049 -0.419552852032 -0.419834131893 -0.325456040996 0.292708136171 0.693696430082 0.988047603787 -0.929966637259 0.76991468728
2.77244675777 1.71806358035 0.128740504254 -0.419410604415 -0.419691884275 -0.327983926555 0.294099650963 0.692660629585 0.989808892839 -0.930914512421 0.767660604414
2.79744583684 1.71776646049 0.133225971887 -0.419272572343 -0.419553852204 -0.33050879092 0.295492670135 0.691622351538 0.991562341346 -0.931881689606 0.765396087905
2.82195090949 1.71746594545 0.137711178457 -0.419138832554 -0.419420112414 -0.333030452031 0.296887082869 0.690581718428 0.993308041218 -0.932868343697 0.763122001499
2.84597160316 1.71716198041 0.142196098874 -0.419009453813 -0.419290733674 -0.33554875514 0.298282785513 0.689538860008 0.99504608615 -0.933874616222 0.760839154312
2.86961384899 1.71672528488 0.14665450173 -0.418854823469 -0.419136103329 -0.33809909186 0.299673513109 0.688495048209 0.996764078122 -0.934836635182 0.758565961723
2.89278867115 1.71628577953 0.15111260107 -0.418703396941 -0.418984676802 -0.340648376011 0.301065045147 0.687451129868 0.998471432977 -0.935819858186 0.756278659284
2.9155054777 1.71584282424 0.155570429446 -0.418556342567 -0.418837622428 -0.343194205252 0.302457708818 0.686405302951 1.00017144008 -0.936822627571 0.753983627008
2.93799583432 1.71539638867 0.160027954523 -0.418413700751 -0.418694980612 -0.34573649528 0.303851421966 0.685357700862 1.00186418023 -0.937844999613 0.751681469127
2.96048449402 1.71494644452 0.1644851432 -0.4182755144 -0.418556794261 -0.348275168934 0.305246102471 0.684308466229 1.00354973996 -0.938887023654 0.749372804771
2.98319614872 1.71449296908 0.168941960899 -0.418141820788 -0.418423100649 -0.350810165338 0.306641672626 0.683257743971 1.00522820439 -0.939948729511 0.747058213056
3.00636219467 1.71403594465 0.173398371871 -0.418012652007 -0.418293931867 -0.353341438162 0.308038058726 0.682205680709 1.00689965694 -0.941030129636 0.744738236236
3.02999152751 1.71357535807 0.177854339449 -0.417888035305 -0.418169315166 -0.355868954188 0.309435190703 0.681152424189 1.00856417906 -0.942131220904 0.742413381936
3.05409320815 1.7131112003 0.182309826288 -0.417767993409 -0.418049273269 -0.35839269201 0.310833001799 0.68009812278 1.01022184997 -0.943251986236 0.740084125271
3.07867647103 1.71264346598 0.186764794564 -0.417652544822 -0.417933824682 -0.360912640829 0.31223142826 0.67904292503 1.01187274645 -0.944392396082 0.737750910871
3.10358429274 1.7120448592 0.191189639697 -0.417509562226 -0.417790842086 -0.363464578552 0.313623707556 0.677988865469 1.01350391731 -0.945484194229 0.735425595719
3.12898985633 1.71144314791 0.195613978979 -0.417370203506 -0.417651483367 -0.366014562891 0.315015883918 0.676936119867 1.01512538612 -0.946597782086 0.733092636902
3.15490313917 1.71083793297 0.200037817623 -0.417235356855 -0.417516636716 -0.368560860146 0.316408580695 0.675882756977 1.01674029592 -0.94773070163 0.730756012035
3.18133406729 1.7102292162 0.204461118763 -0.417105026863 -0.417386306723 -0.371103477276 0.317801742895 0.674828914526 1.01834870769 -0.948882901973 0.728416066913
3.20856234361 1.70961700031 0.208883845748 -0.416979220252 -0.417260500112 -0.373642425451 0.319195314076 0.673774734356 1.01995068252 -0.950054328956 0.726073151513
3.23661179167 1.70900129026 0.213305962105 -0.416857940754 -0.417139220615 -0.376177722026 0.320589239621 0.672720357203 1.02154627875 -0.951244921202 0.72372759394
3.26550693905 1.70838209298 0.217727431643 -0.416741189342 -0.417022469203 -0.378709389818 0.321983466556 0.671665922553 1.02313555199 -0.952454610979 0.721379702121
3.29527304097 1.70775941719 0.222148218533 -0.416628964407 -0.416910244267 -0.381237456499 0.323377943388 0.67061156848 1.02471855515 -0.953683324926 0.719029765069
3.32624273537 1.7071332732 0.22656828739 -0.416521261929 -0.416802541789 -0.38376195404 0.324772619958 0.669557431514 1.02629533839 -0.954930984716 0.716678054084
3.35846443448 1.70650367276 0.230987603336 -0.416418075635 -0.416699355495 -0.386282918207 0.326167447313 0.668503646524 1.02786594915 -0.956197507653 0.71432482387
3.39198883481 1.70574506265 0.235373424065 -0.416285101562 -0.416566381423 -0.388835274295 0.327554887624 0.667452611601 1.02941682935 -0.957411572847 0.711977683458
3.42396106309 1.70498337548 0.239758524328 -0.416155777201 -0.416437057061 -0.391385680913 0.328941586046 0.666404216991 1.03095861448 -0.958646941683 0.709626307576
3.45468078954 1.70421831348 0.244142917183 -0.416030855095 -0.416312134955 -0.393932663319 0.330328354826 0.665356370795 1.03249435693 -0.959900844179 0.707273390258
3.48419686378 1.70344988947 0.248526570501 -0.415910321823 -0.416191601684 -0.396476256447 0.331715149182 0.664309195975 1.03402409299 -0.961173197542 0.704919140796
3.51283983526 1.70267811653 0.252909452756 -0.415794166126 -0.416075445986 -0.399016497901 0.333101922025 0.663262817458 1.03554785691 -0.962463917219 0.702563769152
3.54063533551 1.70190300859 0.257291533084 -0.41568237509 -0.41596365495 -0.401553427403 0.334488626994 0.662217358333 1.03706568059 -0.963772916119 0.7002074732
3.56760825039 1.70112458035 0.261672781308 -0.415574934271 -0.415856214132 -0.404087086482 0.335875218375 0.661172939846 1.0385775936 -0.965100104967 0.697850439608
3.5937827478 1.7003428472 0.266053167966 -0.415471827789 -0.41575310765 -0.406617518217 0.337261651036 0.660129681363 1.04008362325 -0.966445392604 0.695492844524
3.61943628943 1.69955782508 0.270432664332 -0.415373038414 -0.415654318274 -0.409144766996 0.338647880357 0.65908770035 1.04158379464 -0.967808686254 0.693134854238
3.64457908178 1.69876953047 0.274811242436 -0.415278547652 -0.415559827512 -0.411668878292 0.340033862173 0.658047112359 1.04307813069 -0.969189891771 0.690776625783
3.66976066444 1.69785408803 0.279153156597 -0.415152100415 -0.415433380276 -0.414223237515 0.341411161256 0.657010485712 1.04455254908 -0.970515276287 0.688423000597
3.69544329255 1.69693569765 0.28349420797 -0.41502914378 -0.41531042364 -0.416775897112 0.342787177829 0.655977596186 1.04601819151 -0.971861174248 0.686067021645
3.72163704764 1.69601410548 0.287834415541 -0.414910366072 -0.415191645933 -0.419325479192 0.344162866748 0.654946217569 1.04747807331 -0.973224696927 0.68371067069
3.748619097 1.69508932722 0.29217375397 -0.414795744681 -0.415077024541 -0.421872022716 0.345538186691 0.653916455391 1.04893221087 -0.974605755986 0.681354084688
3.77641300309 1.69416137845 0.296512198656 -0.414685259279 -0.414966539139 -0.424415568537 0.346913093559 0.652888416186 1.05038061789 -0.976004261782 0.678997400222
3.8050430366 1.69323027507 0.300849725751 -0.414578888574 -0.414860168434 -0.426956157989 0.348287543532 0.651862204672 1.05182330627 -0.977420123868 0.676640746932
3.83482910162 1.69229603324 0.305186312159 -0.414476610372 -0.414757890232 -0.42949383275 0.349661493031 0.650837923773 1.05326028622 -0.978853251146 0.674284247995
3.86581771766 1.69135866932 0.309521935546 -0.414378401627 -0.414659681488 -0.432028634726 0.351034898689 0.649815674621 1.05469156627 -0.98030355199 0.671928020504
3.89837966864 1.69041819989 0.31385657434 -0.414284238498 -0.414565518358 -0.434560605942 0.352407717323 0.648795556565 1.05611715333 -0.981770934361 0.669572175834
3.93259466815 1.68947464163 0.31819020773 -0.414194096386 -0.414475376246 -0.437089788441 0.353779905908 0.647777667179 1.05753705274 -0.983255305908 0.66721681998
3.96836287146 1.68840582207 0.32248417644 -0.414069930672 -0.414351210532 -0.439647626674 0.355142097158 0.646764632179 1.05893678567 -0.984680847578 0.664865000984
4.00225744889 1.68733420296 0.326777225625 -0.413949013628 -0.414230293489 -0.442204021303 0.35650250209 0.645756201636 1.06032786586 -0.986126066057 0.662511950697
4.03450016647 1.68625955073 0.331069368141 -0.413832004128 -0.414113283989 -0.444757629069 0.357862195976 0.644750051494 1.06171330466 -0.987588034218 0.660159233009
4.06547810385 1.68518188096 0.335360585229 -0.413718874813 -0.414000154674 -0.447308484399 0.359221138511 0.643746271327 1.06309310424 -0.989066666392 0.657806945631
4.09524074805 1.6841012089 0.339650858911 -0.413609600751 -0.413890880611 -0.449856623204 0.36057928637 0.642744951229 1.06446726394 -0.99056187561 0.655455185687
4.12383566004 1.68301754986 0.343940171927 -0.41350415641 -0.41378543627 -0.45240208122 0.361936596329 0.641746179658 1.06583578183 -0.992073574709 0.653104046125
4.15158327577 1.68193091919 0.34822850773 -0.4134025157 -0.413683795561 -0.454944893939 0.363293025253 0.640750043452 1.06719865475 -0.993601676405 0.650753615995
4.1785086019 1.6808413323 0.352515850487 -0.413304652002 -0.413585931862 -0.457485096554 0.364648530084 0.63975662785 1.0685558784 -0.995146093343 0.648403980656
4.20463591328 1.6797488046 0.356802185071 -0.413210538195 -0.413491818056 -0.460022723912 0.366003067826 0.638766016498 1.06990744733 -0.996706738149 0.646055221999
4.23024230358 1.67865335149 0.361087497062 -0.413120146691 -0.413401426552 -0.462557810458 0.367356595538 0.637778291466 1.07125335499 -0.998283523476 0.643707418634
4.25509503928 1.67743457499 0.365330282291 -0.412993769661 -0.413275049521 -0.465119616719 0.368698832046 0.636796054551 1.07257886744 -0.999798705315 0.641362490638
4.27994251342 1.67621313714 0.369572169076 -0.412870367529 -0.41315164739 -0.467680162003 0.370038797588 0.635819087333 1.07389573251 -1.00133275496 0.63901707331
4.30528401203 1.67498881535 0.373813150664 -0.412750585995 -0.413031865856 -0.470238116314 0.371377674665 0.634845002848 1.07520697319 -1.00288274439 0.636672469084
4.33112927783 1.67376162407 0.378053214057 -0.412634395335 -0.412915675195 -0.472793506902 0.372715423349 0.633873876766 1.07651258203 -1.00444859243 0.634328753702
4.35775183707 1.6725315772 0.382292347036 -0.412521768376 -0.412803048236 -0.475346362278 0.374052000572 0.632905784983 1.07781254879 -1.00603021637 0.63198600235
4.38517499256 1.67129868865 0.386530538034 -0.412412677565 -0.412693957425 -0.477896710513 0.375387363322 0.631940801931 1.07910686239 -1.00762753355 0.629644287589
4.41342274418 1.67006297228 0.390767776127 -0.412307094986 -0.412588374847 -0.480444579213 0.376721468628 0.630979000597 1.08039551091 -1.0092404613 0.62730367951
4.4425198153 1.66882444191 0.39500405103 -0.412204992385 -0.412486272245 -0.482989995482 0.378054273566 0.630020452536 1.08167848161 -1.01086891703 0.624964245863
4.47279139104 1.66758311129 0.399239353097 -0.412106341186 -0.412387621046 -0.485532985904 0.379385735246 0.629065227879 1.08295576101 -1.01251281822 0.622626052187
4.50428481019 1.66633899414 0.403473673305 -0.412011112511 -0.412292392372 -0.488073576516 0.380715810818 0.62811339535 1.08422733487 -1.01417208245 0.620289161929
4.53711570353 1.66497356327 0.40766272019 -0.411878042482 -0.412159322342 -0.490638695427 0.382033357793 0.627167464018 1.08547835791 -1.01576711785 0.617954837354
4.5682663532 1.66360558946 0.411850954587 -0.411747668732 -0.412028948592 -0.493202643105 0.383348168003 0.626227292288 1.0867206774 -1.01738025167 0.615620572788
4.59819543302 1.66223485819 0.416038337915 -0.411620630432 -0.411901910293 -0.495764098611 0.384661520876 0.625290461869 1.08795733175 -1.0190085763 0.613287495834
4.62695078725 1.66086138245 0.420224862007 -0.411496896885 -0.411778176745 -0.498323081633 0.38597337697 0.624357036303 1.0891883073 -1.02065201473 0.610955669464
4.65485467514 1.65948517461 0.42441051945 -0.411376440047 -0.411657719908 -0.500879612985 0.387283693668 0.623427079134 1.09041358775 -1.02231048824 0.608625156185
4.68193226025 1.65810624696 0.428595303408 -0.411259231632 -0.411540511492 -0.503433712953 0.388592428411 0.622500652586 1.09163315624 -1.02398391814 0.606296016774
4.70820797296 1.65672461171 0.432779207616 -0.411145243116 -0.411426522977 -0.505985401276 0.389899538693 0.621577817573 1.09284699537 -1.02567222576 0.603968310367
4.73370552433 1.655340281 0.436962226371 -0.411034445762 -0.411315725623 -0.508534697139 0.391204982064 0.62065863371 1.09405508723 -1.02737533253 0.601642094548
4.75869535088 1.65395326691 0.441144354533 -0.410926810626 -0.411208090486 -0.511081619152 0.39250871613 0.619743159325 1.09525741338 -1.02909315995 0.599317425425
4.78318753554 1.65256358139 0.445325587509 -0.410822308572 -0.411103588433 -0.513626185341 0.393810698551 0.618831451466 1.09645395494 -1.03082562958 0.596994357705
4.80739900356 1.65105467722 0.449458897361 -0.410678216671 -0.410959496532 -0.516192904128 0.395099001801 0.61792586318 1.09762989666 -1.03249133682 0.594673836696
4.83234002769 1.64954332637 0.453591532062 -0.410536553028 -0.410817832888 -0.518758451157 0.396384127515 0.617026370546 1.09879705627 -1.03417440655 0.59235382609
4.85803209162 1.64802932253 0.457723411008 -0.410397951714 -0.410679231574 -0.521321517679 0.397667442178 0.61613055248 1.0999584837 -1.03587196673 0.590035329076
4.88449778159 1.64651267727 0.461854529954 -0.410262381948 -0.410543661808 -0.523882116279 0.39894890724 0.615238461812 1.10111416156 -1.03758394375 0.587718400853
4.91176036986 1.64499340138 0.465984885378 -0.410129815686 -0.410411095546 -0.526440260579 0.400228480995 0.614350151184 1.10226407003 -1.03931026208 0.58540309623
4.93984382714 1.64347150559 0.470114474259 -0.41000022473 -0.410281504591 -0.528995963654 0.401506121824 0.613465672025 1.10340818893 -1.04105084616 0.583089468819
4.96906214332 1.64194700053 0.474243294072 -0.409873580738 -0.410154860599 -0.531549238028 0.402781788194 0.612585074565 1.10454649777 -1.04280562048 0.580777571096
4.99946116302 1.64041989676 0.478371342788 -0.409749855236 -0.410031135096 -0.534100095666 0.404055438659 0.611708407843 1.10567897573 -1.04457450958 0.578467454457
5.0314048575 1.63889020471 0.482498618858 -0.409629019625 -0.409910299485 -0.536648547969 0.405327031865 0.610835719714 1.10680560171 -1.04635743801 0.576159169264
5.06497170721 1.63735793477 0.486625121214 -0.409511045196 -0.409792325056 -0.539194605762 0.406596526554 0.609967056857 1.10792635433 -1.04815433041 0.573852764901
5.10004670625 1.63570863476 0.490701131498 -0.409351841831 -0.409633121691 -0.5417603133 0.407851303165 0.609104556614 1.10902658528 -1.04988198574 0.571549120945
5.13319877015 1.63405696232 0.494776642476 -0.409194818814 -0.409476098675 -0.544324768599 0.40910249457 0.608248351476 1.11011795985 -1.05162629227 0.569246385117
5.16473694521 1.63240272113 0.498851523515 -0.409040603659 -0.40932188352 -0.54688668131 0.410351543937 0.607396043509 1.11120353094 -1.05338442616 0.566945467315
5.19503981676 1.63074592138 0.502925773448 -0.408889166121 -0.409170445982 -0.549446057668 0.411598414102 0.606547675984 1.11228327929 -1.05515631652 0.564646417703
5.22415576786 1.62908657244 0.506999391781 -0.408740478746 -0.409021758607 -0.552002904875 0.412843064805 0.605703291816 1.11335718335 -1.05694189023 0.562349286096
5.25213128465 1.62742468357 0.511072378456 -0.408594513995 -0.408875793855 -0.554557229607 0.414085455911 0.604862932799 1.11442522141 -1.0587410742 0.560054121445
5.27927983767 1.62576026393 0.515144733842 -0.408451244248 -0.408732524108 -0.557109038012 0.41532554741 0.604026639619 1.1154873716 -1.06055379531 0.557760971875
5.30562587674 1.62409332262 0.519216458728 -0.408310641818 -0.408591921678 -0.559658335707 0.41656329942 0.603194451857 1.11654361188 -1.06237998048 0.555469884728
5.33119312958 1.62242386862 0.523287554319 -0.408172678953 -0.408453958813 -0.562205127772 0.417798672197 0.602366407999 1.1175939201 -1.06421955662 0.553180906587
5.35600462818 1.62075191086 0.527358022228 -0.40803732785 -0.408318607711 -0.564749418749 0.419031626133 0.601542545442 1.11863827399 -1.06607245066 0.550894083318
5.380493101 1.61896520919 0.531375496008 -0.407859220631 -0.408140500492 -0.56731077619 0.420248954328 0.600724729981 1.11966232304 -1.06785367611 0.548610415211
5.40473732151 1.61717618829 0.535392672817 -0.407683072108 -0.407964351969 -0.569870733524 0.421462330634 0.599913287382 1.12067746379 -1.06965085937 0.546328022325
5.42946587517 1.61538466443 0.53940936616 -0.407509500201 -0.407790780061 -0.572428026127 0.422673263761 0.599105866395 1.12168674083 -1.07146123625 0.544047741781
5.4546884422 1.6135906466 0.543425577161 -0.40733847565 -0.40761975551 -0.574982654714 0.423881718416 0.598302501743 1.12269013432 -1.07328473801 0.541769620204
5.48067216944 1.61179414282 0.547441307565 -0.407169972016 -0.407451251876 -0.577534620911 0.425087656291 0.597503227642 1.12368762234 -1.07512129349 0.539493703881
5.50744004029 1.60999516103 0.551456559484 -0.407003962823 -0.407285242683 -0.580083925856 0.426291039244 0.596708077268 1.12467918291 -1.07697083152 0.537220038445
5.53501573388 1.60819370908 0.555471335391 -0.406840421566 -0.407121701426 -0.582630570197 0.427491829302 0.595917082767 1.12566479404 -1.07883328091 0.534948668906
5.56342365001 1.60638979475 0.559485638116 -0.406679321718 -0.406960601578 -0.58517455409 0.428689988663 0.595130275264 1.12664443369 -1.08070857045 0.532679639671
5.59298158069 1.60458342571 0.563499470839 -0.406520636737 -0.406801916597 -0.5877158772 0.4298854797 0.594347684865 1.12761807982 -1.08259662893 0.530412994571
5.62373610649 1.60277460956 0.567512837081 -0.406364340072 -0.406645619933 -0.590254538698 0.431078264969 0.593569340665 1.1285857104 -1.08449738515 0.528148776881
5.65576305974 1.60085807569 0.571484399288 -0.40614751014 -0.406428790001 -0.592808496735 0.432274202917 0.592795915278 1.12954261262 -1.08635313991 0.525878133607
5.68619652608 1.59893922923 0.575455868128 -0.405932518269 -0.406213798129 -0.595360857646 0.43346578918 0.592028963978 1.13049047434 -1.08822446793 0.523609164841
5.71543993085 1.59701788941 0.579426989722 -0.405719970444 -0.406001250305 -0.597910366929 0.434654614731 0.591266157341 1.13143236674 -1.09010862534 0.521342644588
5.74353982826 1.59509406446 0.583397766428 -0.405509838142 -0.405791118002 -0.600457020783 0.435840646029 0.590507523183 1.13236826943 -1.09200554404 0.519078617258
5.77081096222 1.59316776151 0.587368201193 -0.405302095709 -0.40558337557 -0.603000816311 0.437023846552 0.589753088668 1.13329816006 -1.09391515339 0.51681712688
5.79727779921 1.59123898761 0.591338297278 -0.405096717499 -0.40537799736 -0.605541750149 0.438204179985 0.589002879967 1.13422201634 -1.09583738268 0.514558216968
5.82296408084 1.58930774973 0.595308058258 -0.404893677873 -0.405174957734 -0.608079818474 0.439381610219 0.588256922267 1.13513981604 -1.0977721612 0.512301930538
5.84789285438 1.58737405476 0.599277488013 -0.404692951205 -0.404974231066 -0.610615017002 0.440556101358 0.587515239778 1.13605153701 -1.09971941818 0.510048310125
5.87232841719 1.58543790952 0.603246590723 -0.404494511891 -0.404775791751 -0.613147340989 0.441727617724 0.58677785574 1.13695715719 -1.10167908285 0.507797397798
5.8962805578 1.58349932072 0.607215370861 -0.40429833435 -0.40457961421 -0.61567678523 0.442896123859 0.586044792427 1.13785665459 -1.10365108444 0.505549235178
5.92027369249 1.58144625028 0.611112609297 -0.404073064602 -0.404354344462 -0.618217245974 0.44402837532 0.585317562059 1.13872796179 -1.10551702327 0.503315253235
5.94499474332 1.57939090941 0.615009989451 -0.403849400322 -0.404130680183 -0.620755861003 0.445156085369 0.584596555142 1.13959035948 -1.10739757097 0.501083223353
5.97046378726 1.57733314956 0.618907204465 -0.403627928765 -0.403909208626 -0.623291439015 0.446280859316 0.583879573186 1.14044683906 -1.10929011253 0.498853876191
5.99670348139 1.57527297761 0.622804257986 -0.403408623526 -0.403689903387 -0.62582397208 0.447402666749 0.583166636529 1.14129738217 -1.11119458266 0.496627253289
6.02373717155 1.57321039933 0.626701154157 -0.40319146099 -0.40347274085 -0.628353453091 0.448521474469 0.582457764761 1.14214196868 -1.11311091342 0.49440339582
6.05158891734 1.57114542043 0.630597897368 -0.402976417575 -0.403257697435 -0.630879874549 0.449637249512 0.581752976585 1.14298057861 -1.1150390368 0.492182344529
6.0805704521 1.56907804653 0.634494492251 -0.402763469738 -0.403044749598 -0.633403228561 0.450749959157 0.581052289824 1.14381319212 -1.1169788848 0.489964139751
6.11072764406 1.5670082832 0.638390943677 -0.402552593978 -0.402833873839 -0.635923506843 0.451859570924 0.58035572143 1.1446397895 -1.11893038938 0.48774882142
6.14242203018 1.56493613595 0.642287256748 -0.402343766844 -0.402625046704 -0.638440700721 0.452966052581 0.579663287488 1.14546035122 -1.12089348246 0.485536429082
6.17573201038 1.56286161021 0.646183436792 -0.402136964934 -0.402418244794 -0.640954801132 0.45406937215 0.578975003223 1.14627485789 -1.12286809596 0.483327001904
6.21057619222 1.56067977197 0.650019373813 -0.401883551358 -0.402164831218 -0.643478115292 0.455155222413 0.578291621145 1.1470705623 -1.12476393629 0.481122573129
6.2433742178 1.55849566025 0.653855671925 -0.401631617605 -0.401912897466 -0.645999307516 0.456236320884 0.577614257581 1.14785742568 -1.12667373521 0.478920406308
6.27458035758 1.55630914923 0.657691962943 -0.401381729605 -0.401663009466 -0.648517233217 0.457314301647 0.576940816424 1.14863839222 -1.12859496541 0.476721193352
6.30427190334 1.55412024494 0.661528250848 -0.401133862646 -0.401415142507 -0.651031881313 0.4583891371 0.57627131223 1.14941344504 -1.13052756325 0.474524973643
6.33280490552 1.55192895224 0.66536454004 -0.400887994752 -0.401169274613 -0.653543241516 0.459460796988 0.575605758727 1.15018256571 -1.13247146233 0.47233178617
6.3602246019 1.54973527595 0.66920083512 -0.400644104003 -0.400925383864 -0.656051303194 0.460529251316 0.574944168831 1.15094573598 -1.13442659621 0.470141669557
6.38683796279 1.54753922083 0.673037140878 -0.400402168539 -0.400683448399 -0.658556055375 0.461594470357 0.57428655465 1.15170293778 -1.13639289843 0.467954662072
6.41266873394 1.54534079158 0.676873462292 -0.400162166561 -0.400443446422 -0.661057486751 0.462656424654 0.573632927497 1.15245415329 -1.13837030252 0.465770801634
6.43773996266 1.54313999284 0.680709804523 -0.39992407634 -0.400205356201 -0.663555585676 0.463715085021 0.572983297892 1.15319936484 -1.14035874199 0.463590125823
6.46207401577 1.54093682922 0.684546172905 -0.399687876216 -0.399969156076 -0.666050340173 0.464770422551 0.57233767557 1.15393855503 -1.14235815032 0.461412671886
6.48625045531 1.53862902629 0.688319955068 -0.39940399967 -0.399685279531 -0.66855174215 0.465808003276 0.571696382948 1.15465971269 -1.14427655283 0.459240951926
6.51019113129 1.53631893083 0.692094305793 -0.399121510681 -0.399402790541 -0.671050725948 0.466840678876 0.571060838177 1.15537214347 -1.14620828193 0.457071784395
6.53461392554 1.53400644312 0.695868797277 -0.398840950322 -0.399122230182 -0.67354619912 0.467870099774 0.570429060433 1.15607873203 -1.14815090485 0.454905829418
6.55977771832 1.53169156848 0.699643433332 -0.398562295646 -0.398843575506 -0.676038148132 0.468896241278 0.569801059392 1.1567794633 -1.15010435964 0.452743124278
6.58570502089 1.52937431105 0.703418218119 -0.398285526364 -0.398566806224 -0.678526560211 0.469919076183 0.569176843841 1.15747432075 -1.15206858153 0.450583705842
6.61241902912 1.5270546749 0.70719315595 -0.398010622258 -0.398291902118 -0.681011422295 0.470938577563 0.56855642183 1.15816328812 -1.15404350574 0.448427610654
6.63994364847 1.52473266407 0.710968251286 -0.397737563184 -0.398018843045 -0.683492721032 0.471954718781 0.567939800678 1.15884634938 -1.15602906745 0.446274874938
6.66858710597 1.52240828256 0.71474350873 -0.397466329076 -0.397747608936 -0.68597044279 0.472967473485 0.567326986978 1.15952348874 -1.15802520186 0.444125534603
6.69839492129 1.52008153432 0.718518933022 -0.397196899945 -0.397478179805 -0.688444573654 0.473976815615 0.566717986608 1.16019469066 -1.16003184415 0.441979625253
6.72972465849 1.51775242328 0.722294529037 -0.396929255887 -0.397210535748 -0.690915099433 0.474982719406 0.566112804734 1.16085993986 -1.16204892948 0.439837182185
6.76214789946 1.51532143468 0.726005215019 -0.396612985032 -0.396894264892 -0.693389770636 0.475970741065 0.565511307996 1.16150805313 -1.16398284727 0.437701223948
6.79294530235 1.51288811998 0.72971665846 -0.39629804175 -0.39657932161 -0.695861717132 0.476953760735 0.564915236826 1.16214759792 -1.16592948164 0.435568087365
6.8222501309 1.51045240883 0.73342837505 -0.395984939299 -0.396266219159 -0.698329903036 0.477933433139 0.564322735633 1.16278138818 -1.16788649985 0.433438406519
6.85041359059 1.50801430598 0.737140368019 -0.395673656501 -0.395954936361 -0.700794312999 0.478909736493 0.563733810087 1.16340941073 -1.16985384169 0.431312216593
6.87748016378 1.50557381497 0.740852640874 -0.39536417474 -0.3956454546 -0.703254932408 0.479882646645 0.563148464937 1.16403165112 -1.17183144417 0.429189552339
6.90375272011 1.50313093932 0.744565197231 -0.39505647548 -0.395337755341 -0.70571174641 0.480852139737 0.562566704264 1.16464809516 -1.17381924429 0.427070448214
6.92925457626 1.50068568252 0.748278040819 -0.39475054027 -0.39503182013 -0.708164739918 0.481818192208 0.561988531491 1.16525872892 -1.17581717901 0.424954938376
6.95400836709 1.49823804802 0.751991175472 -0.394446350741 -0.394727630602 -0.710613897616 0.482780780797 0.561413949391 1.16586353876 -1.17782518533 0.422843056695
6.9780360609 1.49578803925 0.755704605124 -0.394143888615 -0.394425168475 -0.713059203961 0.483739882543 0.56084296009 1.16646251133 -1.17984320022 0.420734836755
7.00159221096 1.49333565962 0.759418333807 -0.393843135701 -0.394124415562 -0.715500643183 0.484695474794 0.560275565077 1.16705563352 -1.18187116067 0.418630311852
7.02518690831 1.49078425047 0.763064844595 -0.393492916577 -0.393774196437 -0.717943810501 0.485633212378 0.559711162853 1.16763262595 -1.18381387962 0.416533019559
7.04832254718 1.48823046879 0.766712277837 -0.393143995485 -0.393425275346 -0.720383945055 0.486565905382 0.559151825977 1.16820124948 -1.18576873111 0.414438795139
7.0710047224 1.48567427658 0.770360096979 -0.392796855569 -0.39307813543 -0.722820070891 0.487495201456 0.558595831129 1.16876423752 -1.18773348641 0.412348251374
7.09324233517 1.48311567817 0.774008304345 -0.392451477371 -0.392732757231 -0.725252171425 0.488421081638 0.558043180809 1.1693215788 -1.18970808721 0.41026142132
7.11504411448 1.48055467668 0.777656902457 -0.392107843884 -0.392389123744 -0.727680230785 0.48934352474 0.557493876582 1.16987326091 -1.19169247241 0.408178337602
7.13641861575 1.47799127524 0.781305893922 -0.391765938185 -0.392047218046 -0.730104232909 0.490262509877 0.556947919415 1.17041927174 -1.19368658091 0.40609903256
7.15716674946 1.47542547694 0.784955281424 -0.391425743441 -0.391707023302 -0.732524161556 0.491178016464 0.556405309688 1.17095959948 -1.1956903516 0.404023538258
7.17833423207 1.47285728487 0.788605067723 -0.391087242906 -0.391368522767 -0.734940000305 0.492090024225 0.555866047196 1.17149423259 -1.19770372342 0.401951886485
7.19992955788 1.4702867021 0.792255255648 -0.390750419926 -0.391031699786 -0.73735173256 0.492998513188 0.555330131163 1.17202315985 -1.19972663527 0.399884108752
7.22196139065 1.46771373169 0.795905848098 -0.390415257939 -0.390696537799 -0.739759341553 0.493903463691 0.55479756024 1.17254637033 -1.20175902611 0.397820236304
7.24400811659 1.46504466243 0.799486928441 -0.390029896943 -0.390311176804 -0.742166361362 0.494790730875 0.554267260908 1.1730545531 -1.20370420039 0.395764325596
7.26650463462 1.46237316313 0.803069068351 -0.389645832464 -0.389927112325 -0.744570046575 0.495672961636 0.553741641679 1.17355460356 -1.20566095288 0.393711704548
7.28945638264 1.45969923077 0.806651684192 -0.389263515938 -0.389544795799 -0.746969483471 0.496551786066 0.553219115757 1.17404916611 -1.20762716151 0.391662968499
7.31287257846 1.45702286941 0.810234777135 -0.388882929538 -0.389164209398 -0.749364654751 0.497427187862 0.552699683244 1.17453823133 -1.20960276994 0.389618148356
7.33676263014 1.45434408194 0.813818348485 -0.388504057761 -0.388785337621 -0.751755543805 0.49829914864 0.552183343316 1.17502178881 -1.21158771909 0.387577274592
7.36137986752 1.45166287125 0.817402399606 -0.388126885192 -0.388408165052 -0.754142133883 0.499167650318 0.551670094619 1.17549982842 -1.21358194991 0.385540377413
7.38674643944 1.44897924022 0.820986931912 -0.387751396504 -0.388032676364 -0.756524408104 0.50003267512 0.551159935271 1.17597234035 -1.21558540333 0.383507486755
7.41288516128 1.44629319173 0.824571946873 -0.387377576458 -0.387658856319 -0.758902349458 0.500894205572 0.550652862876 1.17643931508 -1.21759802033 0.381478632288
7.44008889337 1.44360472867 0.828157446005 -0.387005409909 -0.387286689769 -0.761275940809 0.50175222451 0.55014887453 1.17690074342 -1.21961974189 0.379453843416
7.46840104184 1.44091385393 0.831743430866 -0.386634881801 -0.386916161662 -0.763645164898 0.502606715076 0.549647966821 1.17735661648 -1.22165050905 0.37743314928
7.49740864835 1.43812988995 0.835257622606 -0.386213523157 -0.386494803017 -0.766011595142 0.50344382646 0.549148598312 1.1777986452 -1.22359219306 0.375421114771
7.52516318091 1.43534342921 0.838772980485 -0.385793484718 -0.386074764578 -0.768374401893 0.504275955763 0.548653511458 1.17823281008 -1.22554493395 0.373412566262
7.55183884736 1.4325545059 0.842288879568 -0.38537518533 -0.385656465191 -0.770732734945 0.505104706095 0.548161257654 1.1786616597 -1.22750671764 0.371408084737
7.57747758329 1.42976312395 0.845805319718 -0.384958608675 -0.385239888536 -0.77308657674 0.50593006359 0.547671835309 1.17908518639 -1.22947748984 0.369407698932
7.60236611677 1.4269692862 0.849322300869 -0.384543740623 -0.384825020484 -0.775435910388 0.506752012451 0.547185241924 1.17950338155 -1.23145719362 0.367411437162
7.62652639807 1.42417299546 0.852839822992 -0.384130567131 -0.384411846992 -0.777780718906 0.507570537181 0.546701474532 1.1799162369 -1.23344577201 0.36541932748
7.6499797345 1.42137425458 0.856357886093 -0.383719074241 -0.384000354102 -0.780120985226 0.50838562258 0.5462205297 1.18032374449 -1.23544316813 0.363431397675
7.6729744832 1.4185730664 0.859876490215 -0.383309248083 -0.383590527943 -0.782456692199 0.50919725375 0.54574240354 1.18072589667 -1.23744932508 0.361447675278
7.695519612 1.4157694338 0.86339563543 -0.382901074875 -0.383182354735 -0.784787822594 0.510005416095 0.545267091713 1.1811226861 -1.23946418601 0.35946818756
7.71829369307 1.41296335966 0.86691532184 -0.382494540924 -0.382775820784 -0.787114359107 0.510810095323 0.544794589438 1.18151410577 -1.24148769414 0.357492961529
7.74103669912 1.41006728124 0.870360948592 -0.382036640046 -0.382317919906 -0.789436019661 0.511597819594 0.544322898712 1.18189293064 -1.24342036866 0.355527051773
7.76424519445 1.40716863199 0.873807816079 -0.381580105211 -0.381861385072 -0.79175378643 0.512380657025 0.543855088474 1.18226418654 -1.24536361438 0.35356479834
7.78816095821 1.40426748513 0.877255264239 -0.381125322462 -0.381406602322 -0.794066873043 0.513160175476 0.543389847665 1.18263032095 -1.24731552536 0.351606770246
7.81280553378 1.40136384465 0.880703291543 -0.380672276841 -0.380953556702 -0.796375262075 0.51393636327 0.542927173613 1.18299132774 -1.24927604943 0.349652994053
7.8382011172 1.39845771345 0.884151896472 -0.380220955444 -0.380502235305 -0.798678936748 0.514709206937 0.542467062775 1.18334719999 -1.25124513181 0.347703495918
7.8646322786 1.39554909446 0.887601077536 -0.379771345447 -0.380052625307 -0.800977880239 0.515478693303 0.542009511188 1.18369793107 -1.25322271776 0.345758301742
7.89214123269 1.39263799064 0.891050833265 -0.379323434107 -0.379604713967 -0.803272075681 0.516244809484 0.541554514485 1.1840435147 -1.25520875258 0.343817437166
7.92077191886 1.38972440498 0.894501162217 -0.378877208766 -0.379158488626 -0.805561506168 0.517007542889 0.541102067892 1.18438394489 -1.2572031816 0.341880927577
7.95086804391 1.38680834047 0.897952062967 -0.37843265685 -0.37871393671 -0.807846154759 0.517766881221 0.540652166244 1.18471921595 -1.25920595019 0.339948798101
7.9828209673 1.38388980017 0.901403534108 -0.377989765868 -0.378271045728 -0.810126004477 0.518522812479 0.540204803983 1.18504932255 -1.26121700379 0.338021073611
8.01608833148 1.3808844124 0.904778696389 -0.377495060008 -0.377776339869 -0.812399026104 0.51926231933 0.539757544257 1.18536813495 -1.26313559507 0.33610327309
8.04734668279 1.37787637423 0.908155141698 -0.37700178503 -0.377283064891 -0.81466790689 0.519997069744 0.539313770112 1.18567969392 -1.26506430945 0.334189273037
8.07679864624 1.37486579931 0.911532181172 -0.37651029456 -0.376791574421 -0.816931923739 0.520728589298 0.538872305389 1.18598634208 -1.26700134824 0.332279632276
8.10482608433 1.37185269183 0.914909811872 -0.376020574849 -0.376301854709 -0.819191059688 0.521456868227 0.538433146857 1.18628807467 -1.26894666137 0.330374375205
8.13176459284 1.36883705493 0.918288030818 -0.375532614055 -0.375813893915 -0.821445298404 0.522181895111 0.537996290454 1.1865848862 -1.27090019628 0.328473525844
8.1576564545 1.36581889181 0.92166683505 -0.375046400414 -0.375327680274 -0.823694623548 0.522903658817 0.537561731755 1.18687677153 -1.27286190046 0.326577107957
8.1827911719 1.36279820568 0.925046221625 -0.374561922238 -0.374843202098 -0.825939018779 0.523622148491 0.537129465971 1.1871637258 -1.27483172144 0.324685145053
8.20719086332 1.35977499983 0.928426187619 -0.374079167916 -0.374360447776 -0.828178467753 0.524337353564 0.53669948796 1.18744574448 -1.27680960679 0.322797660385
8.23087700272 1.35674927753 0.931806730119 -0.373598125917 -0.373879405778 -0.830412954133 0.525049263748 0.536271792233 1.18772282334 -1.27879550414 0.320914676953
8.25387043775 1.35372104214 0.935187846228 -0.373118784789 -0.373400064649 -0.832642461586 0.525757869043 0.535846372956 1.18799495846 -1.28078936117 0.319036217499
8.27678121391 1.35060918449 0.938490425826 -0.372587262218 -0.372868542079 -0.834863323875 0.526450672479 0.535420377492 1.18825713618 -1.28268925243 0.317168235043
8.29902689885 1.34749459313 0.941794299074 -0.372057251245 -0.372338531106 -0.837079825119 0.527138879129 0.534997486366 1.18851239101 -1.28459885752 0.315304171228
8.32172372007 1.34437742315 0.945098754587 -0.371529073994 -0.371810353855 -0.839291304157 0.527823966493 0.534576653999 1.1887629584 -1.2865164831 0.313444575939
8.34511236803 1.34125767907 0.948403788055 -0.371002717761 -0.371283997622 -0.841497744755 0.528505926436 0.534157877027 1.18900883472 -1.28844208121 0.31158947144
8.36921389869 1.33813536442 0.951709395083 -0.370478171609 -0.370759451469 -0.843699131294 0.529184749302 0.53374115131 1.18925001574 -1.29037560152 0.309738879646
8.39405000401 1.33501048279 0.955015571292 -0.369955424669 -0.370236704529 -0.845895448184 0.529860425708 0.533326472381 1.18948649755 -1.29231699372 0.30789282222
8.41964303975 1.33188303783 0.95832231232 -0.369434466145 -0.369715746006 -0.848086679869 0.530532946541 0.532913835457 1.18971827653 -1.29426620757 0.306051320569
8.44627977009 1.32875303321 0.961629613822 -0.368915285313 -0.369196565173 -0.850272810827 0.531202302961 0.532503235441 1.18994534937 -1.29622319288 0.304214395849
8.47400271938 1.32562047266 0.964937471462 -0.368397871519 -0.36867915138 -0.852453825574 0.531868486397 0.53209466693 1.19016771306 -1.29818789951 0.30238206896
8.50314467695 1.32248535996 0.968245880919 -0.367882214183 -0.368163494044 -0.854629708669 0.532531488552 0.531688124218 1.1903853649 -1.30016027739 0.300554360548
8.53315501035 1.31926991519 0.971473553118 -0.367314083015 -0.367595362875 -0.856795267479 0.533179388955 0.531280366231 1.19059441809 -1.30203731292 0.298737623524
8.5615970218 1.31605165129 0.974702499333 -0.366747557042 -0.367028836902 -0.858956274526 0.533822875592 0.530875350833 1.19079688851 -1.3039236923 0.296924897879
8.58866319645 1.31283076545 0.97793199173 -0.366182928228 -0.366464208088 -0.861112128577 0.534463373313 0.530472157367 1.19099490339 -1.30581782491 0.295116725365
8.61467761127 1.30960726261 0.981162024711 -0.365620184756 -0.365901464616 -0.863262814338 0.535100875335 0.530070782674 1.19118846007 -1.30771966487 0.293313126161
8.63968109372 1.30638114683 0.984392592556 -0.365059316434 -0.365340596295 -0.865408317111 0.535735373482 0.529671222875 1.19137755534 -1.30962916401 0.291514120129
8.66395320232 1.30315242223 0.987623689567 -0.364500313137 -0.364781592997 -0.86754862226 0.536366859838 0.529273473798 1.19156218632 -1.31154627421 0.28971972688
8.68751528743 1.29992109299 0.99085531006 -0.3639431648 -0.364224444661 -0.869683715213 0.536995326747 0.528877530993 1.19174235039 -1.31347094741 0.287929965772
8.71040075698 1.29668716331 0.99408744837 -0.363387861428 -0.363669141288 -0.871813581466 0.53762076681 0.528483389732 1.19191804526 -1.31540313563 0.28614485591
8.73263100023 1.2934506375 0.997320098847 -0.362834393086 -0.363115672947 -0.873938206585 0.538243172888 0.528091045014 1.19208926891 -1.31734279091 0.284364416146
8.75444067119 1.29021151987 1.00055325586 -0.362282749909 -0.36256402977 -0.876057576207 0.5388625381 0.527700491573 1.19225601962 -1.3192898654 0.282588665079
8.77632871707 1.28689542199 1.003703508 -0.361678407481 -0.361959687342 -0.878165081244 0.539467565038 0.527308130474 1.19241553912 -1.32114034757 0.280824318704
8.79780427951 1.28357641894 1.00685498631 -0.361075773924 -0.361357053785 -0.880267875002 0.540068378946 0.526918174031 1.1925688204 -1.32299984277 0.279064051816
8.81887359627 1.28025475027 1.01000695223 -0.360475112721 -0.360756392582 -0.882365413617 0.54066634861 0.526529819839 1.19271788273 -1.32486685981 0.277308398495
8.83954430627 1.27693042148 1.01315939898 -0.359876412789 -0.36015769265 -0.884457682884 0.541261468337 0.526143065198 1.19286272418 -1.32674135477 0.275557376897
8.8598239068 1.27360343727 1.01631231966 -0.359279664535 -0.359560944395 -0.886544669179 0.541853731162 0.525757906741 1.19300334239 -1.32862328162 0.2738110049
8.87952276914 1.27027380239 1.01946570737 -0.358684858424 -0.358966138285 -0.888626358969 0.542443130367 0.525374340844 1.19313973527 -1.33051259434 0.272069300128
8.89963354558 1.26694152165 1.02261955525 -0.35809198498 -0.35837326484 -0.890702738811 0.543029659479 0.524992363629 1.19327190103 -1.33240924702 0.270332279955
8.9201648096 1.26360659993 1.02577385643 -0.357501034784 -0.357782314644 -0.892773795359 0.543613312272 0.524611970974 1.19339983816 -1.33431319378 0.268599961503
8.94112530547 1.26026904216 1.0289286041 -0.356911998477 -0.357193278337 -0.894839515362 0.544194082767 0.524233158513 1.19352354545 -1.3362243888 0.266872361642
8.96252396355 1.25692885334 1.03208379145 -0.356324866757 -0.356606146618 -0.896899885667 0.544771965227 0.523855921645 1.19364302194 -1.33814278635 0.26514949699
8.98375075087 1.25351509433 1.03515394636 -0.355684870291 -0.355966150152 -0.898946988966 0.545336322649 0.523476336358 1.193756631 -1.33996346645 0.263438408112
9.00542316573 1.25009834476 1.03822525384 -0.355046693892 -0.355327973753 -0.900989253536 0.545896680197 0.523098844543 1.19386434628 -1.34179286715 0.261731443248
9.02776997709 1.24667888657 1.04129696989 -0.354410574484 -0.354691854345 -0.90302618988 0.546454348265 0.522722754673 1.19396808028 -1.34362959288 0.260029128992
9.05081211596 1.24325672589 1.04436908674 -0.353776501575 -0.354057781435 -0.905057784984 0.547009322012 0.522348064682 1.19406783165 -1.34547360164 0.258331481559
9.07457116458 1.23983186815 1.04744159642 -0.353144466034 -0.353425745895 -0.907084026399 0.547561595432 0.521974771891 1.19416359866 -1.34732484939 0.256638516918
9.09906937456 1.23640431883 1.05051449099 -0.352514458785 -0.352795738645 -0.909104901788 0.548111162755 0.521602873391 1.19425537986 -1.34918329218 0.25495025079
9.12458228707 1.23297408347 1.05358776256 -0.351886470799 -0.35216775066 -0.911120398934 0.548658018445 0.521232366046 1.19434317407 -1.3510488861 0.253266698645
9.15115187243 1.22954116769 1.05666140324 -0.351260493104 -0.351541772964 -0.913130505733 0.549202157198 0.5208632465 1.19442698039 -1.35292158731 0.251587875704
9.17909853047 1.22610557715 1.0597354052 -0.350636516775 -0.350917796635 -0.915135210202 0.549743573945 0.520495511178 1.19450679819 -1.35480135204 0.249913796938
9.20849356933 1.22266731759 1.06280976061 -0.350014532943 -0.350295812804 -0.917134500479 0.550282263848 0.52012915629 1.19458262712 -1.3566881366 0.248244477066
9.23889038665 1.21915895284 1.06579700336 -0.349339572011 -0.349620851872 -0.91911925665 0.550808278889 0.519759966792 1.19465393773 -1.35847620015 0.24658724182
9.26745403059 1.21564751385 1.06878530209 -0.348666547576 -0.348947827436 -0.921099078794 0.551330514803 0.519392588032 1.19471969473 -1.36027272908 0.244934152784
9.29604004694 1.21213332474 1.07177391219 -0.347995672078 -0.348276951939 -0.923073528464 0.551850222254 0.519026431554 1.19478170604 -1.36207641921 0.243285729048
9.32610768957 1.20861639236 1.07476282502 -0.347326935492 -0.347608215352 -0.925042593885 0.552367397034 0.51866149603 1.19483997073 -1.36388723031 0.241641984977
9.35804993708 1.20509672293 1.07775203172 -0.346660329026 -0.346941608887 -0.927006263838 0.552882033874 0.518297779581 1.19489448754 -1.36570512028 0.24000293473
9.39198358533 1.20157432275 1.08074152349 -0.345995843938 -0.346277123799 -0.928964527234 0.553394127728 0.517935280116 1.19494525547 -1.36753004709 0.238368592215
9.42839318686 1.19804919815 1.08373129157 -0.345333471529 -0.345614751389 -0.930917373122 0.553903673773 0.517573995341 1.1949922738 -1.36936196875 0.236738971094
9.46824453626 1.19452135556 1.08672132721 -0.344673203147 -0.344954483007 -0.932864790687 0.554410667406 0.517213922759 1.19503554205 -1.37120084336 0.235114084781
9.51318454842 1.19099080145 1.08971162174 -0.344015030185 -0.344296310046 -0.934806769251 0.554915104246 0.516855059675 1.19507506002 -1.37304662908 0.23349394644
9.56542612489 1.18745754235 1.0927021665 -0.343358944086 -0.343640223946 -0.936743298277 0.555416980131 0.516497403201 1.19511082776 -1.37489928412 0.231878568989
9.6107860414 1.18385769458 1.09560357319 -0.342649815246 -0.342931095106 -0.938664157455 0.555907056428 0.51613648169 1.19514340182 -1.37665233183 0.230275523749
9.65108344743 1.18025469149 1.09850591922 -0.341942742558 -0.342224022418 -0.940580018879 0.556393577638 0.515777117285 1.19517075468 -1.37841362528 0.228676625988
9.68795749676 1.17664889898 1.10140846363 -0.341237916147 -0.341519196007 -0.942490491603 0.556877734233 0.515418816583 1.1951945926 -1.38018194714 0.227082387146
9.72237712092 1.17304032468 1.10431119705 -0.340535326333 -0.340816606193 -0.944395565109 0.557359522451 0.51506157905 1.19521491494 -1.38195725886 0.225492819846
9.7582218592 1.16942897569 1.10721410993 -0.339834964559 -0.34011624442 -0.946295229415 0.557838937565 0.514705403657 1.19523172074 -1.38373952015 0.223907936535
9.79706632273 1.16581485913 1.11011719277 -0.33913682231 -0.339418102171 -0.948189474692 0.558315975057 0.514350289181 1.19524500933 -1.38552869076 0.222327749415
9.84008276096 1.16219798221 1.11302043611 -0.338440891109 -0.33872217097 -0.950078291259 0.558790630624 0.513996234211 1.19525478028 -1.38732473053 0.220752270445
9.87898648198 1.1585783522 1.11592383053 -0.33774716252 -0.338028442381 -0.951961669591 0.559262900169 0.513643237151 1.19526103339 -1.38912759935 0.219181511335
9.91494066882 1.15495597644 1.11882736668 -0.337055628149 -0.337336908009 -0.953839600313 0.559732779805 0.513291296224 1.19526376875 -1.39093725718 0.217615483555
9.95238302245 1.15133086233 1.12173103524 -0.33636627964 -0.3366475595 -0.955712074205 0.560200265853 0.512940409474 1.19526298666 -1.39275366406 0.216054198326
9.99342894789 1.14764272416 1.1245436027 -0.335623863451 -0.335905143312 -0.957567868736 0.560656841935 0.51258588274 1.19526030257 -1.39446968925 0.214505433376
10.0308043996 1.14395135287 1.12735697573 -0.334883624573 -0.335164904434 -0.959418632179 0.561110086524 0.512232688345 1.19525271897 -1.39619377416 0.212960797797
10.0653464255 1.14025715562 1.13017042073 -0.334145732994 -0.334427012855 -0.961264017434 0.561561130212 0.511880419928 1.19524184402 -1.39792478362 0.21142079514
10.097911394 1.13656014087 1.1329839278 -0.333410179283 -0.333691459143 -0.963104015211 0.562009969523 0.511529077758 1.19522767725 -1.39966268061 0.209885436401
10.1305011109 1.1328603166 1.13579748685 -0.332676955023 -0.332958234883 -0.964938616748 0.562456600104 0.511178661662 1.19521021789 -1.40140742653 0.208354732429
10.1651219464 1.12915769084 1.13861108786 -0.331946051834 -0.332227331694 -0.966767813444 0.562901017804 0.510829171287 1.19518946545 -1.40315898281 0.206828693833
10.2022681708 1.1254522717 1.14142472085 -0.33121746137 -0.33149874123 -0.968591596865 0.563343218669 0.510480606107 1.19516541968 -1.40491731096 0.205307330981
10.2429238019 1.12174406734 1.14423837589 -0.330491175321 -0.330772455182 -0.970409958739 0.563783198947 0.510132965423 1.19513808055 -1.40668237252 0.203790653999
10.2801257873 1.11803308599 1.14705204312 -0.329767185412 -0.330048465273 -0.972222890958 0.564220955082 0.509786248368 1.19510744829 -1.40845412916 0.202278672771
10.314850639 1.11431933593 1.14986571275 -0.329045483404 -0.329326763264 -0.974030385583 0.564656483713 0.509440453909 1.19507352335 -1.41023254257 0.200771396939
10.3478859445 1.11054617108 1.15258638797 -0.328270723914 -0.328552003775 -0.975820311457 0.565081996743 0.509090698474 1.19503894794 -1.41190990594 0.199276772358
10.3792229513 1.10676969911 1.15530772073 -0.327498262942 -0.327779542803 -0.977605201656 0.565504398268 0.508742078548 1.19499978163 -1.41359517447 0.1977862413
10.410897291 1.10299036781 1.158028988 -0.326728252487 -0.327009532348 -0.97938474923 0.565924759962 0.508394266962 1.19495753852 -1.41528729032 0.196300299155
10.444545597 1.09920818651 1.16075017949 -0.32596068328 -0.32624196314 -0.981158946068 0.566343078508 0.508047264763 1.19491221819 -1.41698621792 0.194818955407
10.4806482352 1.09542316409 1.16347128475 -0.325195546966 -0.325476826827 -0.982927784575 0.56675934979 0.507701072605 1.19486381999 -1.41869192017 0.193342219431
10.5197714698 1.09163530953 1.16619229339 -0.324432835225 -0.324714115086 -0.984691257327 0.567173569882 0.507355690973 1.19481234349 -1.42040436006 0.191870100362
10.5629964237 1.08784463184 1.16891319508 -0.323672539764 -0.323953819625 -0.986449357073 0.56758573505 0.507011120192 1.19475778853 -1.42212350063 0.190402607097
10.6021778827 1.0840511401 1.17163397955 -0.322914652323 -0.323195932183 -0.988202076737 0.567995841746 0.506667360423 1.19470015514 -1.42384930498 0.188939748296
10.6383880573 1.08025484345 1.17435463661 -0.32215916467 -0.32244044453 -0.989949409416 0.568403886613 0.50632441167 1.19463944359 -1.42558173629 0.187481532382
10.6768541938 1.07645575108 1.17707515614 -0.321406068605 -0.321687348466 -0.991691348382 0.568809866476 0.505982273782 1.19457565439 -1.4273207578 0.186027967541
10.7194117082 1.07260089438 1.1797008648 -0.320599955306 -0.320881235166 -0.993414942486 0.56920672141 0.50563590538 1.19451242023 -1.42895816047 0.184587130761
10.758089875 1.0687426607 1.18232707141 -0.319796260578 -0.320077540438 -0.99513352304 0.569600678621 0.505290502135 1.19444488882 -1.43060334287 0.183150335623
10.7938352602 1.06488153778 1.1849530662 -0.318995120501 -0.319276400362 -0.996846819598 0.569992752371 0.504945808511 1.19437448465 -1.43225531965 0.18171806907
10.8268701366 1.06101753585 1.18757883868 -0.318196525897 -0.318477805757 -0.998554825158 0.5703829394 0.504601826279 1.19430120728 -1.43391405653 0.180290339208
10.861963363 1.05715066474 1.19020437818 -0.317400468411 -0.317681748271 -1.00025753321 0.570771235719 0.504258556867 1.19422505608 -1.43557951782 0.178867154055
10.8999118 1.05328093435 1.19282967409 -0.316606939716 -0.316888219576 -1.00195493744 0.571157637522 0.503916001544 1.19414603063 -1.43725166791 0.177448521396
10.9350568338 1.04940835461 1.19545471589 -0.315815931512 -0.316097211372 -1.0036470317 0.571542141181 0.503574161425 1.19406413075 -1.43893047124 0.176034448782
10.9681893206 1.04553293555 1.19807949313 -0.315027435523 -0.315308715383 -1.00533381002 0.57192474325 0.503233037471 1.19397935647 -1.44061589233 0.174624943533
10.9997367593 1.0416546872 1.20070399543 -0.314241443502 -0.314522723362 -1.00701526662 0.57230544046 0.502892630496 1.19389170804 -1.44230789575 0.173220012737
11.029774885 1.03777361968 1.2033282125 -0.313457947226 -0.313739227086 -1.0086913959 0.572684229717 0.502552941164 1.19380118591 -1.44400644614 0.171819663247
11.0610980081 1.03384047597 1.2058558858 -0.312621499394 -0.312902779254 -1.01034851008 0.573054773747 0.502208799993 1.19371237357 -1.44560290165 0.170432067795
11.0915658294 1.02990388975 1.20838388839 -0.311787588061 -0.312068867922 -1.01200065724 0.573422625555 0.501865478267 1.19361954138 -1.44720703815 0.169048447818
11.1236115307 1.0259643881 1.21091152604 -0.310956335353 -0.311237615213 -1.0136475999 0.573788743947 0.501522784908 1.19352402887 -1.448817938 0.167669281542
11.1576537666 1.02202198211 1.21343878819 -0.310127732119 -0.310409011979 -1.01528933207 0.574153125641 0.501180722346 1.19342583553 -1.45043556808 0.166294575818
11.1938168093 1.01807668256 1.21596566409 -0.309301769955 -0.309583049816 -1.01692584825 0.574515766692 0.500839292711 1.1933249607 -1.45205989397 0.164924337436
11.2330048144 1.01412850028 1.21849214306 -0.308478440479 -0.308759720339 -1.01855714311 0.574876663326 0.50049849798 1.1932214039 -1.45369088134 0.163558572955
11.2759868573 1.01017744615 1.22101821453 -0.307657735328 -0.307939015189 -1.02018321154 0.575235811945 0.500158339986 1.1931151649 -1.4553284959 0.162197288708
11.3152317648 1.0062235311 1.22354386799 -0.306839646167 -0.307120926028 -1.02180404857 0.575593209118 0.499818820413 1.19300624364 -1.45697270342 0.1608404908
11.3514999012 1.0022667661 1.22606909304 -0.306024164679 -0.30630544454 -1.02341964944 0.575948851584 0.499479940806 1.1928946403 -1.45862346975 0.159488185108
11.3904121499 0.99830716217 1.22859387934 -0.305211282572 -0.305492562433 -1.02503000958 0.576302736253 0.499141702567 1.19278035524 -1.46028076078 0.158140377286
11.4341083795 0.994299204305 1.23102047881 -0.304345535873 -0.304626815733 -1.02662078252 0.576649238247 0.498798835611 1.19266888037 -1.46183556674 0.156805302256
11.4739244685 0.990287742888 1.23344723208 -0.303482440709 -0.30376372057 -1.02820665684 0.57699324367 0.498456664945 1.1925536459 -1.4633979792 0.155474123995
11.5107208859 0.986273343636 1.23587346235 -0.302622107083 -0.302903386943 -1.02978742469 0.577335658161 0.49811505723 1.19243591122 -1.46496714353 0.154147311773
11.5454100398 0.982256018533 1.2382991591 -0.301764525829 -0.30204580569 -1.03136308098 0.577676478363 0.497774015477 1.19231567575 -1.46654302763 0.152824871316
11.5823815842 0.978235779293 1.24072431163 -0.300909688452 -0.301190968312 -1.0329336211 0.578015700314 0.497433542435 1.19219293873 -1.46812559826 0.151506808306
11.6171209639 0.974212637675 1.24314890933 -0.300057586473 -0.300338866334 -1.03449904066 0.578353320216 0.497093640708 1.19206769961 -1.46971482219 0.150193128204
11.649870544 0.970186605479 1.24557294169 -0.299208211434 -0.299489491295 -1.03605933541 0.578689334434 0.496754312759 1.19193995804 -1.47131066629 0.148883836248
11.6810529255 0.966157694545 1.24799639829 -0.298361554896 -0.298642834757 -1.03761450132 0.579023739497 0.496415560914 1.19180971387 -1.47291309747 0.147578937455
11.7110399047 0.962125916756 1.2504192688 -0.297517608438 -0.297798888299 -1.03916453453 0.579356532096 0.496077387361 1.19167696714 -1.47452208271 0.146278436619
11.7413482003 0.958091284031 1.252841543 -0.296676363659 -0.296957643519 -1.04070943137 0.579687709081 0.49573979415 1.19154171809 -1.47613758903 0.144982338316
11.7731399274 0.954012050222 1.25516408288 -0.295782358838 -0.296063638698 -1.04223425906 0.580012343664 0.495397435696 1.19141032268 -1.47765029899 0.143698908128
11.8035063473 0.949929256309 1.25748659622 -0.294891117111 -0.295172396972 -1.04375427584 0.580334666346 0.495055670721 1.1912754103 -1.47917056274 0.142419285192
11.8327090108 0.945843506029 1.25980842521 -0.294002738048 -0.294284017909 -1.04526930028 0.580655532146 0.4947144174 1.19113816513 -1.48069758415 0.141143929625
11.8607924125 0.941754812244 1.26212955945 -0.293117212432 -0.293398492293 -1.04677932811 0.5809749376 0.49437367924 1.19099858646 -1.48223133203 0.139872846147
11.888069426 0.937663187591 1.26444998843 -0.292234531646 -0.292515811507 -1.04828435551 0.581292878685 0.494033459525 1.19085667344 -1.48377177413 0.138606039459
11.9145631068 0.933568644741 1.26676970169 -0.291354687089 -0.291635966949 -1.04978437886 0.581609351538 0.493693761397 1.19071242541 -1.48531887828 0.137343514043
11.9402958607 0.929471196403 1.26908868892 -0.290477670174 -0.290758950035 -1.05127939474 0.581924352451 0.493354587867 1.19056584189 -1.48687261233 0.136085274167
11.9663042905 0.925370855316 1.27140693988 -0.289603472333 -0.289884752193 -1.05276939988 0.582237877873 0.493015941808 1.19041692259 -1.48843294422 0.134831323879
11.9931196237 0.921267634252 1.27372444443 -0.288732085011 -0.289013364871 -1.05425439125 0.582549924406 0.492677825962 1.19026566743 -1.48999984193 0.133581667017
12.0207667921 0.917161546015 1.27604119256 -0.287863499672 -0.288144779532 -1.05573436596 0.582860488807 0.492340242941 1.19011207647 -1.4915732735 0.132336307201
12.0495348843 0.91301463656 1.27825675969 -0.286942273155 -0.287223553016 -1.05719387173 0.583165324628 0.491997794233 1.189963324 -1.49304366946 0.131103511269
12.0794971526 0.908864114927 1.28047211683 -0.286023917384 -0.286305197245 -1.05864867092 0.583468021501 0.491655854281 1.18981127943 -1.49452158596 0.129874423941
12.110698328 0.904710622274 1.28268662634 -0.285108523038 -0.285389802898 -1.06009860562 0.583769386551 0.491314387066 1.18965705666 -1.49600628093 0.128649496023
12.1435144254 0.900554172331 1.28490027812 -0.284196080819 -0.284477360679 -1.06154367225 0.584069416185 0.490973396511 1.18950065485 -1.49749772402 0.127428731354
12.1783740448 0.896394778635 1.28711306187 -0.283286581969 -0.28356786183 -1.06298386768 0.584368106301 0.490632886347 1.18934207304 -1.49899588387 0.126212133769
12.2156905264 0.892232454755 1.28932496744 -0.282380017744 -0.282661297604 -1.06441918897 0.584665452945 0.49029286017 1.18918131044 -1.50050072921 0.12499970689
12.2505991481 0.888067214283 1.29153598476 -0.28147637941 -0.281757659271 -1.06584963336 0.584961452315 0.489953321446 1.18901836645 -1.50201222879 0.123791454131
12.2835075679 0.883899070839 1.29374610389 -0.280575658248 -0.280856938109 -1.0672751983 0.585256100756 0.489614273512 1.18885324064 -1.50353035145 0.122587378693
12.3148405046 0.879728038065 1.29595531498 -0.279677845552 -0.279959125413 -1.06869588141 0.585549394762 0.489275719576 1.18868593277 -1.50505506606 0.121387483571
12.3452729114 0.875554129626 1.29816360831 -0.27878293263 -0.27906421249 -1.07011168049 0.585841330972 0.488937662719 1.18851644276 -1.50658634155 0.12019177155
12.377278492 0.871343203286 1.30026937947 -0.277835508835 -0.278116788695 -1.07150668511 0.586128322678 0.488594671511 1.18835271656 -1.50801440759 0.119008483513
12.4080074849 0.867128617106 1.30237475544 -0.276891059231 -0.277172339092 -1.07289710148 0.586413336283 0.488252120203 1.18818590558 -1.50944997802 0.11782879791
12.4375583349 0.862911049114 1.30447911987 -0.275949666998 -0.276230946858 -1.07428279256 0.586697133843 0.487910013396 1.18801705827 -1.51089236074 0.116653156127
12.4659760993 0.85869051389 1.30658246294 -0.27501132274 -0.2752926026 -1.07566375536 0.586979711636 0.487568355349 1.18784617366 -1.51234152608 0.115481561238
12.4935773994 0.854467025851 1.30868477473 -0.274076017545 -0.274357297405 -1.07703998731 0.587261065469 0.487227150159 1.18767325069 -1.5137974435 0.114314016323
12.5203855881 0.850240599436 1.31078604542 -0.27314374251 -0.273425022371 -1.07841148604 0.587541191291 0.486886401792 1.18749828846 -1.51526008251 0.113150524255
12.5464233515 0.846011249101 1.31288626529 -0.272214488745 -0.272495768605 -1.07977824938 0.587820085194 0.486546114088 1.18732128622 -1.51672941267 0.111991087705
12.5722210508 0.84177898932 1.31498542478 -0.271288247366 -0.271569527226 -1.08114027534 0.588097743415 0.48620629076 1.18714224343 -1.51820540358 0.11083570914
12.598818627 0.837543834581 1.31708351439 -0.270365009503 -0.270646289363 -1.08249756211 0.58837416233 0.4858669354 1.18696115967 -1.5196880249 0.109684390822
12.6262407743 0.833305799387 1.31918052477 -0.269444766296 -0.269726046157 -1.08385010806 0.588649338456 0.485528051474 1.18677803474 -1.52117724636 0.108537134816
12.6547151342 0.829034569486 1.32117378143 -0.268472151452 -0.268753431313 -1.08518160053 0.588920321889 0.485184192079 1.18660153923 -1.52256314351 0.107402131057
12.6840777302 0.824759636417 1.32316645718 -0.267502609854 -0.267783889714 -1.08650863458 0.589189475858 0.48484071746 1.18642214913 -1.52395654388 0.106270617556
12.7146539281 0.820481714567 1.32515795778 -0.266536218424 -0.266817498284 -1.08783109161 0.589457520224 0.484497668167 1.18624085215 -1.52535680138 0.105143026225
12.7464937577 0.816200819341 1.3271482738 -0.265572967656 -0.265854247517 -1.08914896911 0.589724451144 0.484155048722 1.18605764724 -1.52676388697 0.104019359474
12.7799808619 0.811916966014 1.32913739573 -0.264612848478 -0.264894128339 -1.090462265 0.589990264336 0.483812863508 1.18587253321 -1.52817777079 0.102899619734
12.8155525169 0.807630169869 1.33112531416 -0.263655851824 -0.263937131684 -1.09177097736 0.590254955654 0.483471116786 1.18568550907 -1.52959842305 0.101783809234
12.8535861416 0.8033404462 1.33311201981 -0.262701968635 -0.262983248495 -1.0930751045 0.590518521091 0.483129812693 1.18549657396 -1.531025814 0.100671930008
12.8892062546 0.799047810307 1.33509750352 -0.261751189862 -0.262032469723 -1.09437464487 0.590780956775 0.482788955242 1.1853057272 -1.53245991394 0.0995639838885
12.9227846578 0.7947522775 1.33708175624 -0.260803506464 -0.261084786324 -1.09566959715 0.59104225897 0.482448548327 1.18511296826 -1.53390069321 0.0984599725156
12.9547547892 0.790453863091 1.33906476904 -0.259858909407 -0.260140189268 -1.09695996016 0.591302424075 0.482108595724 1.18491829677 -1.53534812222 0.0973598973326
12.987078759 0.786126093482 1.34094290978 -0.258862086701 -0.259143366561 -1.09822906973 0.591559114205 0.481763650002 1.184731061 -1.53669216496 0.096271874539
13.0180379886 0.781794581622 1.3428202843 -0.257868431809 -0.258149711669 -1.09949385977 0.591814111435 0.481419045656 1.18454110433 -1.53804372269 0.0951872252432
13.0478097492 0.777460077783 1.34469632119 -0.256878016499 -0.25715929636 -1.100754228 0.592068096301 0.481074855007 1.18434935828 -1.53940219162 0.0941063718632
13.0785046843 0.773122598174 1.34657101147 -0.255890831149 -0.256172111009 -1.1020101723 0.592321064855 0.480731082774 1.18415582172 -1.54076754326 0.0930293162467
13.1104677503 0.768782158898 1.3484443461 -0.254906866521 -0.255188146381 -1.10326169094 0.592573012737 0.48038773356 1.18396049342 -1.54213974837 0.0919560602696
13.144084037 0.764438776056 1.35031631613 -0.253926113386 -0.254207393246 -1.1045087824 0.592823935719 0.48004481185 1.18376337225 -1.54351877775 0.0908866056147
13.1797924538 0.760092465752 1.35218691276 -0.252948562519 -0.25322984238 -1.10575144533 0.593073829704 0.479702322004 1.18356445729 -1.54490460226 0.0898209537722
13.2181023542 0.755743244087 1.3540561273 -0.251974204701 -0.252255484561 -1.10698967858 0.593322690727 0.47936026827 1.18336374774 -1.5462971928 0.088759106041
13.2593208906 0.751391127162 1.3559239512 -0.251003030719 -0.251284310579 -1.10822348116 0.593570514952 0.479018654773 1.18316124296 -1.54769652031 0.0877010635302
13.2976816542 0.747036131073 1.357790376 -0.250035031366 -0.250316311226 -1.10945285227 0.593817298672 0.478677485527 1.18295694246 -1.54910255578 0.0866468271602
13.3337889637 0.742655632044 1.35955092669 -0.24901495723 -0.249296237091 -1.11066082193 0.594061289805 0.478331325116 1.18276082551 -1.55040519017 0.0856044187689
13.3680610794 0.738271355842 1.36131052697 -0.247998140971 -0.248279420831 -1.11186461775 0.594303712863 0.477985472546 1.1825621456 -1.55171536238 0.08456526383
13.4006920695 0.733884088179 1.36306862892 -0.246984650169 -0.247265930029 -1.1130641519 0.594545211876 0.477640028206 1.18236178247 -1.55303250748 0.0835297752946
13.4320710702 0.729493846049 1.36482522406 -0.245974475082 -0.246255754943 -1.11425942255 0.594785782813 0.477294996953 1.18215973495 -1.55435659743 0.0824979545366
13.4641023532 0.725100646352 1.36658030385 -0.244967606315 -0.245248886175 -1.11545042827 0.595025421256 0.476950383547 1.18195600171 -1.55568760353 0.081469802966
13.4977900869 0.720704505979 1.36833385985 -0.243964034475 -0.244245314335 -1.11663716781 0.595264122912 0.476606192635 1.18175058161 -1.55702549711 0.080445321805
13.5332197825 0.716305441817 1.37008588378 -0.242963750173 -0.243245030034 -1.11781964011 0.595501883616 0.476262428745 1.18154347361 -1.55837024955 0.0794245120895
13.57085397 0.711903470738 1.37183636747 -0.241966744025 -0.242248023885 -1.11899784428 0.595738699326 0.47591909629 1.18133467686 -1.55972183227 0.0784073746699
13.6112294038 0.707498609607 1.37358530288 -0.240973006648 -0.241254286508 -1.12017177961 0.595974566126 0.47557619957 1.18112419061 -1.56108021673 0.0773939102129
13.6553905672 0.703090875276 1.3753326821 -0.239982528664 -0.240263808525 -1.12134144558 0.59620948022 0.475233742772 1.18091201428 -1.56244537445 0.0763841192022
13.6961038158 0.698661499468 1.37697330405 -0.238940130041 -0.239221409902 -1.12248960731 0.596442248065 0.474886312761 1.18070871213 -1.56370715807 0.0753859105853
13.7340048544 0.694228315655 1.37861279307 -0.237901074884 -0.238182354744 -1.12363374557 0.596673561399 0.474539165228 1.18050299013 -1.56497651163 0.074390833272
13.7697334051 0.689792144567 1.38025062532 -0.236865427437 -0.237146707297 -1.12477378541 0.596904030488 0.474192425369 1.18029568039 -1.5662529059 0.0733992908115
13.8037506509 0.685353003956 1.38188679286 -0.235833177839 -0.2361144577 -1.12590972521 0.597133651249 0.473846098126 1.18008678171 -1.56753631323 0.0724112841843
13.8361384163 0.680910911494 1.38352128768 -0.234804316542 -0.235085596402 -1.12704156373 0.597362419225 0.473500188367 1.17987629274 -1.56882670537 0.0714268144129
13.8698635155 0.676465884835 1.38515410191 -0.233778833997 -0.234060113858 -1.12816929994 0.597590330084 0.473154700848 1.17966421228 -1.57012405412 0.070445882338
13.9053321917 0.672017941617 1.3867852278 -0.232756720658 -0.233038000518 -1.12929293297 0.597817379613 0.472809640207 1.17945053928 -1.57142833131 0.0694684886193
13.9430074455 0.667567099458 1.38841465774 -0.231737966978 -0.232019246838 -1.13041246212 0.598043563719 0.472465010975 1.1792352728 -1.57273950881 0.0684946337369
13.9834265659 0.663113375957 1.39004238424 -0.230722563414 -0.231003843274 -1.13152788688 0.598268878429 0.472120817568 1.17901841206 -1.57405755854 0.0675243179929
14.0276202055 0.658656788694 1.39166839995 -0.229710500424 -0.229991780285 -1.13263920692 0.598493319885 0.471777064297 1.17879995639 -1.57538245245 0.0665575415125
14.0681642065 0.654182427083 1.39318689625 -0.228646672845 -0.228927952705 -1.13372895885 0.598716225076 0.471428368437 1.17859100987 -1.57660403604 0.065602083838
14.1060710065 0.649704230665 1.39470407912 -0.227586269934 -0.227867549795 -1.13481484045 0.598937778657 0.471079936343 1.17837977275 -1.57783322947 0.0646496342713
14.1418046855 0.645223054784 1.39621944944 -0.226529353334 -0.226810633195 -1.13589678831 0.599158559768 0.470731915164 1.17816703342 -1.5790695362 0.0637005870612
14.1758265208 0.640738917925 1.39773299981 -0.225475913071 -0.225757192931 -1.13697480094 0.599378564297 0.470384309887 1.17795279069 -1.58031292893 0.062754942866
14.2082183715 0.636251838502 1.39924472278 -0.224425939449 -0.224707219309 -1.13804887725 0.599597787779 0.470037125443 1.17773704321 -1.58156337982 0.0618127023907
14.2419474284 0.631761834903 1.40075461105 -0.223379422774 -0.223660702634 -1.13911901633 0.599816225867 0.46969036665 1.17751978978 -1.58282086106 0.0608738661638
14.2774199469 0.627268925491 1.40226265745 -0.222336353349 -0.222617633209 -1.14018521744 0.600033874329 0.469344038215 1.17730102932 -1.58408534488 0.0599384345382
14.3150989417 0.622773128602 1.40376885495 -0.221296721477 -0.221578001337 -1.14124748 0.600250729046 0.468998144739 1.17708076088 -1.58535680353 0.059006407693
14.3555217032 0.618274462542 1.40527319663 -0.22026051746 -0.220541797321 -1.14230580363 0.600466786013 0.468652690713 1.17685898364 -1.58663520933 0.0580777856347
14.3994176972 0.613772945589 1.40677567573 -0.219227731602 -0.219509011462 -1.1433601881 0.600682041338 0.468307680522 1.1766356969 -1.5879205346 0.0571525681983
14.4399427404 0.609257523554 1.40816999602 -0.21814333796 -0.21842461782 -1.14439297364 0.600896334088 0.467957768006 1.17642250042 -1.58910264556 0.056238390926
14.4778185418 0.604738243906 1.40956282467 -0.217062445918 -0.217343725778 -1.14542204303 0.601109368147 0.467608105842 1.17620712971 -1.59029241257 0.0553270984506
14.5135226941 0.600215996196 1.41095368787 -0.215985115151 -0.216266395011 -1.14644734329 0.601321694032 0.467258860656 1.17599033317 -1.59148936909 0.0544190758563
14.5475161206 0.595690799617 1.41234257877 -0.214911335578 -0.215192615439 -1.14746887302 0.601533307636 0.466910037446 1.17577210964 -1.59269348813 0.0535143235414
14.5798806414 0.591162673298 1.41372949051 -0.213841097371 -0.214122377232 -1.1484866312 0.601744204513 0.466561641167 1.1755524578 -1.59390474218 0.0526128419543
14.6135809382 0.586631636335 1.4151144164 -0.212774390696 -0.213055670557 -1.14950061698 0.601954380328 0.466213676665 1.17533137646 -1.59512310378 0.051714631372
14.6490228927 0.582097707788 1.41649734984 -0.211711205718 -0.211992485579 -1.15051082969 0.602163830858 0.465866148678 1.17510886457 -1.5963485455 0.0508196919016
14.6866690795 0.577560906681 1.4178782844 -0.210651532599 -0.210932812459 -1.15151726882 0.602372551988 0.465519061839 1.17488492118 -1.59758103994 0.0499280234812
14.7270562723 0.573021252003 1.41925721377 -0.209595361497 -0.209876641357 -1.15251993403 0.60258053971 0.465172420678 1.17465954546 -1.59882055973 0.049039625882
14.7709255821 0.568478762702 1.42063413178 -0.20854268257 -0.208823962431 -1.15351882515 0.602787790124 0.464826229619 1.17443273672 -1.60006707756 0.0481544987089
14.8112384688 0.563926236205 1.42190237562 -0.207438552453 -0.207719832314 -1.15449611413 0.6029946157 0.464475183402 1.17421654743 -1.60121050508 0.0472801207225
14.8486729655 0.559369833267 1.42316895205 -0.206337996737 -0.206619276598 -1.15546984062 0.603200266254 0.46412437823 1.17399828848 -1.60236163994 0.0464085049179
14.8839608099 0.554810477231 1.42443341315 -0.205241073678 -0.205522353538 -1.15643996121 0.603405266046 0.463773998073 1.1737786717 -1.60352004308 0.0455400273816
14.9175575835 0.550248187976 1.42569575267 -0.204147773096 -0.204429052957 -1.15740647452 0.603609611002 0.463424047914 1.17355769599 -1.60468568777 0.0446746883054
14.9495441731 0.545682985319 1.42695596435 -0.20305808504 -0.203339364901 -1.15836937955 0.603813296725 0.463074532702 1.1733353601 -1.60585854683 0.0438124879339
14.9831837098 0.541114889034 1.4282140421 -0.201971999551 -0.202253279411 -1.15932867548 0.604016318922 0.46272545728 1.17311166289 -1.60703859309 0.0429534263454
15.0185614438 0.536543918854 1.42946997993 -0.200889506664 -0.201170786525 -1.16028436163 0.604218673406 0.462376826389 1.17288660335 -1.6082257994 0.042097503453
15.0561390706 0.531970094465 1.43072377201 -0.199810596413 -0.200091876273 -1.1612364375 0.604420356094 0.462028644665 1.17266018056 -1.60942013867 0.0412447190061
15.0964523418 0.527393435509 1.43197541264 -0.198735258824 -0.199016538685 -1.16218490278 0.604621363005 0.461680916643 1.17243239373 -1.61062158382 0.040395072592
15.1405657693 0.52281396158 1.43322489628 -0.197663483922 -0.197944763783 -1.16312975728 0.60482169026 0.461333646758 1.17220324219 -1.61183010783 0.0395485636374
15.1811799384 0.518228313458 1.43436531542 -0.196540413405 -0.196821693266 -1.16405302903 0.605022095034 0.460981573344 1.17198518944 -1.61293568971 0.0387125030452
15.2188866768 0.513638774047 1.43550389381 -0.195420986118 -0.195702265978 -1.16497289005 0.60522139997 0.460629734734 1.17176516082 -1.61404903414 0.0378790834081
15.2544308437 0.50904630005 1.43664021012 -0.194305259366 -0.194586539226 -1.16588930585 0.605420105283 0.460278330424 1.17154383481 -1.6151697273 0.0370486720127
15.2882713571 0.504450912009 1.43777425871 -0.193193222882 -0.193474502742 -1.16680227501 0.605618206965 0.45992736536 1.17132121038 -1.61629774269 0.0362212688902
15.3204897193 0.499852630402 1.43890603394 -0.192084866602 -0.192366146463 -1.16771179653 0.605815700693 0.459576844463 1.17109728636 -1.61743305339 0.035396874126
15.3514702757 0.495251475656 1.44003553031 -0.190980180455 -0.191261460315 -1.16861786953 0.606012582246 0.45922677255 1.17087206172 -1.61857563248 0.0345754876442
15.3812604414 0.490647468149 1.44116274245 -0.18987915436 -0.19016043422 -1.16952049333 0.606208847502 0.458877154339 1.17064553549 -1.61972545309 0.0337571092084
15.4101922711 0.486040628204 1.44228766517 -0.188781778233 -0.189063058093 -1.17041966738 0.606404492437 0.458527994447 1.17041770684 -1.62088248838 0.0329417384235
15.4382903619 0.481430976091 1.44341029337 -0.187688041981 -0.187969321842 -1.17131539132 0.606599513126 0.458179297392 1.17018857505 -1.62204671153 0.0321293747369
15.4655786095 0.476818532025 1.44453062211 -0.186597935509 -0.186879215369 -1.17220766493 0.60679390574 0.457831067595 1.16995813947 -1.62321809574 0.0313200174402
15.4920776338 0.47220376839 1.44554162168 -0.185456687312 -0.185737967173 -1.17307839322 0.606988843596 0.457478088191 1.16973923429 -1.62428670672 0.0305208000961
15.5180764861 0.467585102618 1.44655060959 -0.184319147371 -0.184600427232 -1.17394585944 0.607182749093 0.457125339515 1.1695184373 -1.62536313842 0.0297241044518
15.5435791324 0.462963524317 1.44755719184 -0.183185372442 -0.183466652303 -1.17481003751 0.607376100454 0.456773035054 1.16929639653 -1.62644700017 0.0289302892204
15.5698709714 0.458339054663 1.44856136338 -0.18205535218 -0.182336632041 -1.175670926 0.607568893766 0.456421179701 1.16907311109 -1.62753826568 0.028139354311
15.596707923 0.453711714772 1.4495631192 -0.180929076423 -0.181210356284 -1.17652852382 0.60776112481 0.45606977833 1.16884857993 -1.62863690825 0.0273512996875
15.6243750864 0.449081525699 1.45056245441 -0.179806534997 -0.180087814858 -1.17738283003 0.607952789461 0.455718835717 1.16862280211 -1.62974290121 0.026566125157
15.6528980043 0.44444850844 1.45155936429 -0.178687717721 -0.178968997581 -1.17823384388 0.608143883692 0.455368356537 1.16839577679 -1.63085621792 0.0257838303706
15.6823030011 0.439812683931 1.45255384422 -0.177572614404 -0.177853894264 -1.17908156474 0.608334403564 0.455018345371 1.16816750321 -1.63197683175 0.0250044148257
15.7126172081 0.435174073044 1.45354588977 -0.176461214848 -0.176742494708 -1.17992599219 0.608524345237 0.454668806701 1.16793798073 -1.63310471611 0.0242278778665
15.7441811008 0.430532696591 1.45453549662 -0.175353508846 -0.175634788706 -1.18076712593 0.608713704958 0.454319744915 1.1677072088 -1.63423984443 0.023454218686
15.7770158351 0.425892843336 1.45541563558 -0.174194812786 -0.174476092646 -1.18158676566 0.608904043888 0.453965987838 1.1674883533 -1.63527238596 0.0226903855049
15.8115545436 0.421249081131 1.45629359432 -0.173039886377 -0.173321166237 -1.18240328776 0.609093411011 0.453612458798 1.16726768127 -1.63631280845 0.0219289572187
15.8478776411 0.416602431997 1.45716900694 -0.171888786171 -0.172170066031 -1.18321667436 0.60928226445 0.453259383998 1.16704581305 -1.63736074254 0.0211702842231
15.8864591168 0.411952917721 1.45804186902 -0.170741501758 -0.171022781618 -1.18402692393 0.609470600415 0.452906768266 1.16682274791 -1.63841616209 0.0204143663364
15.9286809119 0.407300560031 1.45891217616 -0.169598022887 -0.169879302747 -1.18483403528 0.609658414816 0.452554616416 1.16659848493 -1.63947904063 0.0196612034318
15.9748862764 0.402645380586 1.4597799241 -0.168458339298 -0.168739619159 -1.18563800739 0.609845703654 0.452202933168 1.1663730233 -1.64054935169 0.0189107952301
16.026982955 0.397987400976 1.46064510873 -0.167322440719 -0.167603720579 -1.18643883939 0.610032463016 0.451851723145 1.16614636231 -1.64162706883 0.0181631413009
16.0881068489 0.393326642724 1.46150772608 -0.166190316867 -0.166471596728 -1.18723653057 0.610218689083 0.451500990874 1.16591850132 -1.64271216562 0.0174182410639
16.1667733795 0.388663127281 1.46236777234 -0.16506195745 -0.16534323731 -1.18803108038 0.610404378118 0.45115074079 1.1656894398 -1.64380461567 0.0166760937903
16.3247414166 0.38399687603 1.46322524381 -0.163937352165 -0.164218632026 -1.18882248842 0.610589526477 0.450800977234 1.16545917732 -1.6449043926 0.0159366986046
16.4581495379 0.384237161274 1.45962519976 -0.162091481083 -0.162372760944 -1.18820468338 0.610638353299 0.450620495323 1.16589246369 -1.64121038768 0.0161540264805
16.526855535 0.384469662183 1.45602712854 -0.160243513254 -0.160524793114 -1.18758779317 0.610685585443 0.450436022061 1.16632374098 -1.63751428289 0.0163694908439
16.5804093749 0.384697054298 1.45243060531 -0.158393728211 -0.158675008071 -1.18697203262 0.610732099516 0.450248365979 1.16675414568 -1.63381596122 0.0165839537677
16.6260379324 0.384921434302 1.44883529173 -0.156542253592 -0.156823533452 -1.18635730524 0.610778158855 0.45005803579 1.16718401082 -1.63011544875 0.0167978737029
16.6664791073 0.385137969335 1.44524177694 -0.154688813811 -0.154970093671 -1.18574368044 0.610822979223 0.449863781054 1.16761230657 -1.62641284265 0.0170100452935
16.7032128247 0.385349344192 1.44164970699 -0.152833601763 -0.153114881624 -1.18513113402 0.610866952323 0.449666315387 1.16803953259 -1.62270822285 0.0172211188071
16.7374644024 0.385558255047 1.43805875071 -0.150976806016 -0.151258085877 -1.18451963769 0.610910459937 0.449466348881 1.16846617668 -1.61900166555 0.017431737651
16.7697161058 0.38575925899 1.43446944519 -0.149118118677 -0.149399398538 -1.18390926873 0.61095276934 0.449262459629 1.16889127613 -1.61529314946 0.0176405819051
16.8000874388 0.385955056773 1.43088146646 -0.147257733164 -0.147539013024 -1.1833000037 0.610994262513 0.449055363725 1.16931531924 -1.6115827576 0.0178483057983
16.8289764567 0.386148359995 1.42729451368 -0.145395838396 -0.145677118257 -1.18269181548 0.611035309807 0.448845773957 1.16973878053 -1.60787056956 0.0180555560569
16.8567266206 0.38633369789 1.42370906157 -0.14353212664 -0.1438134065 -1.18208477554 0.611075203371 0.448632262613 1.17016072575 -1.604156558 0.0182610077144
16.883385004 0.386513786319 1.42012481662 -0.141666791696 -0.141948071557 -1.1814788614 0.611114313645 0.448415548316 1.17058162975 -1.60044080933 0.0184653181505
16.9092526033 0.386691351522 1.41654150881 -0.139800022873 -0.140081302733 -1.18087404864 0.611152999877 0.448196347446 1.17100195444 -1.59672340644 0.018669137976
16.9343499913 0.386860896476 1.41295954963 -0.137931512527 -0.138212792387 -1.18027039986 0.611190578831 0.447973224737 1.17142079319 -1.59300431594 0.0188711363974
16.9587018829 0.387025151402 1.40937867652 -0.136061454893 -0.136342734754 -1.1796678954 0.611227410099 0.447746902442 1.17183860858 -1.58928362748 0.0190719747787
16.9820980337 0.387186856341 1.40579865071 -0.134190039557 -0.134471319418 -1.17906651408 0.611263840359 0.447518100791 1.17225584824 -1.5855614275 0.0192723070167
17.0050255346 0.3873404897 1.40221981965 -0.132316959085 -0.132598238945 -1.17846630784 0.611299213102 0.447285376057 1.17267163541 -1.58183767612 0.0194707972591
17.0274952227 0.387488795214 1.39864195218 -0.130442408042 -0.130723687902 -1.17786726043 0.611333875693 0.447049454415 1.17308641883 -1.57811246646 0.0196681103099
17.04951751 0.387634525913 1.39506484123 -0.128566576254 -0.128847856114 -1.17726935513 0.611368161745 0.44681106063 1.17350063152 -1.57438588858 0.0198649033906
17.0710996006 0.387772137311 1.39148876943 -0.126689156571 -0.126970436431 -1.17667263097 0.611401443033 0.446568741321 1.17391342804 -1.57065789574 0.020059836019
17.0922514707 0.387904385827 1.38791353744 -0.124810343825 -0.125091623686 -1.17607707612 0.611434053826 0.446323227116 1.17432524244 -1.5669285847 0.0202535762186
17.1129827089 0.388034036642 1.38433897034 -0.122930328017 -0.123211607878 -1.1754826793 0.611466313753 0.446075247863 1.17473649224 -1.56319804927 0.0204467842764
17.1333004443 0.388155524084 1.38076528516 -0.121048802381 -0.121330082241 -1.17488946457 0.611497624864 0.445823339439 1.17514636531 -1.55946623544 0.0206381158347
17.1534129926 0.388271616405 1.37719231483 -0.119165961935 -0.119447241795 -1.17429742535 0.611528307215 0.445568237393 1.1755552799 -1.55573324377 0.0208282417313
17.1733232145 0.388385090103 1.37361991694 -0.117281996797 -0.117563276658 -1.17370655697 0.611558665634 0.44531067728 1.17596363719 -1.55199917199 0.0210178251112
17.1930323153 0.388490360007 1.37004824227 -0.115396600648 -0.115677880508 -1.17311686602 0.611588133935 0.445049182895 1.17637065978 -1.54826395842 0.0212055181986
17.2125430598 0.388590205359 1.36647715637 -0.113509968634 -0.113791248495 -1.1725283523 0.611617017125 0.444784495322 1.17677674926 -1.54452770758 0.0213919944099
17.2318580349 0.388687413168 1.36290654976 -0.111622290995 -0.111903570856 -1.17194101935 0.611645605249 0.444517356767 1.17718229084 -1.54079052111 0.0215779201012
17.2509787586 0.388776380389 1.35933650625 -0.109733261793 -0.110014541653 -1.17135485275 0.611673363651 0.444246276936 1.17758654097 -1.53705232964 0.0217619433671
17.2697203026 0.388859896475 1.35576692444 -0.107843076362 -0.108124356222 -1.17076986078 0.611700583101 0.443972003681 1.17798988593 -1.53331324145 0.0219447411095
17.2839154831 0.388920551656 1.35309002854 -0.10642472844 -0.1067060083 -1.17033213362 0.611721022151 0.443764544736 1.17829227402 -1.53050828741 0.0220815787083
17.2981094582 0.38897653543 1.35041335982 -0.105005631793 -0.105286911653 -1.16989480073 0.611740582203 0.443554705775 1.17859339562 -1.52770293036 0.0222170258121
17.3123023752 0.389029450477 1.34773689082 -0.103585939742 -0.103867219603 -1.16945825236 0.61176008476 0.443343149712 1.17889430374 -1.52489709346 0.0223519394642
17.326494334 0.38907928467 1.34506060212 -0.10216564793 -0.10244692779 -1.16902235948 0.611779312964 0.443129795868 1.17919471926 -1.52209084171 0.0224861579574
17.3406854291 0.389127929711 1.34238447656 -0.100744886349 -0.10102616621 -1.16858721008 0.611798562353 0.442915198177 1.17949503531 -1.51928421122 0.0226202245793
17.3548757979 0.389171894747 1.33970848812 -0.0993234348004 -0.0996047146608 -1.1681525535 0.611817164504 0.442698284863 1.17979435868 -1.51647721554 0.0227530314863
17.3690654919 0.389212775121 1.33703262671 -0.0979014260182 -0.0981827058787 -1.16771861867 0.611835639132 0.442479617818 1.18009336215 -1.51366983778 0.0228852336658
17.3832546137 0.389250563141 1.33435687334 -0.0964788626052 -0.0967601424657 -1.16728533245 0.61185386753 0.442259152021 1.18039189091 -1.51086212353 0.0230167387383
17.3974431398 0.389286847589 1.33168123201 -0.0950558576069 -0.0953371374673 -1.16685278705 0.611872107803 0.442037363573 1.18069028888 -1.50805410632 0.023148018818
17.4116314284 0.389318437552 1.32900563571 -0.0936322083902 -0.0939134882507 -1.1664207186 0.611889738293 0.441813253664 1.18098772162 -1.50524580136 0.0232780334666
17.4258194296 0.389346932443 1.32633009368 -0.0922080476594 -0.0924893275199 -1.16598936232 0.611907271158 0.441587388108 1.18128485405 -1.50243719265 0.0234074443309
17.4400072433 0.389372324956 1.32365458679 -0.0907833780144 -0.0910646578749 -1.16555864406 0.611924586182 0.441359721762 1.18158152948 -1.49962832651 0.0235361568557
17.4541947474 0.389396207654 1.32097913839 -0.0893583124686 -0.0896395923291 -1.16512866384 0.611941932413 0.441130735937 1.18187808245 -1.49681923843 0.0236646464137
17.4683825042 0.389415383462 1.31830364242 -0.0879326487521 -0.0882139286126 -1.16469914095 0.611958707896 0.440899421798 1.18217369911 -1.49400993972 0.0237918664871
17.4825703609 0.389431455347 1.31562812759 -0.0865065194539 -0.0867877993144 -1.16427031728 0.611975415913 0.440666349256 1.18246903505 -1.49120041558 0.0239184846605
17.4967584191 0.389444416451 1.31295257465 -0.0850799272721 -0.0853612071326 -1.16384211847 0.611991936283 0.440431473559 1.18276393363 -1.4883907127 0.0240444053156
17.5109464522 0.389455862607 1.31027702645 -0.083652985082 -0.0839342649425 -1.16341465255 0.612008507389 0.440195281314 1.18305871816 -1.48558086889 0.0241701060927
17.525135231 0.389462591516 1.30760133762 -0.082225491023 -0.0825067708835 -1.16298762033 0.612024548107 0.43995675272 1.18335259647 -1.48277089128 0.0242945348414
17.5393245 0.389466209243 1.30492555648 -0.0807975775574 -0.0810788574178 -1.16256127136 0.612040552556 0.439716462405 1.18364621464 -1.47996076631 0.0244183651872
17.5535143606 0.389466709352 1.30224966368 -0.0793692474423 -0.0796505273027 -1.16213553076 0.612056400116 0.439474365806 1.18393941548 -1.4771505411 0.0245415000646
17.5677044823 0.389465690504 1.29957372172 -0.0779406134396 -0.0782218933 -1.16171051583 0.612072318733 0.439230955551 1.18423251152 -1.47434025577 0.0246644197378
17.581895844 0.389459946089 1.29689754566 -0.0765114740871 -0.0767927539475 -1.16128590672 0.61208774849 0.438985199655 1.1845247324 -1.47152991313 0.0247860663272
17.5960880875 0.389451084804 1.29422120359 -0.0750819617054 -0.0753632415658 -1.16086196169 0.612103173987 0.438737678068 1.18481671443 -1.4687195009 0.024907119538
17.6102813141 0.38943910066 1.29154467605 -0.0736520791469 -0.0739333590074 -1.1604386056 0.612118474793 0.438488346584 1.18510830067 -1.46590906653 0.0250274812941
17.6244750879 0.38942559464 1.28886804534 -0.0722219389805 -0.072503218841 -1.16001596547 0.612133867104 0.438237704075 1.18539979137 -1.46309865271 0.0251476336682
17.6386706002 0.389407356768 1.28619108671 -0.070791340193 -0.0710726200534 -1.15959369911 0.612148813509 0.437984705439 1.18569043926 -1.46028825762 0.0252665136898
17.652867386 0.389385997906 1.28351388816 -0.0693604149391 -0.0696416947995 -1.1591720744 0.612163788594 0.437729936518 1.18598087047 -1.45747787031 0.0253848070495
17.6670655465 0.389361512461 1.28083643012 -0.0679291660828 -0.0682104459433 -1.15875101532 0.612178670968 0.437473353046 1.18627092683 -1.45466753884 0.0255024137554
17.6812645415 0.389335503352 1.27815881483 -0.0664977061078 -0.0667789859683 -1.15833066052 0.612193666517 0.437215461282 1.18656089831 -1.45185730816 0.0256198189572
17.6954657737 0.389304758104 1.27548077753 -0.0650658343937 -0.0653471142542 -1.1579106429 0.612208260091 0.436955201544 1.18685006009 -1.44904717179 0.0257359540824
17.7096686722 0.389270889297 1.27280242621 -0.0636336829277 -0.0639149627882 -1.15749124115 0.612222916082 0.436693166249 1.18713902808 -1.44623712017 0.0258515109397
17.7238733385 0.389233891759 1.27012374126 -0.0622012546297 -0.0624825344902 -1.15707237866 0.612237512885 0.436429311276 1.1874276438 -1.44342720176 0.0259663881581
17.7380791268 0.389195369835 1.26744484492 -0.0607686617967 -0.0610499416572 -1.15665420605 0.612252244399 0.436164150404 1.187716185 -1.4406174642 0.0260810728247
17.7522876535 0.389152109468 1.26476543224 -0.0593357042377 -0.0596169840982 -1.15623632943 0.612266618894 0.43589660835 1.18800395043 -1.43780789599 0.0261944913763
17.7664982382 0.389105724515 1.26208563135 -0.0579025137762 -0.0581837936366 -1.15581903948 0.612281090456 0.435627284815 1.1882915458 -1.43499848897 0.0263073419049
17.7807109849 0.389056210201 1.25940542256 -0.0564690933573 -0.0567503732177 -1.15540225879 0.612295536898 0.435356135672 1.1885788119 -1.43218929211 0.0264195213432
17.7949251412 0.389005171864 1.25672494825 -0.0550355551012 -0.0553168349616 -1.15498615115 0.612310140092 0.435083682897 1.18886601435 -1.42938035574 0.026531518815
17.8091425357 0.388949394742 1.25404386311 -0.053601699244 -0.0538829791045 -1.15457029364 0.612324432335 0.434808834384 1.1891524759 -1.42657166314 0.026642255995
17.823362384 0.388890493518 1.25136231547 -0.0521676574226 -0.0524489372831 -1.15415498997 0.612338856892 0.434532197704 1.18943879161 -1.42376320765 0.026752437081
17.8375847874 0.388828463807 1.24868028562 -0.0507334325962 -0.0510147124566 -1.15374016183 0.612353290905 0.434253728664 1.18972480138 -1.42095503875 0.026861957207
17.8518088877 0.388764911505 1.24599793614 -0.0492991367262 -0.0495804165866 -1.15332598746 0.612367904289 0.433973958164 1.19001075901 -1.41814720952 0.0269713077188
17.8660367277 0.388696622004 1.24331488123 -0.0478645704433 -0.0481458503038 -1.1529120124 0.612382253551 0.433691775894 1.19029601111 -1.41533969781 0.0270794054477
17.8802674143 0.388625210384 1.24063128951 -0.0464298652109 -0.0467111450714 -1.15249855473 0.612396771148 0.433407798064 1.1905811423 -1.41253249851 0.0271869609228
17.8945010532 0.388550672652 1.23794714124 -0.04499502402 -0.0452763038805 -1.15208553536 0.612411333898 0.433121980489 1.19086599204 -1.40972566151 0.0272938677372
17.9087366723 0.3884746148 1.23526261933 -0.0435601586102 -0.0438414384707 -1.15167314766 0.612426098588 0.432834863335 1.19115080098 -1.40691924296 0.027400618608
17.9229765351 0.388393823242 1.23257729729 -0.0421250700356 -0.042406349896 -1.15126090358 0.612440647065 0.432545316995 1.19143494067 -1.4041132149 0.0275061262631
17.9372196376 0.388309913006 1.22989136417 -0.0406898895489 -0.0409711694094 -1.1508491365 0.612455400222 0.432253966842 1.19171898454 -1.40130757391 0.0276111071317
17.9514660867 0.388222880496 1.22720480017 -0.0392546201825 -0.0395359000429 -1.15043776662 0.612470234775 0.431960768745 1.19200277187 -1.39850237029 0.0277154534338
17.965714802 0.388134331374 1.22451780863 -0.0378193734635 -0.0381006533239 -1.15002700372 0.612485294293 0.43166627283 1.19228653022 -1.3956976633 0.0278196592609
17.9799682624 0.388041053904 1.22182992224 -0.0363839508401 -0.0366652307006 -1.14961632358 0.612500186239 0.431369328806 1.19256965613 -1.39289341897 0.0279226333263
17.9942253582 0.387944662653 1.21914135054 -0.0349484833802 -0.0352297632407 -1.14920607634 0.612515320125 0.431070572039 1.1928527122 -1.39008963556 0.0280250982743
18.0084861923 0.387845154384 1.21645207373 -0.0335129740981 -0.0337942539586 -1.14879618101 0.612530571739 0.430769958168 1.19313553651 -1.38728636395 0.0281269442448
18.0227495786 0.387744134031 1.2137623156 -0.0320775343502 -0.0323588142106 -1.14838686534 0.612546071816 0.430468048134 1.19341834419 -1.38448366649 0.0282286670982
18.0370182127 0.387638392519 1.21107156794 -0.0306419659451 -0.0309232458056 -1.14797756628 0.612561453667 0.430163669544 1.19370055669 -1.38168150297 0.0283291716187
18.0512908738 0.387529543534 1.20838006083 -0.0292063997627 -0.0294876796232 -1.14756865199 0.612577115166 0.429857468453 1.19398272567 -1.37887987345 0.0284291865926
18.0655676661 0.387417584205 1.20568777447 -0.0277708388254 -0.0280521186858 -1.14716004049 0.612592931635 0.429549400392 1.19426468859 -1.37607882924 0.0285286004563
18.0798472968 0.387304118307 1.20299495321 -0.0263353942729 -0.0266166741334 -1.14675197838 0.612609020021 0.429240037564 1.1945466471 -1.3732784361 0.0286279100756
18.0941326751 0.38718594023 1.2003010478 -0.0248998682793 -0.0251811481398 -1.14634386136 0.612625040312 0.428928184226 1.19482804829 -1.3704786472 0.0287260169529
18.1084224734 0.38706466237 1.19760630893 -0.023464391527 -0.0237456713875 -1.14593607685 0.612641378383 0.42861449779 1.1951094326 -1.3676794645 0.0288236558224
18.1227167973 0.386940282205 1.19491071683 -0.0220289670269 -0.0223102468873 -1.14552854174 0.612657908849 0.428298933585 1.19539063655 -1.36488093981 0.0289207132004
18.1370142401 0.386814401964 1.19221453644 -0.0205937057354 -0.0208749855958 -1.14512152299 0.612674735115 0.427982075912 1.1956718488 -1.36208314234 0.0290176871974
18.1513179332 0.386683820264 1.18951717738 -0.0191584101413 -0.0194396900017 -1.14471437218 0.612691543839 0.427662704143 1.19595254175 -1.35928601839 0.0291134760111
18.1656264365 0.386550147829 1.18681891104 -0.017723210765 -0.0180044906255 -1.14430749756 0.612708709228 0.427341487938 1.19623324519 -1.35648957182 0.0292088207008
18.179939857 0.386413382464 1.18411971765 -0.0162881105747 -0.0165693904351 -1.14390081464 0.612726104759 0.427018382278 1.19651379417 -1.35369385506 0.029303605475
18.1942566783 0.386275124464 1.18141988284 -0.0148532203491 -0.0151345002096 -1.14349461212 0.612743820106 0.426693984267 1.19679436429 -1.35089894086 0.0293983295398
18.2085802512 0.386132177424 1.17871877498 -0.0134183428731 -0.0136996227335 -1.14308819469 0.612761569087 0.426367046997 1.19707445353 -1.34810476833 0.0294918882383
18.2229090259 0.385986150002 1.17601668622 -0.0119836084903 -0.0122648883507 -1.14268199273 0.612779713792 0.426038253032 1.19735458066 -1.3453113434 0.0295850286296
18.2372431052 0.385837040342 1.17331359679 -0.0105490201594 -0.0108303000199 -1.14227592058 0.612798127136 0.425707557164 1.19763457999 -1.34251871894 0.0296776331149
18.2515808672 0.3856864464 1.17060981309 -0.00911468844611 -0.00939596830658 -1.14187028977 0.612816884211 0.425375569826 1.19791461314 -1.33972697161 0.0297702012276
18.2659258793 0.385531177489 1.16790466214 -0.00768041642443 -0.00796169628491 -1.1414643554 0.612835726686 0.42504101647 1.19819420424 -1.33693603287 0.029861626151
18.2802764835 0.385372839824 1.16519845689 -0.00624633426308 -0.00652761412356 -1.14105857134 0.612855004339 0.424704593298 1.19847386093 -1.33414591084 0.0299526607993
18.2946327811 0.385211431857 1.16249117762 -0.00481244487924 -0.00509372473971 -1.14065285055 0.612874589056 0.424366254767 1.1987534162 -1.33135665895 0.0300431853513
18.3089930405 0.385048548868 1.15978315151 -0.00337885866951 -0.00366013852999 -1.14024752909 0.612894541764 0.424026625558 1.1990330184 -1.32856835778 0.0301337000033
18.3233610485 0.384881006569 1.15707366415 -0.00194537894239 -0.00222665880286 -1.1398418093 0.612914631894 0.423684401861 1.19931221736 -1.32578093086 0.0302230958246
