liuchen18/hilsys_new/sim_sys/data/fwx_planned_trajectory_cezheng.txt
this is the FWX joint values,the following info is time,x,y,theta,joint1,joint2,joint3,joint4,joint5,joint6,joint7
0.0 2.01377541639 0.445178966657 -0.386744434048 -0.00134935627891 0.23868414606 -0.315562793568 -1.36979224408 1.39829817703 -0.893203536323 0.176766607576
0.102015623129 2.01002318553 0.445325462032 -0.386648625266 -0.00214924881162 0.237440800497 -0.316018352444 -1.37117251105 1.39821576642 -0.891957957021 0.176980899861
0.180928590399 2.0062716065 0.44547150348 -0.386553104787 -0.00294931511395 0.236196108757 -0.316475516658 -1.37255261316 1.39813216623 -0.890710284299 0.177193670236
0.247578988285 2.00252067863 0.44561708915 -0.386457868708 -0.00374955346328 0.234950071484 -0.316934290781 -1.37393254284 1.39804737407 -0.889460521826 0.17740491106
0.306687952252 1.99877040126 0.445762217076 -0.386362913043 -0.00454996212203 0.233702689422 -0.31739467926 -1.37531229243 1.39796138802 -0.888208673398 0.17761461563
0.360225190151 1.99502077372 0.44590688532 -0.38626823387 -0.00535053938709 0.232453963339 -0.317856686604 -1.37669185426 1.39787420607 -0.886954742888 0.177822777093
0.419482298378 1.99052172899 0.446080203178 -0.386154694453 -0.00631107725433 0.230954260725 -0.318412559155 -1.37834753167 1.39776874881 -0.885447526445 0.178072088691
0.474133544014 1.9860238529 0.446252418077 -0.386041426241 -0.00727195702218 0.229452163308 -0.318971127227 -1.38000217339 1.39766039948 -0.883937020883 0.17831768893
0.525606835246 1.98152690768 0.446423958762 -0.385928538934 -0.00823307404754 0.227948130165 -0.319532025867 -1.38165652594 1.39755042196 -0.882423542564 0.17856111977
0.574086967064 1.97703089318 0.446594825129 -0.385816024607 -0.00919442180827 0.226442166138 -0.320095283554 -1.38331055803 1.39743871078 -0.880907094327 0.178802284271
0.620204611877 1.97253580815 0.446765013881 -0.385703876479 -0.0101559972539 0.224934272691 -0.320660908067 -1.38496425607 1.39732526241 -0.879387683156 0.179041170545
0.664515774939 1.96804143199 0.446934936951 -0.385592194072 -0.0111176920814 0.223424887173 -0.321228584431 -1.38661831329 1.39721113226 -0.877865594757 0.179279118988
0.707086921345 1.96354821785 0.447103737503 -0.385480750573 -0.0120797174028 0.221913114295 -0.321799015313 -1.38827122956 1.39709399031 -0.876340256091 0.179513205017
0.748397559718 1.95905592766 0.447271845851 -0.385369653814 -0.0130419655234 0.220399411196 -0.322371806474 -1.38992379738 1.39697524935 -0.874811980398 0.179745100499
0.78848500982 1.95456456171 0.447439263478 -0.385258896187 -0.0140044289826 0.21888378497 -0.32294699537 -1.39157597642 1.39685475785 -0.873280770365 0.179974670427
0.827385500042 1.95007411863 0.447605987146 -0.38514847091 -0.0149671046203 0.217366237244 -0.323524589752 -1.39322775277 1.39673251226 -0.871746633293 0.18020190285
0.865136133057 1.94558436516 0.447772461665 -0.385038482536 -0.0159298709245 0.215847236996 -0.32410425379 -1.39487988443 1.39660963932 -0.870209866667 0.180428234736
0.902133419993 1.94109576541 0.447937791841 -0.384928702084 -0.0168929590365 0.214325854534 -0.324686712884 -1.39653078382 1.39648372464 -0.86866989362 0.180650626174
0.938394305718 1.9366080826 0.44810241347 -0.384819233701 -0.0178562534365 0.212802549599 -0.32527157089 -1.39818126613 1.39635619566 -0.867127019015 0.180870768814
0.973933441842 1.93212131698 0.448266328278 -0.384710070651 -0.0188197472855 0.211277329971 -0.325858865031 -1.39983129 1.39622690009 -0.865581247092 0.18108852685
1.00876520762 1.92763546708 0.448429533094 -0.38460120617 -0.0197834373208 0.209750197452 -0.326448603044 -1.40148084117 1.39609583426 -0.864032585451 0.181303888187
1.04290544472 1.9231503012 0.448592478553 -0.384492742722 -0.0207471954986 0.20822162457 -0.327040447127 -1.40313069909 1.39596413675 -0.862481325487 0.181518307065
1.07636444123 1.91866628002 0.448754258228 -0.384384456472 -0.0217112664811 0.206690675588 -0.327635126393 -1.40477923147 1.39582936825 -0.860926904732 0.181728707672
1.10915751187 1.91418316818 0.448915313319 -0.384276447657 -0.0226755267236 0.205157812692 -0.328232242884 -1.40642727665 1.39569297078 -0.859369619392 0.181936801469
1.14129790703 1.9097009659 0.44907564582 -0.384168710459 -0.0236399700266 0.203623044404 -0.328831833708 -1.40807479212 1.39555479064 -0.857809475265 0.182142451333
1.17311363408 1.9052196716 0.449235252616 -0.38406123813 -0.0246045930392 0.202086372683 -0.329433906469 -1.40972176338 1.39541482459 -0.85624648026 0.182345645467
1.20460958937 1.90073905529 0.449394590085 -0.383954130889 -0.0255692610462 0.200548273486 -0.330038121496 -1.41136899176 1.39527422289 -0.854680919449 0.182547855353
1.23578580252 1.89625957394 0.44955274074 -0.383847170415 -0.0265342325558 0.199007805313 -0.330645211356 -1.41301479939 1.39513052176 -0.853112245247 0.182745969504
1.26664713239 1.89178099372 0.449710151116 -0.383740452819 -0.0274993757927 0.197465432649 -0.331254776451 -1.41466004816 1.39498517728 -0.851540744918 0.182941718878
1.29719675443 1.88730331486 0.449866823473 -0.383633973235 -0.0284646852347 0.195921164773 -0.331866853718 -1.41630469443 1.39483803458 -0.849966425841 0.183134965216
1.32743782827 1.88282653564 0.450022754754 -0.383527724933 -0.0294301574441 0.194375003807 -0.33248145061 -1.41794872345 1.39468909087 -0.848389296228 0.183325697078
1.35737499175 1.87835042794 0.450178407008 -0.383421805733 -0.0303956508904 0.192827429017 -0.33309822576 -1.41959295884 1.39453950764 -0.846809634591 0.183515402827
1.38700830409 1.87387544473 0.450332851858 -0.383316003195 -0.0313614382544 0.191277493435 -0.333717914864 -1.42123567631 1.39438679732 -0.845226908716 0.183700935824
1.41634236561 1.86940135387 0.4504865411 -0.383210409087 -0.0323273793294 0.189725663687 -0.334340116854 -1.4228777617 1.3942324296 -0.843641396639 0.183884046201
1.44538019781 1.86492815557 0.450639477252 -0.383105019524 -0.0332934693076 0.188171949815 -0.334964868409 -1.42451917029 1.39407624881 -0.842053107346 0.184064594897
1.47412480049 1.86045584798 0.450791657343 -0.382999827815 -0.03425970466 0.186616354144 -0.335592176957 -1.42615988699 1.39391825196 -0.840462049341 0.184242570269
1.50258057466 1.85598420499 0.450943548982 -0.382894929204 -0.0352259369089 0.18505935908 -0.336221699434 -1.42780075824 1.39375961214 -0.838868494352 0.184419477966
1.53074759333 1.85151367531 0.451094213102 -0.382790117512 -0.0361924532244 0.183500012521 -0.336854174415 -1.4294400124 1.39359781831 -0.837271926003 0.18459213635
1.55863022199 1.8470440286 0.451244106671 -0.382685479942 -0.0371591047735 0.181938783054 -0.337489199492 -1.43107855972 1.39343435353 -0.835672612835 0.18476231462
1.58623133215 1.84257526505 0.45139323247 -0.382581013626 -0.0381258874929 0.180375681509 -0.338126811076 -1.43271635441 1.39326906131 -0.834070565448 0.184929872892
1.61355377361 1.83810738273 0.451541587616 -0.382476711916 -0.0390927977699 0.178810710425 -0.338767016547 -1.43435338102 1.39310193851 -0.832465792644 0.185094799399
1.64060171648 1.83364015762 0.451689645188 -0.382372667323 -0.0400596800393 0.177244355197 -0.33940947131 -1.43599050925 1.39293416945 -0.830858559131 0.185258616775
1.6671101707 1.82917403393 0.451836455631 -0.3822686803 -0.0410268362764 0.17567565894 -0.3400549165 -1.43762591921 1.3927632202 -0.829248364844 0.185418108839
1.69361344436 1.82470878323 0.45198248098 -0.382164833256 -0.0419941088271 0.17410509199 -0.340702948446 -1.43926054608 1.39259058719 -0.827635468545 0.185575063931
1.72011153549 1.82024440572 0.452127724308 -0.382061124391 -0.0429614944061 0.172532666034 -0.341353603409 -1.44089434287 1.3924161125 -0.826019882484 0.185729340823
1.74660445395 1.81578089933 0.452272182799 -0.381957547093 -0.0439289893211 0.17095838379 -0.342006888577 -1.44252729388 1.39223979352 -0.82440161574 0.1858809282
1.77309352006 1.81131804236 0.452416334923 -0.381854190985 -0.0448964307862 0.169382733507 -0.342662458062 -1.44416029242 1.39206282502 -0.822780925787 0.186031365077
1.79957612279 1.80685627418 0.452559220827 -0.381750863517 -0.0458641358879 0.167804753866 -0.343321055145 -1.44579146957 1.39188265123 -0.821157329317 0.186177401571
1.82605360615 1.80239536843 0.452701307551 -0.381647642104 -0.046831937963 0.166224916796 -0.343982275195 -1.44742178573 1.39170078083 -0.819531075067 0.186320844294
1.85252597013 1.79793532531 0.45284259843 -0.381544526032 -0.047799834537 0.164643234822 -0.344646154159 -1.44905119283 1.39151705526 -0.817902176934 0.186461551334
1.87899322657 1.79347614264 0.45298309073 -0.381441508727 -0.0487678218381 0.163059710858 -0.345312699062 -1.45067967493 1.39133147227 -0.816270644269 0.186599511691
1.90545667604 1.78901760113 0.453123268211 -0.381338676775 -0.0497357297355 0.161474835843 -0.345981562895 -1.45230814933 1.39114523667 -0.814636727101 0.186736280442
1.93191374503 1.78456013507 0.453262160948 -0.381235844995 -0.0507038907244 0.159887644429 -0.346653490757 -1.45393469719 1.39095577134 -0.812999959324 0.186868574435
1.95836575978 1.78010352029 0.453400240863 -0.381133085568 -0.0516721289432 0.158298609886 -0.347328077116 -1.45556030468 1.39076459745 -0.811360579375 0.186998218768
1.98481272027 1.775647757 0.453537511568 -0.381030398909 -0.0526404427612 0.156707745619 -0.348005357641 -1.45718492259 1.39057155555 -0.809718602819 0.187125070644
2.01125464032 1.77119284291 0.453673970439 -0.380927778522 -0.0536088283416 0.155115054801 -0.348685339314 -1.45880853458 1.390376643 -0.808074039302 0.187249118799
2.03769280668 1.76673856129 0.453810106387 -0.380825307756 -0.0545771080731 0.153521030811 -0.349367674011 -1.46043208258 1.39018107524 -0.806427131158 0.187371934838
2.06412467349 1.76228534105 0.453944939645 -0.380722809169 -0.0555456301488 0.151924704699 -0.350053108283 -1.46205359694 1.38998225443 -0.80477742992 0.187490202905
2.09055155709 1.75783296035 0.454078946938 -0.380620349519 -0.0565142093365 0.150326550888 -0.350741235983 -1.46367408989 1.38978171323 -0.803125163495 0.187605765787
2.11697345749 1.75338141943 0.454212132139 -0.380517930366 -0.057482844876 0.148726583671 -0.351432092416 -1.4652935112 1.38957929172 -0.801470349111 0.18771848015
2.14339038652 1.74893071587 0.454344492728 -0.380415545281 -0.058451532865 0.147124806456 -0.352125684431 -1.46691184419 1.38937498731 -0.79981299669 0.18782833484
2.16980361516 1.74448063566 0.454476522673 -0.380313274246 -0.0594200881023 0.145521714907 -0.352821663087 -1.46853005573 1.38917002502 -0.798153340691 0.187936917134
2.19621063304 1.74003160205 0.454607232596 -0.380210947909 -0.0603888747507 0.143916336907 -0.353520775948 -1.47014612453 1.38896178729 -0.796490950687 0.188040879355
2.22261274074 1.73558339567 0.454737103914 -0.380108627393 -0.0613576980349 0.142309147788 -0.354222616419 -1.47176108934 1.38875181793 -0.794826043814 0.188142081709
2.24900993629 1.73113601676 0.454866140773 -0.380006315441 -0.0623265580992 0.140700162768 -0.354927219465 -1.47337489885 1.3885399564 -0.793158638982 0.188240380206
2.27540223546 1.72668946281 0.454994340746 -0.379904005682 -0.0632954509737 0.139089385485 -0.355634591742 -1.47498753611 1.38832620038 -0.791488746368 0.188335764015
2.30179089147 1.72224352263 0.455122202752 -0.379801774593 -0.0642641837611 0.13747731369 -0.356344383712 -1.47659999332 1.38811178397 -0.789816592364 0.188429835621
2.32817342751 1.71779861359 0.455248728043 -0.379699461259 -0.0652331368557 0.135862972566 -0.357057343527 -1.4782101967 1.38789407068 -0.788141764983 0.1885192163
2.35455113034 1.71335451886 0.455374402609 -0.379597120939 -0.0662021057629 0.134246838083 -0.357773064281 -1.47981921201 1.38767461537 -0.786464470336 0.188605783574
2.38092399797 1.70891123875 0.455499230893 -0.37949475764 -0.0671710915861 0.132628926464 -0.358491580707 -1.48142698672 1.38745325618 -0.784784729071 0.188689392246
2.40729204621 1.70446877061 0.455623210547 -0.37939236502 -0.0681400902724 0.131009241544 -0.359212899166 -1.48303350373 1.38722999163 -0.783102551574 0.188770032268
2.43365651048 1.70002690624 0.455746845321 -0.379290015905 -0.0691089011291 0.129388282945 -0.359936669735 -1.48463978097 1.38700606438 -0.781418155988 0.18884932089
2.4600149515 1.69558605682 0.455869127346 -0.379187558152 -0.0700779210239 0.127765073643 -0.360663640686 -1.48624369133 1.38677881999 -0.779731149137 0.188923849283
2.48636863824 1.69114600825 0.455990547097 -0.379085040999 -0.0710469356066 0.126140090025 -0.361393405125 -1.48784632791 1.38654982326 -0.778041725927 0.18899551134
2.5127175707 1.68670676085 0.456111109265 -0.378982469669 -0.0720159469319 0.12451334926 -0.362125997325 -1.48944763719 1.38631891223 -0.776349908672 0.189064161684
2.53906176271 1.68226831187 0.456230811632 -0.378879837926 -0.0729849509038 0.122884855475 -0.362861423535 -1.49104760167 1.38608608515 -0.774655708034 0.18912979015
2.56540243391 1.67783045623 0.45635016263 -0.378777214769 -0.0739537389228 0.12125510989 -0.363599333576 -1.49264726555 1.3858525933 -0.772959333689 0.189194028726
2.59173718053 1.67339359865 0.456468145541 -0.378674457169 -0.0749227245639 0.119623133807 -0.364340475395 -1.49424444755 1.38561576506 -0.771260411645 0.189253439298
2.61806725773 1.66895752788 0.456585255194 -0.378571608136 -0.0758916834671 0.117989403739 -0.36508444229 -1.49584026851 1.38537717485 -0.769559125377 0.189309931838
2.64439266355 1.66452224427 0.456701496535 -0.378468674137 -0.0768606186664 0.116353937832 -0.365831268073 -1.49743467397 1.38513666061 -0.76785549887 0.189363360769
2.6707134118 1.66008774498 0.45681686749 -0.378365649081 -0.0778295260475 0.114716740548 -0.366580958923 -1.49902764593 1.38489421994 -0.766149543092 0.189413715552
2.69703070437 1.65565382816 0.456931881025 -0.378262597961 -0.0787981889926 0.113078314411 -0.367333164553 -1.50062025538 1.38465111281 -0.764441459032 0.189462642859
2.72334217695 1.65122089183 0.457045511844 -0.378159387185 -0.0797670379977 0.111437679609 -0.368088632098 -1.50221026603 1.38440465124 -0.762730892227 0.189506676227
2.74964906696 1.64678872769 0.457158259021 -0.378056053364 -0.0807358385653 0.109795312508 -0.368846955307 -1.50379882685 1.38415641861 -0.76101801454 0.18954774106
2.77595137044 1.64235733616 0.457270127763 -0.377952604264 -0.081704594751 0.108151232286 -0.36960816758 -1.50538588234 1.38390625245 -0.759302851656 0.189585691349
2.80224910517 1.63792671426 0.457381116106 -0.377849033861 -0.0826733023797 0.10650544366 -0.370372274828 -1.50697141427 1.38365415077 -0.757585414754 0.189620517071
2.82854345132 1.63349666356 0.457491741448 -0.377745403079 -0.0836417367776 0.10485845027 -0.371138927046 -1.5085565206 1.38340138082 -0.755865896044 0.18965387835
2.85483208405 1.62906757507 0.457600970182 -0.377641588046 -0.0846103455397 0.103209271749 -0.371908869993 -1.51013890931 1.38314523956 -0.754143960892 0.189682281669
2.88111622498 1.62463924362 0.457709305506 -0.377537618801 -0.0855788839078 0.101558384014 -0.372681698118 -1.51171975789 1.38288731874 -0.752419769364 0.189707667306
2.90739587018 1.62021166964 0.457816752874 -0.377433504406 -0.0865473569684 0.0999058072738 -0.373457444332 -1.51329900986 1.38262745582 -0.750693348815 0.189729889126
2.9336710374 1.61578485008 0.457923310458 -0.377329238965 -0.0875157605234 0.0982515465692 -0.374236114376 -1.51487664663 1.38236564862 -0.748964710686 0.189748937129
2.95994288315 1.61135859 0.458029499929 -0.377224879168 -0.0884838617521 0.0965961063361 -0.375017358702 -1.51645379365 1.38210317163 -0.747234038212 0.189766484738
2.98620912994 1.6069332732 0.458134279666 -0.377120311157 -0.0894521255217 0.0949385062704 -0.375801921163 -1.51802810234 1.38183730763 -0.74550101689 0.189779012436
3.0124709777 1.6025086977 0.458238156847 -0.377015558211 -0.0904202966832 0.0932792214983 -0.376589397115 -1.51960077916 1.38156965647 -0.743765794791 0.189788475026
3.03925619615 1.59808486402 0.458341137206 -0.376910630792 -0.0913883814352 0.0916182733697 -0.377379819114 -1.52117176648 1.38130005471 -0.742028401031 0.189794725576
3.06630475081 1.59366176896 0.458443219013 -0.376805523036 -0.0923563754928 0.0899556671556 -0.378173192535 -1.52274104557 1.38102850103 -0.740288847191 0.189797755019
3.09362040919 1.58923922129 0.458544928086 -0.37670028733 -0.0933240378642 0.0882919078443 -0.378969168634 -1.52430976968 1.38075627617 -0.738547307435 0.189799249099
3.12120346338 1.58481759727 0.458645215078 -0.376594820085 -0.0942918508239 0.0866260158188 -0.379768488763 -1.52587553292 1.38048064992 -0.736803487655 0.189795663631
3.14905777954 1.58039669827 0.458744591032 -0.376489137691 -0.0952595487504 0.0849584651116 -0.380570749506 -1.52743957103 1.38020322933 -0.735057523797 0.18978896708
3.17718602 1.57597652488 0.458843061924 -0.37638325196 -0.09622713893 0.0832892781639 -0.381375982912 -1.52900182543 1.37992385091 -0.733309446648 0.189779012427
3.20559090232 1.5715570738 0.458940626169 -0.376277157166 -0.0971946170624 0.0816184605909 -0.382184194152 -1.53056227703 1.37964251315 -0.731559268037 0.189765790687
3.22949545153 1.56787464362 0.459021615657 -0.376188610543 -0.0980005477593 0.0802251747342 -0.382859895239 -1.53186213564 1.37940750481 -0.73009917205 0.189753464988
3.25339591747 1.56419284233 0.459101611623 -0.376099892772 -0.0988065782849 0.0788304321114 -0.383537942793 -1.53315984205 1.37917008072 -0.728637545889 0.189737535022
3.27729319021 1.56051153301 0.459180968878 -0.376011003418 -0.0996125120984 0.0774345532844 -0.384218046009 -1.53445629412 1.37893142809 -0.727174465685 0.189719433808
3.30118725988 1.5568307171 0.459259692839 -0.375921954737 -0.100418357223 0.0760375562813 -0.384900229798 -1.53575144731 1.37869141184 -0.725709955357 0.189699042035
3.32507813833 1.55315039262 0.459337782665 -0.375832743492 -0.10122411117 0.0746394445421 -0.385584497045 -1.53704529036 1.37845003095 -0.724244021885 0.189676354511
3.34896584135 1.54947055761 0.459415237537 -0.375743366459 -0.102029771438 0.0732402215182 -0.386270850587 -1.53833781208 1.37820728463 -0.722776672233 0.189651366184
3.37285124518 1.54579107656 0.459492456634 -0.375653860155 -0.102835149105 0.0718402656587 -0.386959035759 -1.53962991088 1.37796410985 -0.721308023944 0.189625329992
3.39697148919 1.54211220771 0.459568671092 -0.375564157811 -0.103640611484 0.0704388652805 -0.387649569798 -1.54091979069 1.37771859302 -0.719837884049 0.189595720601
3.42108857948 1.53843381989 0.459644243737 -0.375474268428 -0.104445964618 0.0690363533044 -0.3883421832 -1.54220833934 1.37747180287 -0.718366336146 0.189563875848
3.44520251406 1.53475591353 0.459719178297 -0.375384200453 -0.105251214041 0.0676327440262 -0.389036893971 -1.54349552181 1.37722364458 -0.716893399992 0.189529710505
3.46931330479 1.53107848661 0.459793473985 -0.375293950637 -0.106056357189 0.0662280409974 -0.389733704721 -1.54478132687 1.3769741179 -0.715419082582 0.189493220185
3.49342096547 1.52740153709 0.459867130084 -0.375203515891 -0.106861391593 0.0648222479253 -0.390432618208 -1.54606574302 1.37672322159 -0.713943391067 0.189454399602
3.51752630723 1.52372494131 0.459940520764 -0.375112925894 -0.107666134595 0.0634157172428 -0.391133397078 -1.54734962897 1.37647183902 -0.712466428133 0.189414429815
3.54162773348 1.52004894269 0.460012899919 -0.375022124713 -0.108470953459 0.0620077646912 -0.391836539353 -1.54863120742 1.37621810736 -0.710988023325 0.189370851058
3.56572608692 1.51637341274 0.460084632789 -0.37493111676 -0.109275647248 0.0605987219657 -0.392541776984 -1.54991138698 1.37596309872 -0.709508252087 0.189325008778
3.58982136359 1.51269835194 0.460155723232 -0.374839911292 -0.110080222163 0.0591886040354 -0.393249127655 -1.55119013213 1.37570671834 -0.708027135126 0.189276817813
3.6139135793 1.50902375819 0.460226170553 -0.374748505154 -0.11088467564 0.0577774146734 -0.39395859384 -1.55246743141 1.37544896583 -0.706544679571 0.189226273827
3.63800274588 1.50534962938 0.460295974081 -0.374656895221 -0.111689005123 0.0563651576887 -0.39467017799 -1.5537432734 1.37518984082 -0.705060892564 0.189173372464
3.66208965472 1.50167584483 0.460365510434 -0.374565108126 -0.112493022407 0.0549521851083 -0.395383644233 -1.5550185369 1.3749302289 -0.703575870395 0.189119300949
3.68617275067 1.49800264197 0.460434028975 -0.374473095157 -0.113297106602 0.05353781473 -0.396099487123 -1.55629140324 1.37466826189 -0.702089456762 0.189061586794
3.71025285669 1.49432989505 0.460501897266 -0.374380856093 -0.114101049788 0.0521223767838 -0.396817440313 -1.55756280205 1.37440501464 -0.700601718905 0.189001582378
3.73432997082 1.49065760459 0.460569119263 -0.374288400934 -0.114904858788 0.050705886859 -0.397537521075 -1.55883269741 1.37414039301 -0.699112678394 0.188939203086
3.75840410687 1.48698576845 0.460635694383 -0.374195726679 -0.115708531086 0.0492883490057 -0.398259731795 -1.56010107758 1.37387439609 -0.697622342554 0.18887444432
3.78247527668 1.48331438447 0.460701622031 -0.374102830247 -0.116512064091 0.0478697672127 -0.398984074717 -1.56136793101 1.37360702375 -0.696130718594 0.188807302131
3.80654425388 1.47964333498 0.460767281111 -0.374009735055 -0.117315263975 0.0464504927305 -0.39971031552 -1.56263415711 1.37333916438 -0.69463789621 0.188738970216
3.83060952278 1.47597285127 0.460831916706 -0.37391639974 -0.118118521702 0.0450298459744 -0.400438944843 -1.56389789534 1.37306894499 -0.693143733382 0.18866696426
3.85467188663 1.47230281042 0.460895898586 -0.37382281939 -0.118921622363 0.0436081554343 -0.401169698269 -1.56516009655 1.3727974428 -0.691648289091 0.188592643047
3.87873134344 1.46863321301 0.460959230838 -0.373729004859 -0.119724573489 0.0421854374249 -0.401902592764 -1.56642072427 1.37252456357 -0.690151585878 0.188515921908
3.90278790703 1.46496405685 0.461021912944 -0.37363495316 -0.120527372507 0.0407616961507 -0.40263763046 -1.56767976671 1.37225030685 -0.688653631094 0.188436796868
3.92684159319 1.46129533969 0.461083944392 -0.373540661264 -0.121330016799 0.0393369357927 -0.403374813391 -1.56893721222 1.37197467272 -0.687154432022 0.188355264332
3.95089315187 1.45762694701 0.461145706275 -0.373446149418 -0.122132306997 0.0379115066379 -0.40411390913 -1.57019398086 1.37169855134 -0.685654071807 0.188272523424
3.97494110685 1.45395910376 0.461206439625 -0.37335138365 -0.122934645854 0.036484732229 -0.404855403841 -1.57144816991 1.37142006608 -0.684152422743 0.188186079411
3.99898624755 1.45029168997 0.461266516315 -0.373256354323 -0.123736811487 0.0350569390442 -0.405599035285 -1.57270075161 1.371140296 -0.682649535515 0.188097296846
4.02302856806 1.44662470625 0.46132594054 -0.373161073095 -0.124538812105 0.0336281440889 -0.406344820061 -1.57395168904 1.37085914713 -0.681145433567 0.188006091349
4.04706808416 1.44295815035 0.461384711871 -0.373065537059 -0.125340645127 0.0321983517854 -0.407092760109 -1.57520097028 1.37057661906 -0.679640124346 0.187912459184
4.07110480966 1.43929201999 0.461442829887 -0.372969743267 -0.126142307925 0.0307675665314 -0.407842857273 -1.57644858351 1.37029271189 -0.67813361523 0.187816397
4.09513947478 1.43562620383 0.46150067772 -0.372873708689 -0.12694359557 0.029336137312 -0.408594881184 -1.57769546981 1.37000831765 -0.676625982684 0.187719109208
4.11917064672 1.43196092035 0.461557492612 -0.372777406834 -0.127744922565 0.0279033913863 -0.409349313037 -1.57893968382 1.36972155674 -0.675117113404 0.187618091707
4.14319909517 1.42829605257 0.461613648418 -0.372680823291 -0.128546060063 0.0264696529187 -0.410105893005 -1.5801822194 1.36943350973 -0.673607049732 0.187514714295
4.16722481223 1.42463160118 0.461669149453 -0.372583970579 -0.129347016995 0.0250349396622 -0.410864637364 -1.58142303913 1.36914408258 -0.672095816061 0.187408892629
4.19124781567 1.42096756384 0.461723995345 -0.37248684576 -0.130147790689 0.0235992561637 -0.411625547746 -1.58266213113 1.36885327563 -0.670583419803 0.187300623819
4.21526811732 1.41730393824 0.461778185798 -0.37238944608 -0.130948378597 0.0221626071388 -0.412388625901 -1.58389948324 1.36856108829 -0.669069868548 0.187189904186
4.23928642963 1.41364061633 0.461832105849 -0.372291785192 -0.131748570253 0.0207253399709 -0.413153643765 -1.58513605776 1.36826841418 -0.667555232029 0.18707794294
4.26330136323 1.40997780994 0.461884989195 -0.3721938441 -0.132548791806 0.0192867861915 -0.413921076983 -1.58636986644 1.3679733718 -0.666039411346 0.186962228021
4.28731366215 1.40631540518 0.461937211571 -0.372095603634 -0.133348807508 0.0178472673911 -0.414690668444 -1.58760192484 1.36767704247 -0.664522440521 0.186844133618
4.31132332244 1.40265340277 0.461988777377 -0.371997077074 -0.134148626941 0.016406801988 -0.415462433991 -1.58883219522 1.36737933279 -0.663004344769 0.186723576013
4.33533035988 1.39899180036 0.462039686352 -0.371898261637 -0.134948247484 0.014965394818 -0.416236375118 -1.59006066543 1.36708024267 -0.661485131667 0.186600552201
4.35933479225 1.39533059556 0.462089938269 -0.371799154578 -0.135747666523 0.0135230507567 -0.417012493294 -1.59128732334 1.36677977202 -0.659964808802 0.186475059173
4.38333730238 1.3916696837 0.462139919969 -0.371699766313 -0.136546668187 0.0120801153746 -0.417790563116 -1.59251315247 1.36647881502 -0.658443439254 0.186348309839
4.40733654826 1.38800926978 0.462188861843 -0.371600085286 -0.1373456901 0.0106359250073 -0.41857105405 -1.59373612145 1.36617548961 -0.65692093846 0.186217785855
4.43133325616 1.38434924313 0.462237141417 -0.371500087673 -0.138144489749 0.00919079846206 -0.419353712063 -1.59495726757 1.36587087678 -0.655397332237 0.186084864607
4.45532741819 1.38068960449 0.462284763164 -0.371399787492 -0.138943077357 0.00774475481691 -0.420138552547 -1.5961765528 1.36556488383 -0.653872646586 0.1859494631
4.47931905408 1.37703035147 0.462331726913 -0.371299182034 -0.139741450285 0.00629779912324 -0.420925576769 -1.59739396488 1.3652575108 -0.652346889147 0.185811578685
4.50330817567 1.37337148162 0.462378032524 -0.371198268606 -0.140539605895 0.00484993646072 -0.421714785955 -1.59860949161 1.3649487578 -0.650820067548 0.185671208778
4.52729545002 1.36971289373 0.462424068504 -0.371097054409 -0.14133732299 0.0034015103057 -0.422505957658 -1.59982413789 1.36463951904 -0.649292238228 0.185529569268
4.55127957656 1.36605478585 0.462469062209 -0.370995535317 -0.142135050528 0.00195186240076 -0.423299554576 -1.60103582895 1.36432791281 -0.647763330943 0.185384136895
4.57526125985 1.36239705053 0.462513392811 -0.370893682776 -0.142932539233 0.000501308390958 -0.42409532596 -1.60224562409 1.36401501977 -0.646233363221 0.185236291971
4.59924049595 1.3587396886 0.462557064872 -0.370791511624 -0.143729800035 -0.000950131909264 -0.424893286819 -1.60345348486 1.3637007475 -0.644702361927 0.185085951849
4.62321730064 1.3550826976 0.462600078315 -0.370689019234 -0.144526830289 -0.00240245321947 -0.425693438192 -1.6046593989 1.36338509607 -0.643170334767 0.184933114191
4.64719168773 1.35142607505 0.46264243308 -0.370586202943 -0.145323627306 -0.00385565027878 -0.426495781034 -1.60586335398 1.36306806595 -0.641637289374 0.184777776981
4.6711643006 1.34776972326 0.462684519207 -0.370483066761 -0.146119964668 -0.00530938199405 -0.427300096157 -1.6070663765 1.36275055082 -0.640103275565 0.184621158347
4.69513388803 1.34411383315 0.462725561279 -0.37037961393 -0.146916302462 -0.00676430063013 -0.428106838856 -1.60826634814 1.3624306705 -0.63856823734 0.184460731691
4.71910112891 1.34045830064 0.462765940007 -0.370275811247 -0.147712384785 -0.00822009396109 -0.428915762008 -1.60946435017 1.36210950444 -0.637032184029 0.184297879228
4.7430660193 1.33680312659 0.462805660019 -0.370171674295 -0.148508223216 -0.00967674149457 -0.429726880173 -1.6106603439 1.36178696092 -0.635495143261 0.184132519039
4.76702857696 1.3331483085 0.46284472133 -0.37006720053 -0.149303815105 -0.01113423772 -0.430540194155 -1.61185431688 1.36146304006 -0.633957122803 0.183964649111
4.79098881767 1.32949384385 0.462883123982 -0.369962387398 -0.150099157778 -0.0125925771234 -0.431355704697 -1.61304625671 1.36113774223 -0.632418130378 0.18379426763
4.81494735718 1.32583963854 0.462921259386 -0.369857235664 -0.150894019626 -0.0140514213763 -0.432173196102 -1.61423721156 1.36081196058 -0.630878209097 0.183622594648
4.83890299164 1.32218587625 0.462958349636 -0.369751755895 -0.15168887168 -0.0155114161075 -0.432993115656 -1.61542501931 1.36048381728 -0.629337317169 0.183447101595
4.86285638414 1.31853245628 0.462994776841 -0.36964591022 -0.152483451465 -0.0169722528784 -0.433815220118 -1.61661078343 1.3601543904 -0.627795455691 0.183269172107
4.88680752286 1.31487937959 0.463030545719 -0.369539715099 -0.153277771317 -0.0184339103984 -0.434639523696 -1.61779446478 1.35982358822 -0.626252653195 0.183088724424
4.91075642949 1.31122664361 0.463065656362 -0.369433167995 -0.154071828521 -0.0198963829887 -0.435466026897 -1.61897605092 1.35949141129 -0.624708917418 0.182905757191
4.93470311786 1.30757424579 0.463100108907 -0.369326266437 -0.154865620397 -0.0213596649057 -0.43629473022 -1.62015552939 1.35915786002 -0.623164256134 0.182720268937
4.95864818398 1.30392209569 0.463134296006 -0.369219008031 -0.1556589103 -0.022823420854 -0.437125421814 -1.62133397012 1.35882382628 -0.621618705831 0.182533480669
4.98259046936 1.3002703696 0.463167437525 -0.369111410508 -0.156452179906 -0.0242882892664 -0.437958540254 -1.62250916715 1.35848743599 -0.62007223875 0.18234286372
5.00653061148 1.29661897032 0.463199916881 -0.369003431537 -0.157245160411 -0.0257539656767 -0.438793846603 -1.62368224601 1.35814976454 -0.618524847981 0.1821498017
5.0304686044 1.29296789885 0.463231738836 -0.368895088283 -0.158037864779 -0.0272204281309 -0.439631354591 -1.62485316736 1.35781072103 -0.616976562759 0.181954213735
5.05440446392 1.28931715258 0.463262903564 -0.36878637823 -0.158830290237 -0.0286876707732 -0.440471064436 -1.62602191879 1.35747030636 -0.615427390795 0.181756099078
5.07833820977 1.28566672892 0.463293411307 -0.368677299034 -0.159622434133 -0.0301556875923 -0.441312976417 -1.6271884877 1.35712852079 -0.613877339957 0.181555456429
5.10227040836 1.28201654119 0.463323655822 -0.36856784525 -0.160414054966 -0.031624146596 -0.442156882888 -1.62835396577 1.35678625411 -0.61232644021 0.181353506762
5.12619995451 1.27836675813 0.463352855029 -0.368458041613 -0.161205644749 -0.0330936784267 -0.443003213019 -1.62951610321 1.35644163725 -0.610774677664 0.181147723069
5.15012746001 1.27471728611 0.463381393498 -0.368347841318 -0.161996928422 -0.034563982977 -0.443851732442 -1.63067604774 1.35609574276 -0.609222037378 0.180939488467
5.17405292091 1.27106812619 0.463409276049 -0.368237262314 -0.16278791964 -0.036035037561 -0.444702454463 -1.63183375975 1.35574848019 -0.607668549358 0.18072872266
5.19797635103 1.26741927574 0.463436502959 -0.368126302193 -0.163578615646 -0.0375068360704 -0.445555379065 -1.63298922673 1.35539985036 -0.606114221386 0.180515425144
5.22189777209 1.26377073208 0.463463074534 -0.36801495855 -0.164369013664 -0.0389793723847 -0.446410506174 -1.63414243622 1.35504985425 -0.604559061205 0.180299595556
5.24581772285 1.26012241239 0.463489385504 -0.367903223043 -0.165158867555 -0.0404523180605 -0.447267632741 -1.63529450159 1.35469937867 -0.603003092411 0.180082453714
5.26973514945 1.25647447773 0.463514652122 -0.3677911272 -0.165948679309 -0.0419262953708 -0.448127177806 -1.63644312923 1.35434656089 -0.601446314763 0.179861476142
5.29365064197 1.25282683812 0.463539260015 -0.367678619996 -0.166738167906 -0.0434010087492 -0.448988912007 -1.6375894889 1.35399246931 -0.599888705555 0.179638043986
5.31756419252 1.24917949466 0.463563214016 -0.36756571999 -0.167527347555 -0.0448764349139 -0.449852848119 -1.63873354093 1.35363701469 -0.598330295365 0.179412078184
5.34147581886 1.24553244467 0.463586514499 -0.367452424852 -0.168316215487 -0.0463525675327 -0.450718985861 -1.63987527276 1.3532801979 -0.596771092002 0.179183578615
5.36538553876 1.24188568548 0.463609161873 -0.367338732288 -0.169104768941 -0.0478294002346 -0.451587324919 -1.64101467187 1.35292201986 -0.595211103271 0.178952545176
5.38929386928 1.2382391381 0.463631551662 -0.367224631013 -0.169892757208 -0.0493066085452 -0.452457667094 -1.64215287351 1.35256336443 -0.593650346321 0.178720196205
5.41319980589 1.23459295583 0.463652898752 -0.367110159192 -0.170680691926 -0.0507848057267 -0.453330420617 -1.64328754025 1.3522023762 -0.592088834415 0.178484013359
5.437103915 1.23094705239 0.463673589669 -0.366995261581 -0.171468286208 -0.0522637011531 -0.454205361404 -1.64441986398 1.35184011934 -0.590526537062 0.17824537535
5.4610061887 1.22730142895 0.463693629296 -0.366879957547 -0.172255554983 -0.05374327078 -0.455082501825 -1.64554980476 1.35147650488 -0.588963485623 0.178004203585
5.48490664477 1.22365608279 0.46371301809 -0.366764244767 -0.173042495413 -0.05522350811 -0.45596184129 -1.64667735009 1.35111153408 -0.587399687849 0.177760498589
5.508805299 1.22001101119 0.46373175654 -0.366648120958 -0.173829104669 -0.0567044066083 -0.456843379175 -1.64780248751 1.3507452082 -0.585835151488 0.177514260904
5.53270264673 1.21636613913 0.463750240837 -0.366531572105 -0.174615127752 -0.05818564599 -0.457726922556 -1.64892637399 1.35037840711 -0.584269887455 0.177266706108
5.55659773081 1.21272161199 0.463767684784 -0.366414642727 -0.175401085505 -0.0596678299454 -0.458612868094 -1.65004662846 1.35000928414 -0.58270392223 0.177015322997
5.58049109593 1.20907734726 0.463784475687 -0.366297273575 -0.17618668545 -0.0611506730276 -0.459500997388 -1.65116446481 1.34963889827 -0.581137217751 0.176761486625
5.60438273419 1.20543334617 0.46380061844 -0.366179484651 -0.176971943098 -0.0626341505642 -0.460391322303 -1.65227984302 1.34926716149 -0.579569805968 0.176505119476
5.62827265942 1.20178960598 0.463816113596 -0.366061273728 -0.177756855613 -0.0641182558282 -0.461283841988 -1.65339275059 1.34889407506 -0.578001694658 0.176246222415
5.65216089332 1.19814612394 0.463830961743 -0.365942638593 -0.178541420148 -0.0656029820708 -0.462178555545 -1.65450317503 1.34851964032 -0.576432891578 0.175984796395
5.67604789967 1.194502829 0.463845559556 -0.365823562511 -0.17932537753 -0.0670880135979 -0.46307527562 -1.65561229515 1.34814473302 -0.574863401386 0.17572205375
5.69993277854 1.19085985856 0.463859120069 -0.365704096127 -0.180109257403 -0.0685739439025 -0.463974386586 -1.65671768634 1.3477675163 -0.573293263567 0.175455492123
5.72381604502 1.18721713394 0.463872031222 -0.365584176333 -0.18089276192 -0.0700604930215 -0.464875676081 -1.65782058441 1.34738904335 -0.571722432623 0.175186481997
5.74769769319 1.18357465643 0.463884297921 -0.365463823781 -0.181675907191 -0.0715476356394 -0.465779155484 -1.65892094929 1.347009227 -0.570150941096 0.174914946844
5.77157773885 1.17993242326 0.463895920816 -0.365343036336 -0.182458690378 -0.0730353648047 -0.466684823675 -1.66001876845 1.34662806852 -0.568578796788 0.174640887884
5.79545619974 1.17629043165 0.463906900574 -0.365221811769 -0.183241108542 -0.0745236736345 -0.467592679429 -1.66111402953 1.34624556969 -0.567006007353 0.174364306793
5.81933351598 1.17264861459 0.463917634221 -0.365100130881 -0.184022898667 -0.0760122512252 -0.468502541406 -1.66220793294 1.34586260102 -0.565432571454 0.174086411302
5.84320884091 1.16900710139 0.463927334313 -0.364978050074 -0.18480459866 -0.0775016803532 -0.469414780893 -1.66329801083 1.345477337 -0.563858541207 0.173804710059
5.86708266398 1.16536581727 0.463936389293 -0.364855502587 -0.18558590559 -0.0789916868004 -0.470329191956 -1.66438552082 1.34509082423 -0.562283863881 0.173520567875
5.89095497728 1.16172476357 0.463944804069 -0.364732509726 -0.186366836165 -0.0804822446061 -0.471245785497 -1.66547042274 1.34470297635 -0.560708572606 0.173233909178
5.9148257966 1.15808393749 0.463952579365 -0.364609069294 -0.18714738742 -0.0819733467219 -0.472164560046 -1.66655270427 1.34431379521 -0.559132675031 0.172944736043
5.93869514169 1.15444333623 0.463959715965 -0.364485179284 -0.187927556524 -0.083464985943 -0.473085514173 -1.66763235291 1.34392328208 -0.557556178966 0.17265305008
5.96256342698 1.15080289688 0.463966611057 -0.364360818001 -0.188707076709 -0.0849568566051 -0.474008472833 -1.66871059077 1.34353230234 -0.555979077009 0.172360054091
5.98642985516 1.14716274055 0.463972477032 -0.364236047295 -0.189486493648 -0.0864495301858 -0.47493379347 -1.66978490702 1.34313904302 -0.554401433613 0.172063269582
6.01029489199 1.14352279643 0.463977702708 -0.364110797047 -0.190265499688 -0.0879427384069 -0.475861277014 -1.67085658081 1.34274454308 -0.552823189107 0.171764054357
6.03415852958 1.13988306591 0.463982292967 -0.363985089067 -0.191044112013 -0.0894364547841 -0.476790933819 -1.67192557211 1.34234871745 -0.551244377039 0.171462334251
6.05802078372 1.13624354614 0.463986248617 -0.363858921168 -0.191822327588 -0.0909306721234 -0.477722762101 -1.6729918687 1.34195156826 -0.549665004975 0.171158111954
6.0818816761 1.13260423435 0.463989570551 -0.363732291509 -0.192600143645 -0.0924253829467 -0.478656760192 -1.67405545801 1.34155309654 -0.548085080817 0.170851389198
6.10574158961 1.12896507172 0.463992655968 -0.363605176135 -0.193377289987 -0.0939202870652 -0.479592759766 -1.67511758365 1.34115416161 -0.546504591319 0.170543362663
6.12959978416 1.12532617113 0.463994717401 -0.363477641931 -0.194154319455 -0.0954159441524 -0.480531103622 -1.67617569223 1.34075296449 -0.544923612872 0.170231568835
6.15345669985 1.12168746575 0.463996143891 -0.363349615628 -0.194930919969 -0.096912092143 -0.481471599934 -1.67723108426 1.34035053587 -0.543342079055 0.16991735752
6.17731232681 1.11804895703 0.463996940294 -0.363221119532 -0.195707109188 -0.0984087040359 -0.482414258514 -1.67828371984 1.33994679193 -0.54176002382 0.169600655924
6.20116668084 1.11441064214 0.463997107525 -0.36309215164 -0.196482884152 -0.0999057723578 -0.483359077351 -1.67933358667 1.33954173445 -0.540177454837 0.169281466802
6.22501978561 1.11077251823 0.463996646536 -0.362962709945 -0.197258241873 -0.101403289636 -0.484306054374 -1.68038067254 1.3391353654 -0.538594379726 0.168959793062
6.24887199439 1.10713453068 0.463995954397 -0.362832768582 -0.198032909152 -0.102900961302 -0.48525502845 -1.68142624218 1.33872853677 -0.537010779749 0.168636823745
6.27272262434 1.10349678404 0.463994244098 -0.362702399062 -0.198807445397 -0.10439933471 -0.486206326941 -1.68246770006 1.33831946494 -0.535426742841 0.168310112339
6.29657208594 1.09985921554 0.463991904757 -0.362571525178 -0.199581534402 -0.105898154285 -0.487159765641 -1.68350636787 1.33790917174 -0.533842196022 0.1679809997
6.32042036934 1.09622182668 0.463988941194 -0.362440169741 -0.200355194309 -0.107397392502 -0.488115353842 -1.68454220583 1.33749757444 -0.532257173655 0.167649414311
6.34426749427 1.0925846146 0.463985354416 -0.362308330815 -0.201128422136 -0.108897041712 -0.489073089245 -1.68557520175 1.33708467493 -0.53067168338 0.167315359365
6.36811347848 1.08894757647 0.463981145467 -0.362176006455 -0.201901214869 -0.11039709427 -0.490032969489 -1.68660534349 1.33667047526 -0.52908573278 0.166978838209
6.39195865355 1.08531066184 0.463976711093 -0.362043168899 -0.202673296449 -0.111897261652 -0.490994840941 -1.68763391692 1.33625582013 -0.5274992976 0.16664103184
6.41580238792 1.0816739669 0.46397126508 -0.361909893952 -0.203445232304 -0.11339807832 -0.491959014774 -1.68865828475 1.33583894224 -0.525912477012 0.166299512475
6.43964506645 1.07803743295 0.463965196448 -0.361776102588 -0.204216702331 -0.114899295531 -0.49292531474 -1.68967978975 1.3354208543 -0.524325191573 0.165955611342
6.46348667926 1.07440106155 0.463958509994 -0.361641818218 -0.204987725241 -0.116400885168 -0.493893749669 -1.69069839217 1.33500147432 -0.522737476153 0.165609257876
6.48732724411 1.07076484985 0.46395120681 -0.361507038928 -0.20575829799 -0.117902839451 -0.49486431695 -1.69171407997 1.3345808044 -0.521149338308 0.165260455832
6.51116678273 1.06712879498 0.463943288012 -0.361371762731 -0.206528417447 -0.119405150659 -0.495837013887 -1.69272684125 1.33415884703 -0.519560785463 0.164909209305
6.53548475438 1.06349285074 0.463935149887 -0.361235960376 -0.207297805181 -0.120907536414 -0.496811694834 -1.69373798255 1.33373643829 -0.51797178825 0.164556689665
6.56004456638 1.05985710489 0.463926007313 -0.361099711324 -0.208067031821 -0.122410517958 -0.497788653895 -1.69474482555 1.33331182914 -0.516382456453 0.164200490398
6.58484899552 1.05622150287 0.463916249094 -0.360962934233 -0.208835773932 -0.123913853421 -0.498767723291 -1.69574873359 1.3328860217 -0.514792704664 0.163841931367
6.60990046727 1.05258604628 0.463905879968 -0.360825652913 -0.20960405062 -0.125417514261 -0.499748911304 -1.69674966717 1.33245893528 -0.513202568041 0.163480943495
6.63520146041 1.04895073225 0.463894901102 -0.360687865402 -0.21037185872 -0.126921492633 -0.500732214987 -1.6977476145 1.33203057244 -0.51161205397 0.163117531283
6.66075448135 1.04531555793 0.463883313716 -0.360549569881 -0.211139195165 -0.128425780585 -0.501717631403 -1.69874256367 1.33160093539 -0.510021169945 0.16275169896
6.68656234041 1.04168048133 0.463871513435 -0.360410735611 -0.211905779294 -0.129930102312 -0.502705023197 -1.69973584193 1.3311708517 -0.508429881445 0.162384607909
6.71262700523 1.0380455818 0.463858716567 -0.360271445311 -0.212672186311 -0.131434965325 -0.50369466664 -1.70072473039 1.33073859158 -0.506838308498 0.162013874663
6.73895140256 1.03441080893 0.463845311549 -0.360131615633 -0.213438089856 -0.132940134818 -0.504686402832 -1.70171061266 1.3303051458 -0.505246360024 0.16164080659
6.76553810395 1.03077616435 0.463831303043 -0.359991270668 -0.214203509331 -0.134445581924 -0.505680239474 -1.7026934496 1.32987043529 -0.503654071336 0.161265336361
6.79238974605 1.02714164521 0.463816692312 -0.359850408601 -0.214968441616 -0.135951298594 -0.50667617337 -1.70367322948 1.32943446239 -0.502061449859 0.160887468669
6.8195089892 1.02350724863 0.46380148064 -0.359709027471 -0.215732883438 -0.137457276899 -0.507674201208 -1.70464994076 1.32899723006 -0.50046850281 0.160507208731
6.84689878583 1.0198729369 0.463786062851 -0.359567095565 -0.216496552497 -0.138963247629 -0.508674194448 -1.70562493077 1.32855955577 -0.498875191034 0.160125706175
6.87456129499 1.01623878091 0.463769657008 -0.359424698253 -0.217260027763 -0.140469704224 -0.509676410686 -1.70659544082 1.32811973064 -0.497281644215 0.159740602849
6.90249958753 1.01260473442 0.463752651009 -0.359281750407 -0.218022980283 -0.141976419195 -0.51068070027 -1.70756287454 1.32767873362 -0.495687765796 0.15935319279
6.93071640075 1.00897079911 0.463735049451 -0.35913827652 -0.21878542986 -0.143483363268 -0.511687070389 -1.70852719305 1.32723648678 -0.494093591375 0.158963410005
6.95921453117 1.00533697212 0.463716853667 -0.358994274698 -0.219547373225 -0.14499052838 -0.512695517505 -1.70948838491 1.32679299297 -0.492499128165 0.158571259991
6.98799680687 1.00170325063 0.463698065054 -0.358849743306 -0.22030880731 -0.146497906264 -0.513706038129 -1.71044643846 1.32634825438 -0.490904383611 0.158176747666
7.01706633029 0.998069601122 0.4636790774 -0.358704649335 -0.221069448039 -0.148005234985 -0.514718512704 -1.71140272142 1.32590307956 -0.489309313528 0.157781011452
7.04671905442 0.994436086035 0.463659110877 -0.358559080453 -0.221829877542 -0.149512993389 -0.515733179425 -1.71235443583 1.32545578124 -0.487714056945 0.157381720022
7.07696702778 0.990802663355 0.463638552699 -0.358412950219 -0.222589764833 -0.151020961359 -0.516749898355 -1.7133030048 1.32500732543 -0.486118512289 0.156980152619
7.10782218835 0.987169334784 0.463617407368 -0.358266283274 -0.223349129893 -0.152529109424 -0.517768676085 -1.71424838996 1.32455763598 -0.484522715164 0.156576245193
7.13929674448 0.983536097497 0.463595676314 -0.358119077918 -0.224107969542 -0.154037429306 -0.518789508846 -1.71519057992 1.32410671543 -0.482926672862 0.156170003301
7.17140315912 0.979902948649 0.463573360991 -0.357971332341 -0.224866280476 -0.155545912819 -0.519812392775 -1.71612956345 1.32365456676 -0.481330392504 0.155761432902
7.20415437874 0.976269858997 0.46355085404 -0.357823013075 -0.225623777728 -0.157054305039 -0.520837217936 -1.71706672769 1.32320198712 -0.479733825741 0.155351658651
7.23756285641 0.972636882547 0.463527378059 -0.357674209376 -0.226381045671 -0.158563070005 -0.521864202261 -1.71799923631 1.32274731265 -0.478137120258 0.154938378455
7.27164213855 0.969003981468 0.463503319397 -0.357524833597 -0.227137751522 -0.160071995298 -0.522893215845 -1.71892853178 1.32229149637 -0.476540169525 0.154522856297
7.30675331114 0.965371157505 0.463478682468 -0.357374910668 -0.227893915566 -0.16158105116 -0.523924264754 -1.7198545761 1.32183446345 -0.474943009302 0.154105029621
7.34292764698 0.961738407873 0.463453468792 -0.357224439037 -0.228649534673 -0.163090229142 -0.524957344974 -1.72077735797 1.32137621622 -0.473345646907 0.153684904162
7.38019736818 0.958105729708 0.463427679883 -0.357073416729 -0.229404605311 -0.164599521147 -0.525992452278 -1.7216968666 1.32091675838 -0.471748089145 0.153262486851
7.41859590662 0.954473098034 0.46340170705 -0.356921810046 -0.23015884198 -0.166108679489 -0.527029486735 -1.72261450821 1.32045687521 -0.470150283706 0.152838887726
7.4585525698 0.950840558428 0.463374775653 -0.356769709159 -0.230912830391 -0.16761815317 -0.528068645183 -1.72352740904 1.31999492778 -0.468552386274 0.152411836127
7.50013096118 0.947208077288 0.463347271031 -0.356617025818 -0.231666236653 -0.169127737394 -0.529109808255 -1.72443703024 1.31953185471 -0.466954285967 0.151982579059
7.54382954531 0.943575656399 0.4633191975 -0.356463785152 -0.232419081276 -0.170637402198 -0.530152981476 -1.72534333424 1.31906758263 -0.465356018604 0.151551055615
7.59021574045 0.939943292962 0.463290556638 -0.356309985445 -0.233171360903 -0.172147139235 -0.531198160471 -1.72624631018 1.31860211457 -0.463757591184 0.15111727249
7.63994727041 0.936310984176 0.463261350056 -0.35615562499 -0.233923072157 -0.173656940164 -0.532245340817 -1.72714594729 1.31813545368 -0.462159010658 0.150681236474
7.69379888833 0.932678709253 0.463231967527 -0.356000669794 -0.234673929102 -0.175166564984 -0.533294432864 -1.72804367083 1.31766837374 -0.46056022064 0.150244042881
7.75328341423 0.929046505422 0.463201637524 -0.355845210531 -0.235424518117 -0.176676447247 -0.534345611634 -1.72893657027 1.31719926146 -0.45896138445 0.149803453942
7.82031129629 0.925414343268 0.463170744197 -0.355689158497 -0.236174504484 -0.178186390056 -0.535398768626 -1.72982612519 1.31672904099 -0.457362386957 0.149360699183
7.89933869175 0.921782224641 0.463139291769 -0.355532539149 -0.236923909056 -0.179696363159 -0.536453908884 -1.73071229836 1.31625763995 -0.455763264181 0.148915718943
8.00370715519 0.918150146745 0.46310728188 -0.355375350672 -0.237672728306 -0.181206358274 -0.537511027707 -1.7315950793 1.31578506189 -0.454164022864 0.148468520687
8.22928625403 0.914518106813 0.463074716217 -0.355217591407 -0.238420958816 -0.182716367008 -0.538570120399 -1.73247445746 1.31531131001 -0.452564669863 0.148019111605
8.40714602122 0.913466647296 0.467566514899 -0.355677889456 -0.23618927454 -0.184032192595 -0.536066281822 -1.7348658298 1.31508365943 -0.450736481846 0.148124553429
8.51073451149 0.912416845856 0.472052500503 -0.356134497682 -0.233958132059 -0.185359709841 -0.533558819962 -1.73721994369 1.31486722504 -0.448909824109 0.148209903476
8.59349550546 0.911368545841 0.476532740324 -0.356587352482 -0.231727453539 -0.186698080456 -0.531047718129 -1.73953871809 1.31466138732 -0.447085158951 0.148276787291
8.66430956523 0.910321603493 0.481007296798 -0.357036394752 -0.229497165746 -0.188046512367 -0.528532964591 -1.74182395664 1.31446559282 -0.445262910068 0.148326708318
8.72770322672 0.909275887004 0.485476227779 -0.357481569555 -0.227267199745 -0.18940425695 -0.526014552033 -1.74407735487 1.31427934725 -0.443443465907 0.148361058639
8.78578250074 0.908102172414 0.489934627222 -0.357915024287 -0.225064564067 -0.190823680581 -0.523531247938 -1.74633009266 1.31408599186 -0.441570823937 0.148364366511
8.8388218642 0.906929459012 0.494387584087 -0.358344595779 -0.22286217524 -0.192251241313 -0.521044311457 -1.74855416151 1.31390142527 -0.439701595648 0.148354400488
8.88872680179 0.905757643554 0.498835145208 -0.358770238703 -0.220659974129 -0.193686297556 -0.518553742869 -1.75075097618 1.31372529328 -0.437836084235 0.148332283453
8.93616910673 0.904584732289 0.503278910067 -0.359192357982 -0.218457799566 -0.195123729446 -0.516060411485 -1.75293326087 1.31355689335 -0.435974739587 0.148301536093
8.98079248286 0.903414487102 0.507715772271 -0.359610019831 -0.216255820833 -0.196572324986 -0.513562523658 -1.75507867553 1.31339662296 -0.434117431922 0.14825782845
9.02354848938 0.902114369966 0.512139579209 -0.36001396721 -0.214081450459 -0.198075635198 -0.511101573617 -1.75723709794 1.31322761753 -0.43220899093 0.14818913852
9.06457449105 0.900816666025 0.51655674499 -0.360413484782 -0.211907190485 -0.199588650412 -0.508636225318 -1.75936248389 1.31306643536 -0.430305087253 0.148109733321
9.10434780388 0.899519440224 0.520968794876 -0.36080896738 -0.209732903589 -0.201106455821 -0.506167337844 -1.76146697693 1.31291250823 -0.428406042545 0.148022726388
9.14290682716 0.898222646623 0.52537575165 -0.361200384455 -0.207558546983 -0.202628667974 -0.503694895981 -1.763551359 1.31276561713 -0.426512034774 0.147928782476
9.18028882144 0.896926231293 0.529777643279 -0.361587707218 -0.205384078208 -0.204154840469 -0.501218909739 -1.76561655854 1.31262559987 -0.424623233347 0.147828591778
9.21679623469 0.895499614304 0.534162957202 -0.361959140515 -0.203237566823 -0.205732860167 -0.498781010979 -1.76769824898 1.31247601149 -0.422684715128 0.147705947721
9.2525332662 0.894074969666 0.538542016684 -0.362326077045 -0.201090914672 -0.207317424978 -0.496339002172 -1.76975431814 1.31233372826 -0.420751710246 0.147577106813
9.28752688055 0.892650553053 0.542916169296 -0.362688918914 -0.198944063768 -0.208904814999 -0.493893530545 -1.77179398184 1.3121980086 -0.418824300294 0.14744379632
9.32179262139 0.891226338599 0.547285430465 -0.363047643182 -0.196796978575 -0.210494726 -0.491444587753 -1.77381782444 1.31206871619 -0.41690260624 0.147306500108
9.35534573632 0.889802294656 0.55164981958 -0.363402228212 -0.194649623683 -0.212086806655 -0.488992184693 -1.77582653895 1.311945757 -0.414986742155 0.147165721416
9.38907567312 0.888248288519 0.555993769153 -0.363738689808 -0.192530571041 -0.213728938686 -0.486578884633 -1.7778524302 1.31181277541 -0.413022388858 0.147003993547
9.42209579436 0.886695968523 0.560331780197 -0.364070628635 -0.190411166616 -0.215375161541 -0.484161729292 -1.77985831857 1.31168692031 -0.41106417458 0.146839345146
9.45442993652 0.885143724142 0.56466505343 -0.364398445482 -0.188291416287 -0.21702266643 -0.481741192053 -1.78185121769 1.31156723934 -0.409112044618 0.146672522734
9.48609238611 0.883591543807 0.568993599113 -0.364722122672 -0.186171289372 -0.21867120887 -0.479317267825 -1.78383156503 1.3114536454 -0.407166082167 0.146503885996
9.51740720537 0.882039411725 0.573317430566 -0.365041643526 -0.184050755212 -0.220320508744 -0.476889966373 -1.78579987957 1.31134608325 -0.405226364947 0.146333809545
9.54917191229 0.880357728184 0.577616960511 -0.365340844094 -0.181958834182 -0.222018158014 -0.474502803383 -1.78778573313 1.31122824426 -0.403239288631 0.146143950102
9.58058061512 0.878677553072 0.581910816738 -0.365635524324 -0.179866375637 -0.22371796926 -0.472112002646 -1.78975587647 1.31111752261 -0.40125875178 0.145953593669
9.61164504463 0.876997370388 0.586200075353 -0.365926078591 -0.17777343886 -0.225417836156 -0.469717895792 -1.79171565 1.31101275522 -0.39928462682 0.145762780442
9.6429865344 0.875317178885 0.590484742976 -0.366212492964 -0.175679996477 -0.227117559695 -0.467320478871 -1.793665381 1.31091388434 -0.397316971598 0.145571783166
9.67460758885 0.873636974218 0.594764828615 -0.366494754292 -0.173586021088 -0.228816913692 -0.464919759516 -1.79560545856 1.31082087655 -0.395355839648 0.145380886204
9.70633475103 0.871827789893 0.599016757069 -0.366754536261 -0.171520933757 -0.230562984146 -0.462560217894 -1.79756318077 1.31071745103 -0.393348418849 0.145171136079
9.73865817091 0.870020013352 0.603263239165 -0.367009820968 -0.169455139001 -0.232309683595 -0.460197219114 -1.79950849643 1.31062120851 -0.391347791922 0.144962714833
9.77159651627 0.868212195696 0.607505242726 -0.367260993433 -0.167388742279 -0.234055452904 -0.457830979811 -1.80144546287 1.31053079262 -0.389353797117 0.144755145902
9.80516148038 0.86640434324 0.611742771817 -0.36750804248 -0.16532171853 -0.235800128081 -0.455461495943 -1.803374324 1.31044616315 -0.387366475026 0.144548639994
9.8393649953 0.864596460026 0.615975832361 -0.367750957574 -0.163254042664 -0.237543524298 -0.453088772577 -1.80529537096 1.31036729858 -0.385385862864 0.144343416931
9.8739922326 0.862660322336 0.620176892167 -0.367969273877 -0.161215493181 -0.239332053047 -0.450758259185 -1.80723396672 1.31027793782 -0.383359996594 0.144120102105
9.90927136385 0.860725547171 0.624372705101 -0.368183131896 -0.159176076241 -0.24111997995 -0.448424434318 -1.80916271329 1.31019584811 -0.381341083091 0.143899514488
9.94522207716 0.858790733389 0.628564142924 -0.368392905639 -0.157135938337 -0.242906176009 -0.446087421864 -1.81108467634 1.31011950442 -0.37932894988 0.14368079442
9.98222349078 0.856855892916 0.632751207909 -0.368598586055 -0.155095056093 -0.244690504529 -0.443747216979 -1.81300003615 1.31004887691 -0.37732362562 0.143464107524
10.0203063032 0.854921036037 0.63693390379 -0.368800164628 -0.153053406116 -0.24647281281 -0.441403822026 -1.81490900921 1.30998395026 -0.375325136335 0.143249626616
10.0592069809 0.852858797581 0.641080772702 -0.368975067181 -0.151041084519 -0.248298704669 -0.439103654247 -1.81683527486 1.30990847894 -0.373282407822 0.143017691721
10.0992374015 0.850797916613 0.645222573191 -0.369145563488 -0.149027741644 -0.250122997565 -0.436800288458 -1.81875367932 1.30984036083 -0.371246727964 0.142789570338
10.1408501385 0.848737025977 0.649360090239 -0.369312015673 -0.147013561229 -0.251944903235 -0.434493774309 -1.82066651689 1.30977792869 -0.36921792755 0.142564115876
10.1841076981 0.846676141826 0.653493324897 -0.369474416386 -0.144998521191 -0.253764306538 -0.432184105765 -1.82257391881 1.30972115879 -0.367196026834 0.142341460607
10.2290750753 0.844615279149 0.657622279346 -0.369632758744 -0.142982599452 -0.255581080058 -0.429871282515 -1.8244760442 1.30967003871 -0.365181044029 0.142121742514
10.2758900135 0.842428051178 0.661711602703 -0.369762392965 -0.140996172631 -0.257439913463 -0.427602682493 -1.82639507674 1.30960833475 -0.363122826946 0.141885114533
10.3203723481 0.840242205106 0.665796019986 -0.369887684396 -0.139008574728 -0.259296334033 -0.425330968509 -1.82830779727 1.30955404582 -0.361071712457 0.14165315414
10.3630750334 0.838056397919 0.669876236584 -0.370008982839 -0.137020023831 -0.261149825091 -0.423056131438 -1.83021589709 1.30950538817 -0.359027542702 0.14142449837
10.4040692294 0.835870648986 0.673952252736 -0.370126282373 -0.135030498905 -0.263000288737 -0.42077816385 -1.83211946942 1.30946234161 -0.356990331895 0.141199254414
10.4434232583 0.833684976892 0.678024069553 -0.370239577491 -0.133039978947 -0.264847617706 -0.418497062889 -1.83401862885 1.30942489485 -0.354960092678 0.140977534011
10.4823577449 0.831374095697 0.682052477743 -0.370322180482 -0.131079086247 -0.266735501528 -0.416261155301 -1.83593420477 1.30937682101 -0.352887620362 0.140739374384
10.5201025579 0.829064642492 0.686076129734 -0.370400514644 -0.129116875452 -0.268620304226 -0.414022191075 -1.83784467651 1.30933619716 -0.350822276327 0.140506560275
10.5566997438 0.826755291351 0.690095656971 -0.370474917261 -0.127153596673 -0.270501726576 -0.411780115272 -1.8397512625 1.30930114681 -0.348763918487 0.140277565107
10.5921841614 0.824446064122 0.694111059188 -0.370545383655 -0.125189229784 -0.272379684641 -0.409534919001 -1.84165402616 1.30927165184 -0.346712556604 0.140052476903
10.6269336638 0.822136982166 0.698122336786 -0.370611909517 -0.12322375471 -0.274254087418 -0.407286597022 -1.84355304738 1.30924770114 -0.344668199251 0.139831387323
10.6612746619 0.819703984288 0.702086459083 -0.37064581038 -0.121288006546 -0.276167554311 -0.405084408877 -1.84546790805 1.30921306781 -0.342582609832 0.139594269604
10.6948998054 0.817272476471 0.706045965285 -0.370675526397 -0.11935079546 -0.278077388938 -0.402879197185 -1.84737860478 1.30918589062 -0.340504155074 0.139363039253
10.7278286501 0.814841144857 0.710001417397 -0.37070138226 -0.117412401642 -0.279983466679 -0.400670872122 -1.84928598445 1.30916422172 -0.338432710791 0.13913604626
10.7600755773 0.812410013217 0.713952814885 -0.3707233744 -0.115472805785 -0.281885715041 -0.398459423334 -1.85119008713 1.30914804422 -0.336368283383 0.138913363784
10.7916546761 0.809979105075 0.717900157714 -0.370741499585 -0.113531988659 -0.283784056291 -0.396244843395 -1.85309096537 1.30913734675 -0.334310878356 0.138695067898
10.8237713808 0.807425708592 0.721796633553 -0.370725120867 -0.111620967084 -0.285719982456 -0.394077305034 -1.85500703485 1.30911589365 -0.332213244079 0.138461104971
10.8549076691 0.80487387597 0.725688625668 -0.370704651073 -0.109708339746 -0.287651820641 -0.391906754271 -1.85691966937 1.30910187463 -0.330122737353 0.138233464282
10.8850972808 0.802322301897 0.729576630277 -0.370680402275 -0.107794415205 -0.289579586553 -0.389733075632 -1.85882942399 1.30909328939 -0.328039252628 0.138010403519
10.914957324 0.799771011645 0.733460646758 -0.370652371912 -0.105879174933 -0.291503217189 -0.387556257361 -1.8607363203 1.3090901218 -0.325962793678 0.137791984157
10.9450849998 0.797220030434 0.737340674854 -0.370620557731 -0.103962600495 -0.293422645761 -0.385376290042 -1.8626403893 1.30909236015 -0.323893363625 0.137578270007
10.9756892516 0.794548120469 0.741166163267 -0.370552417372 -0.102075861004 -0.295378189967 -0.383244236896 -1.86455894255 1.3090837495 -0.321784709681 0.137349206659
11.0062586427 0.79187785667 0.744987294159 -0.370480289385 -0.100187374953 -0.297329269108 -0.381109162633 -1.86647462219 1.30908252469 -0.319683166468 0.137126814919
11.0374104549 0.789207939868 0.748804500959 -0.370404473188 -0.0982974777183 -0.29927601156 -0.378970933963 -1.86838775452 1.30908664941 -0.31758864695 0.136909284689
11.069155746 0.786538396514 0.752617783101 -0.370324967151 -0.0964061515312 -0.301218362263 -0.376829537819 -1.87029834652 1.30909610818 -0.315501152786 0.136696668143
11.1015057851 0.783869253159 0.756427140276 -0.370241769919 -0.0945133787246 -0.303156263552 -0.374684962997 -1.87220641207 1.30911088895 -0.313420685177 0.136489019331
11.134002141 0.781080870344 0.760178327998 -0.370120483285 -0.0926504528352 -0.305128820304 -0.372589137848 -1.87412820649 1.30911470559 -0.311302001562 0.13626630072
11.1671142373 0.778294222009 0.763925279446 -0.369995322081 -0.0907856418549 -0.307096600403 -0.37049026492 -1.8760475551 1.30912583632 -0.30919040456 0.136050533694
11.2008570614 0.775508013593 0.767668367762 -0.369866573019 -0.0889193065111 -0.309059822374 -0.368388199766 -1.87796460569 1.30914222314 -0.307085825041 0.135839859978
11.2352425886 0.772722272461 0.77140759255 -0.369734235326 -0.0870514297883 -0.311018437874 -0.366282928113 -1.8798793536 1.30916385115 -0.304988262905 0.135634324254
11.2706334246 0.769937026215 0.775142953584 -0.369598308481 -0.0851819947763 -0.312972396905 -0.364174437179 -1.88179179914 1.30919070816 -0.302897717745 0.135433972721
11.3064938323 0.767034357232 0.778816562178 -0.369422590218 -0.0833423930671 -0.314959560114 -0.362115492787 -1.88371717858 1.30920646375 -0.300769966434 0.13521879585
11.3433994204 0.764133515091 0.782486051739 -0.369243119981 -0.0815007703118 -0.316941690168 -0.360053457775 -1.88564043342 1.30922944117 -0.298649271838 0.135010793438
11.3813838674 0.761233208964 0.786151737242 -0.369060171695 -0.0796575111845 -0.318919077296 -0.357988182192 -1.88756157306 1.30925757303 -0.29653558186 0.134808074918
11.4208696128 0.758333466929 0.789813618555 -0.368873745374 -0.077812599421 -0.320891678875 -0.35591965069 -1.8894805836 1.30929084504 -0.294428894888 0.134610678882
11.4619159538 0.755434317403 0.793471695641 -0.368683841263 -0.075966018863 -0.322859451406 -0.353847849101 -1.89139745453 1.3093292451 -0.292329209124 0.134418645153
11.5042751729 0.752397912437 0.797062425941 -0.36840911331 -0.0741126802162 -0.324869121283 -0.351795470157 -1.89333614544 1.30935684927 -0.290146236395 0.134213295482
11.5445182569 0.749363551406 0.800648916319 -0.368130666133 -0.0722570823943 -0.326873358175 -0.349739858038 -1.89527287562 1.30939175912 -0.287970510886 0.134015511295
11.5831483772 0.746329884648 0.804231447469 -0.367848773878 -0.0703996469342 -0.328872534672 -0.347680860009 -1.89720754926 1.30943184893 -0.28580198843 0.133823323988
11.6202301398 0.743296942949 0.807810019548 -0.367563437644 -0.0685403580848 -0.330866611745 -0.345618459047 -1.899140143 1.30947710412 -0.283640665638 0.133636767522
11.6561815162 0.740264757569 0.811384632734 -0.367274658737 -0.0666792002077 -0.332855550221 -0.343552639049 -1.90107063545 1.30952751182 -0.281486539047 0.133455876812
11.6918178436 0.737140718875 0.814892838807 -0.366986605466 -0.0648844086852 -0.334864708819 -0.341568463624 -1.90300269862 1.30956581745 -0.27934448307 0.133259127984
11.7263677218 0.734018702346 0.818397151053 -0.366695073238 -0.0630873326429 -0.336868452592 -0.339581067523 -1.90493303598 1.30961110895 -0.277209409944 0.133069865173
11.7619270118 0.730897423351 0.821897773157 -0.366400310223 -0.0612884008578 -0.33886717211 -0.337590303905 -1.90686147137 1.30966133076 -0.275081298653 0.132886170017
11.7985251707 0.727776910921 0.82539470575 -0.366102317829 -0.0594875985721 -0.340860833949 -0.335596155694 -1.90878797769 1.30971647021 -0.272960145011 0.132708071961
11.8365691852 0.724657194598 0.828887949451 -0.365801097642 -0.057684911122 -0.342849404953 -0.333598606543 -1.91071252899 1.30977651604 -0.270845944823 0.132535601273
11.8753400311 0.721426277844 0.832309022268 -0.365455465691 -0.0559119544883 -0.344866883552 -0.331652804439 -1.91264746499 1.30982490742 -0.268697666836 0.132348834703
11.9156405019 0.718197479159 0.835726310997 -0.365106505348 -0.0541365875756 -0.346878812627 -0.329703699855 -1.91458078931 1.30988014846 -0.266556328103 0.132169654855
11.9579516632 0.714969517934 0.839139965939 -0.364754451505 -0.0523592589887 -0.348885616079 -0.327751152711 -1.91651226633 1.30994020134 -0.264421921629 0.131996144006
12.0023737968 0.711742423475 0.842549988181 -0.364399306155 -0.0505799547202 -0.350887264158 -0.325795145268 -1.91844186438 1.31000505438 -0.262294442115 0.13182832819
12.0494785641 0.708516225659 0.845956378761 -0.364041071443 -0.0487986608457 -0.352883727802 -0.32383566036 -1.92036955211 1.31007469702 -0.260173884313 0.131666234122
12.0989811311 0.705181143298 0.849287237158 -0.363636982989 -0.0470469986567 -0.35490768262 -0.321928556891 -1.92230673824 1.31013247799 -0.258020256927 0.131489981164
12.1450692201 0.701848274102 0.852614419429 -0.363229725457 -0.0452928044913 -0.35692598303 -0.320018058997 -1.92424238426 1.31019696316 -0.255873521301 0.131321386486
12.1884740754 0.6985163422 0.855938023775 -0.362819520254 -0.0435365454231 -0.358939077567 -0.318104036186 -1.92617621169 1.31026613878 -0.253733683488 0.131158540589
12.2297603227 0.695185377069 0.85925805178 -0.362406369886 -0.0417782081892 -0.36094693968 -0.316186470199 -1.92810818533 1.31033999428 -0.251600737154 0.131001466668
12.2690310127 0.691855408809 0.862574504958 -0.361990276989 -0.0400177795954 -0.362949543845 -0.31426534322 -1.93003826956 1.31041852001 -0.249474676058 0.13085018849
12.3079759571 0.688418973858 0.865812134216 -0.361526958364 -0.0382868695762 -0.364978239677 -0.312397189927 -1.93197695767 1.31048494899 -0.247316547775 0.130684850934
12.3453761613 0.684984845586 0.869046193852 -0.36106063838 -0.036553310286 -0.367001202151 -0.310525541389 -1.93391414398 1.31055792973 -0.245165259898 0.130527218101
12.381306176 0.681551753814 0.872276731151 -0.36059152474 -0.0348175859085 -0.369018897204 -0.308650279032 -1.9358495205 1.31063547787 -0.243020830629 0.13037539513
12.416168664 0.678119728099 0.875503748234 -0.360119620388 -0.0330796839144 -0.371031301079 -0.30677138421 -1.93778304921 1.31071758405 -0.240883252659 0.13022940285
12.4513685297 0.674688798671 0.878727247126 -0.359644928375 -0.0313395918269 -0.373038391319 -0.304888838623 -1.93971469124 1.31080423971 -0.238752518804 0.130089262582
12.4869201505 0.671153932777 0.881868699164 -0.359121706624 -0.029628889853 -0.375070186067 -0.303059817116 -1.94165403749 1.31087854859 -0.236590714343 0.129935137742
12.5238902144 0.667621464832 0.885006686878 -0.35859565923 -0.0279154260203 -0.377096191163 -0.301227191882 -1.94359189468 1.31095925189 -0.234435695065 0.129788742343
12.5623490545 0.664090131504 0.888141207745 -0.358066979961 -0.0261997002621 -0.379116883934 -0.299390858149 -1.94552793579 1.31104439898 -0.232287490495 0.129648201602
12.6027563553 0.660559962356 0.891272264452 -0.357535672125 -0.0244817007683 -0.381132243067 -0.297550797016 -1.9474621207 1.31113398186 -0.230146092401 0.129513534381
12.6452104664 0.657030987658 0.894399859579 -0.357001739114 -0.0227614157619 -0.383142248766 -0.295706989854 -1.94939440799 1.31122799313 -0.2280114927 0.129384759967
12.688985565 0.6534007163 0.897442257189 -0.356418040565 -0.021070378596 -0.385175584923 -0.293917215534 -1.95133349857 1.31130939437 -0.225846811797 0.129242052213
12.7353132898 0.649772931342 0.900481294761 -0.355831699621 -0.0193764719582 -0.387203094973 -0.292123722489 -1.9532710935 1.3113970296 -0.223688856959 0.129107079774
12.784966026 0.646146377629 0.903516921031 -0.355242895887 -0.0176802101732 -0.389225262661 -0.290326421235 -1.95520685506 1.3114889855 -0.221537668279 0.12897799257
12.8387141314 0.642521084658 0.906549139271 -0.354651632959 -0.01598158213 -0.391242068809 -0.288525292747 -1.95714074155 1.31158525546 -0.219393236649 0.128854807821
12.8979176637 0.638897082665 0.909577952646 -0.354057914492 -0.0142805767309 -0.393253495932 -0.286720318209 -1.9590727096 1.31168583341 -0.217255553127 0.128737543134
12.9531077211 0.635174530508 0.912518493526 -0.353413262897 -0.0126086645539 -0.395286893287 -0.284969844015 -1.96101058216 1.31177352653 -0.215088769318 0.128606373881
13.0061076432 0.631454549884 0.9154557778 -0.352766159172 -0.0109337804987 -0.397314445489 -0.283215530656 -1.9629469384 1.31186729172 -0.212928648536 0.128482929455
13.0640522168 0.627735895285 0.918389706484 -0.352116768541 -0.00925645192633 -0.3993366386 -0.281457305079 -1.9648814363 1.31196525581 -0.21077524075 0.128365388395
13.1286755792 0.624018596081 0.921320283465 -0.351465094809 -0.00757666840156 -0.401353455306 -0.279695148252 -1.96681403301 1.31206741366 -0.208628536024 0.128253766567
13.2040535953 0.620302682409 0.924247512513 -0.350811141816 -0.00589441948055 -0.40336488013 -0.27792904131 -1.96874468373 1.31217376061 -0.206488524597 0.128148080193
13.2706129811 0.616491068771 0.927083473116 -0.350105156095 -0.00424109821268 -0.405396929459 -0.276217861457 -1.97068034542 1.31226693806 -0.204320384058 0.128028496674
13.329964715 0.612682108044 0.929916279796 -0.349396914971 -0.00258470806185 -0.407423129866 -0.274502717566 -1.9726144603 1.31236602552 -0.202158839568 0.127916613286
13.3842121573 0.608874565957 0.932745786874 -0.34868656908 -0.000925788077687 -0.409443966384 -0.272783553848 -1.97454668697 1.31246919224 -0.200003950352 0.127810640508
13.4347904866 0.6050684717 0.93557199886 -0.347974122359 0.00073567152683 -0.411459423327 -0.271060351376 -1.97647698176 1.31257643461 -0.197855705689 0.127710593092
13.4891664087 0.601263855251 0.938394920153 -0.347259578763 0.0023996805702 -0.413469486955 -0.269333091365 -1.97840529884 1.31268774945 -0.195714095037 0.127616486125
13.5409576205 0.597366489661 0.941123659352 -0.346491970394 0.00403493716063 -0.415498844472 -0.267661145039 -1.98033774139 1.31278560179 -0.193545315529 0.127508469201
13.589230382 0.593471854222 0.943849346644 -0.345722309222 0.00567335407835 -0.417522362701 -0.265985106317 -1.98226860039 1.31288920317 -0.191383061156 0.127408115395
13.6346878873 0.589578727593 0.94657179067 -0.344950731106 0.00731438192232 -0.419540522944 -0.264304937227 -1.98419753867 1.31299676695 -0.189227399836 0.127313669922
13.6779220625 0.585687138735 0.949290996577 -0.344177240042 0.0089580298627 -0.421553310935 -0.262620619057 -1.98612451202 1.31310829107 -0.187078320103 0.127225146628
13.721138821 0.581797117416 0.952006969409 -0.343401840027 0.0106043071243 -0.423560714429 -0.260932133217 -1.9880494739 1.31322377388 -0.184935810679 0.127142559683
13.7659489223 0.577817395241 0.954625931995 -0.34257241013 0.0122220155202 -0.425586096857 -0.259299308219 -1.98997768625 1.31332549445 -0.182767080629 0.127046030857
13.8088316956 0.573840475984 0.957241944066 -0.341741135285 0.013842970003 -0.427605661367 -0.257662259856 -1.99190427498 1.3134328051 -0.180604800891 0.126957117491
13.8543343518 0.569865153014 0.959854769615 -0.340908136413 0.0154666121439 -0.429619883389 -0.256020968293 -1.99382890972 1.31354396462 -0.178449047559 0.126874101876
13.9026165941 0.565891455022 0.962464414437 -0.340073417499 0.0170929505305 -0.431628749885 -0.254375415129 -1.99575154591 1.31365897251 -0.176299808471 0.12679699713
13.9538478279 0.561919411516 0.96507088423 -0.339236982504 0.0187219938286 -0.4336322499 -0.252725582074 -1.99767213658 1.31377782867 -0.174157071653 0.126725816691
14.0105328407 0.557860809645 0.967577604237 -0.338345618664 0.0203226590661 -0.435652430033 -0.251131718373 -1.99959511547 1.31388261751 -0.171989049392 0.126640644473
14.0731391934 0.553805078703 0.970081474514 -0.337452622347 0.0219266503739 -0.437666823859 -0.249533498536 -2.00151642972 1.31399284035 -0.169827398757 0.126563030896
14.1338450426 0.549751028613 0.972582215466 -0.336558099408 0.0235334016023 -0.439675899284 -0.24793092098 -2.00343575744 1.31410680227 -0.167672203552 0.126491297267
14.2015440804 0.545698687757 0.97507983354 -0.335662053747 0.0251429207931 -0.441679644327 -0.2463239677 -2.00535305393 1.31422450434 -0.165523450967 0.12642545613
14.2807386392 0.541648085341 0.977574335093 -0.334764489226 0.0267552160896 -0.443678049134 -0.244712620807 -2.00726827198 1.31434594804 -0.163381128373 0.126365520351
14.3502058897 0.537514157926 0.979966438962 -0.333811162089 0.0283393302551 -0.445691851793 -0.243157513981 -2.00918503067 1.31445301533 -0.161214441526 0.126291526066
14.4120638972 0.533383164449 0.982355793269 -0.332856418918 0.0299268446365 -0.44769990865 -0.241597917203 -2.01110008473 1.31456536404 -0.159054043833 0.126225025768
14.4693953866 0.529253933285 0.984742075927 -0.331900350397 0.0315171866505 -0.449702678857 -0.240033847057 -2.0130131217 1.31468134613 -0.15690002638 0.126164381364
14.5226309285 0.525126492474 0.987125294034 -0.330942960281 0.033110363832 -0.451700151342 -0.238465286023 -2.01492409687 1.31480096424 -0.154752375754 0.12610960496
14.5722627924 0.521000870884 0.989505454613 -0.329984252265 0.034706383841 -0.453692317179 -0.236892216697 -2.01683296295 1.31492422141 -0.152611078713 0.126060708988
14.6200355381 0.516795245122 0.991780664189 -0.328969011965 0.0362744247515 -0.455698615486 -0.235375621267 -2.01874253849 1.31503279029 -0.150446323762 0.125997672102
14.6653521737 0.512592611102 0.994053223725 -0.327952575386 0.0378459341526 -0.457699216164 -0.233854401698 -2.02065037202 1.31514649207 -0.148287771798 0.1259420579
14.7088814986 0.508391817586 0.996322769774 -0.326935017983 0.039420334292 -0.459694568758 -0.232328592519 -2.02255616086 1.31526372584 -0.1461355208 0.125892270163
14.7506937217 0.504192892243 0.998589310087 -0.325916343301 0.0409976322384 -0.461684662964 -0.23079817676 -2.02445986038 1.31538449579 -0.143989556797 0.125848320676
14.7908562948 0.499995863569 1.00085285235 -0.32489655481 0.0425778352085 -0.463669490637 -0.229263137583 -2.02636142337 1.31550880654 -0.141849865984 0.125810221555
14.8305491383 0.495722235532 1.00300898772 -0.323819527251 0.0441302652667 -0.465667202541 -0.227784770194 -2.02826288253 1.31561811549 -0.139687607971 0.125757884581
14.8718242469 0.491451651666 1.00516257187 -0.322741525832 0.0456862262106 -0.467659271541 -0.226301644735 -2.03016256616 1.31573241321 -0.137531463203 0.125712893402
14.9147560293 0.487182983085 1.00731320118 -0.321662610751 0.047245136359 -0.469646137043 -0.22481381331 -2.03206018124 1.31585014603 -0.135381536189 0.125673694675
14.9594106822 0.482916257058 1.00946088405 -0.320582785284 0.0488070023563 -0.471627789387 -0.22332125957 -2.03395568331 1.31597131965 -0.133237812448 0.125640299959
15.0063214953 0.478651501682 1.01160562884 -0.319502052623 0.0503718310173 -0.473604221074 -0.221823967309 -2.03584902531 1.31609594023 -0.131100277655 0.125612721157
15.0564704856 0.474313632178 1.013640611 -0.318363435673 0.0519090962271 -0.475592306088 -0.220383509773 -2.03774146934 1.31620524486 -0.128941050042 0.125570794183
15.1096667144 0.469978853772 1.01567313999 -0.317224069299 0.0534499488516 -0.477574808437 -0.218938161047 -2.0396321092 1.31631939883 -0.12678784249 0.125536131483
15.1669369429 0.465646061899 1.01770277325 -0.31608399845 0.0549938044948 -0.479552157154 -0.217487990338 -2.04152066098 1.31643689556 -0.124640765701 0.125507223346
15.2200840857 0.461315283406 1.01972951984 -0.314943226086 0.0565406694195 -0.481524343111 -0.216032981972 -2.04340708045 1.31655774223 -0.122499804733 0.125484081193
15.2701275011 0.456986545969 1.02175338875 -0.313801755066 0.0580905500801 -0.483491359327 -0.214573120435 -2.04529132078 1.31668194652 -0.120364944789 0.125466716801
15.3178519482 0.452588256449 1.02366524214 -0.312601814684 0.0596130792107 -0.485468815419 -0.213170222609 -2.04717388926 1.31679052102 -0.118209249447 0.12543488167
15.3633952989 0.448193099352 1.02557473953 -0.311401350693 0.0611392464521 -0.48744075364 -0.211762301784 -2.04905463054 1.31690381025 -0.116059477689 0.125410225518
15.407141112 0.443799996406 1.02748140076 -0.310200392848 0.0626684658794 -0.489407592674 -0.210349443705 -2.05093326901 1.31702035448 -0.113915746098 0.125391282805
15.4517450803 0.439408974018 1.0293852355 -0.308998943745 0.0642007434167 -0.49136932382 -0.208931633421 -2.05280976069 1.31714016233 -0.111778039316 0.125378064889
15.498137867 0.435020059418 1.0312862534 -0.307797005863 0.0657360852006 -0.493325940508 -0.207508856162 -2.05468405902 1.31726324294 -0.10964634212 0.125370583494
15.547629467 0.430565227915 1.03307310822 -0.306536072199 0.0672442890862 -0.495291801115 -0.206143138665 -2.05655593276 1.31737038102 -0.107494649442 0.125348497673
15.600128436 0.426113564488 1.03485770326 -0.305274841504 0.0687561759949 -0.497252212305 -0.204772268113 -2.05842596251 1.31748210411 -0.105348780739 0.125333502527
15.6563876562 0.421664019123 1.03663952209 -0.304013328431 0.0702711596303 -0.499207582664 -0.203396346149 -2.06029387981 1.31759699897 -0.103208858181 0.12532417704
15.7178430129 0.417216617769 1.038418575 -0.302751535167 0.0717892456213 -0.501157903828 -0.202015358587 -2.06215964096 1.31771507561 -0.101074866042 0.125320532569
15.7740476783 0.412771387192 1.04019487231 -0.301489463774 0.073310439828 -0.503103169535 -0.200629291444 -2.06402319972 1.3178363446 -0.0989467887208 0.125322580849
15.8270257474 0.408263944288 1.04185496674 -0.300167927271 0.074804710789 -0.505056500672 -0.199300348199 -2.06588360299 1.31794136009 -0.0967995378385 0.125309881001
15.8801448165 0.403759699409 1.04351289652 -0.298846320484 0.0763027039643 -0.507004453659 -0.197966123982 -2.06774215215 1.31805083578 -0.0946580083612 0.125304181198
15.9370681054 0.399257632732 1.04516811039 -0.297524643088 0.0778038338145 -0.508947427445 -0.19662673564 -2.06959858452 1.3181634044 -0.0925223277694 0.125304105138
15.9986777007 0.394757769738 1.04682061926 -0.296202896828 0.0793081057158 -0.510885413921 -0.195282169783 -2.0714528567 1.31827907733 -0.0903924800166 0.125309664229
16.0669107486 0.390260136713 1.04847043405 -0.294881083312 0.0808155252938 -0.512818407037 -0.193932413255 -2.0733049228 1.3183978665 -0.0882684491658 0.125320870272
16.1294599039 0.385704061544 1.05000211629 -0.293499390844 0.082296236666 -0.514758304469 -0.192639813865 -2.07515312495 1.31850009364 -0.0861260482642 0.125317175552
16.1870253257 0.38115120863 1.05153172778 -0.292117854434 0.083780703796 -0.51669289702 -0.191341808056 -2.07699946977 1.31860666091 -0.0839892634112 0.125320388529
16.2406912802 0.37660059025 1.05305868394 -0.290736458943 0.0852683430009 -0.518622574665 -0.190038527142 -2.0788436989 1.31871624655 -0.0818582271399 0.125329177664
16.2912219366 0.372052231402 1.05458299629 -0.289355205644 0.086759159446 -0.520547329464 -0.188729958562 -2.08068576924 1.31882886322 -0.0797329231267 0.125343554461
16.3432575623 0.36750615788 1.05610467637 -0.28797409566 0.0882531585633 -0.522467155501 -0.187416090007 -2.08252563526 1.31894452418 -0.0776133351443 0.125363530829
16.3997169711 0.362905474165 1.05750640648 -0.286532746721 0.0897206643216 -0.524392741943 -0.186159381952 -2.08436095168 1.3190433175 -0.07547616185 0.125368445923
16.4608113563 0.358308031232 1.05890615838 -0.285091779232 0.0911919538148 -0.526313098006 -0.18489714478 -2.08619441468 1.31914633547 -0.0733444966408 0.125380175189
16.528263991 0.353712875327 1.06030331576 -0.283651163439 0.0926664462869 -0.528228605519 -0.183629523514 -2.08802576857 1.31925230132 -0.0712184768589 0.125397431774
16.6051567967 0.349120030958 1.06169789071 -0.28221090012 0.0941441467337 -0.530139256642 -0.182356506438 -2.08985497052 1.31936122893 -0.0690980859471 0.125420227317
16.6970502621 0.344529523415 1.06308989536 -0.280770989889 0.0956250604331 -0.532045045514 -0.181078082119 -2.09168197539 1.3194731328 -0.0669833074303 0.125448573869
16.8067535511 0.339888295508 1.06436024702 -0.279270532859 0.0970796948956 -0.53395546785 -0.179856792778 -2.09350376813 1.31956786675 -0.0648517092645 0.125461691789
17.0231536738 0.335063102936 1.06571367513 -0.277772768685 0.0985573066502 -0.534720029911 -0.178787863649 -2.0942 1.31982731223 -0.0625032038717 0.125565327562
17.1385838312 0.330122900545 1.06711399208 -0.276277360774 0.100047436236 -0.534777922015 -0.177809529221 -2.0942 1.32018325063 -0.060023979906 0.125725483361
17.2278565297 0.325185293832 1.06850918779 -0.274783173602 0.101538766246 -0.534835686386 -0.176823137558 -2.0942 1.3205376579 -0.0575512974465 0.125892106297
17.3037973914 0.320250246355 1.06989928281 -0.27329030483 0.103031193395 -0.534893402401 -0.175828828123 -2.0942 1.32089064453 -0.055085271828 0.12606528363
17.3719862456 0.315269845075 1.07116387744 -0.271737649069 0.104495619478 -0.534962708125 -0.174888890908 -2.0942 1.32122270172 -0.0526045191073 0.126225225353
17.4343008075 0.310292097758 1.07242340932 -0.270186353491 0.105961352665 -0.535031744739 -0.173940836371 -2.0942 1.32155321031 -0.0501300461621 0.12639159837
17.491247929 0.305316933292 1.07367789827 -0.268636574653 0.107428223253 -0.535100702007 -0.172984882695 -2.0942 1.32188233009 -0.0476620439612 0.126564545048
17.5448663665 0.300344395862 1.07492735329 -0.267088306791 0.108896237716 -0.535169626961 -0.172021017189 -2.0942 1.32221007287 -0.045200529992 0.126744055337
17.5958550632 0.295374529683 1.07617178376 -0.265541544178 0.110365402648 -0.535238566571 -0.171049227496 -2.0942 1.32253645094 -0.0427455215677 0.126930118866
17.6447694503 0.290363646609 1.0772894087 -0.263934959701 0.111806760319 -0.535318563603 -0.170131879473 -2.0942 1.3228422374 -0.0402758943015 0.1271033314
17.6917492921 0.285355527069 1.07840205111 -0.26232992611 0.1132494719 -0.535398362127 -0.169206408978 -2.0942 1.32314652573 -0.0378124017396 0.127282971416
17.7368717169 0.280350100827 1.07950972822 -0.26072659328 0.114693372321 -0.53547815308 -0.168273031632 -2.0942 1.32344947827 -0.0353552306941 0.127469182514
17.7806431466 0.275347411829 1.08061245018 -0.259124955107 0.116138468042 -0.53555798365 -0.167331734898 -2.0942 1.32375110775 -0.0329043988334 0.12766195487
17.8231036481 0.27034750404 1.08171022748 -0.257525005521 0.11758476564 -0.535637900947 -0.16638250657 -2.0942 1.32405142736 -0.0304599236577 0.127861278336
17.8663044683 0.265310787629 1.08267989038 -0.255865197873 0.119003376596 -0.535728429814 -0.165487755776 -2.0942 1.32433120481 -0.0280009325087 0.128047823281
17.9107889502 0.260276941585 1.08364465492 -0.254207128279 0.120423386287 -0.535818836924 -0.164584876909 -2.0942 1.32460953374 -0.025547932102 0.128240791145
17.9570539222 0.255245896708 1.08460453584 -0.252550940179 0.121844634134 -0.535909314349 -0.163674083129 -2.0942 1.32488657897 -0.0231011053166 0.128440326621
18.005170215 0.250217696664 1.08555954439 -0.25089662714 0.123267126604 -0.535999909316 -0.16275536208 -2.0942 1.32516235412 -0.0206604699875 0.128646420148
18.05571187 0.245192385123 1.08650969218 -0.249244182755 0.124690870288 -0.536090668966 -0.161828701731 -2.0942 1.3254368733 -0.0182260437886 0.128859061844
18.1091758557 0.24013451138 1.08733054818 -0.247531877741 0.126087060548 -0.536191610272 -0.160956540925 -2.0942 1.32569090661 -0.0157771955554 0.12905898176
18.1658869036 0.235079611896 1.088146594 -0.245821494145 0.127484692422 -0.536292511785 -0.160076246351 -2.0942 1.32594354032 -0.0133341952274 0.129265319564
18.2192887286 0.230027618669 1.08895784188 -0.244113169218 0.128883609684 -0.536393566685 -0.159188028791 -2.0942 1.32619494157 -0.0108972219635 0.129478220878
18.2753171761 0.224978575042 1.08976430421 -0.242406896204 0.130283818835 -0.536494822141 -0.15829187609 -2.0942 1.32644512493 -0.00846629375292 0.129697676439
18.3354209081 0.219932524351 1.09056599371 -0.240702668376 0.131685326495 -0.536596325232 -0.157387776405 -2.0942 1.3266941054 -0.00604142843161 0.129923676665
18.4008984214 0.214858191568 1.09123734702 -0.238938609453 0.133059426252 -0.536707594209 -0.156538185264 -2.0942 1.32692266341 -0.00360222667288 0.130136996338
18.4738730034 0.209786933809 1.09190398227 -0.237176651268 0.134435008578 -0.536818909747 -0.155680454854 -2.0942 1.32714987013 -0.00116873113182 0.130356728646
18.5572764222 0.204718684428 1.09256590931 -0.23541692512 0.135811921474 -0.536930466104 -0.154814793656 -2.0942 1.32737589492 0.0012588825496 0.130583019968
18.6586502125 0.199653486401 1.09322314162 -0.233659423951 0.13719017149 -0.537042310316 -0.153941189721 -2.0942 1.32760075326 0.00368059623896 0.130815861369
18.7417380198 0.194591382689 1.09387569304 -0.231904140723 0.138569765302 -0.537154489325 -0.15305963141 -2.0942 1.32782446108 0.00609639194933 0.131055243596
18.8149043101 0.189505306206 1.09439699818 -0.230089086546 0.139922108718 -0.537276030894 -0.15223257839 -2.0942 1.32802781714 0.00852644623049 0.131281971189
18.8807374901 0.184422402209 1.0949136813 -0.228276308168 0.141275973752 -0.537397709029 -0.151397381039 -2.0942 1.32822986967 0.0109509348024 0.13151510617
18.952394637 0.179342605555 1.09542574992 -0.226465931178 0.142631212509 -0.537519719046 -0.150554245591 -2.0942 1.32843079012 0.0133696853462 0.131754795489
19.0337098287 0.174265958818 1.09593321863 -0.224657948228 0.143987831608 -0.537642107785 -0.149703160312 -2.0942 1.32863059487 0.0157826795964 0.132001030564
19.1049123593 0.169192504545 1.09643610233 -0.222852351992 0.145345837796 -0.537764921982 -0.148844113766 -2.0942 1.3288293008 0.0181898994261 0.1322538025
19.169756313 0.164099411524 1.09680696511 -0.220987074114 0.146676762763 -0.537896706243 -0.148039557691 -2.0942 1.32900773306 0.0206113070631 0.132493930615
19.234111129 0.159009584984 1.09717330576 -0.219124242653 0.148009246503 -0.538028720072 -0.147226852849 -2.0942 1.32918490902 0.0230272882888 0.13274046108
19.3051541478 0.153922961424 1.09753512957 -0.217263977723 0.149343145103 -0.538161159818 -0.146406203281 -2.0942 1.32936100207 0.0254376739227 0.132993541222
19.3861099764 0.148839582979 1.09789245217 -0.21540627171 0.150678465271 -0.538294072072 -0.145577597462 -2.0942 1.32953602952 0.0278424455769 0.133253162835
19.4569642867 0.143759491744 1.09824528957 -0.213551117011 0.152015213841 -0.538427503315 -0.144741024163 -2.0942 1.32971000915 0.0302415849941 0.133519317401
19.5211959771 0.138664115967 1.09846546781 -0.211636397744 0.153325061702 -0.538569521399 -0.143958915555 -2.0942 1.32986380062 0.0326548479235 0.133772824054
19.5806521688 0.133572097037 1.09868122759 -0.209724290905 0.154636503601 -0.538711864462 -0.143168654527 -2.0942 1.33001638249 0.0350628224998 0.134032728417
19.6388991232 0.128483373233 1.09889257202 -0.207814911373 0.155949399491 -0.538854729855 -0.142370442962 -2.0942 1.33016792992 0.0374653425048 0.134299177984
19.7019308679 0.123397986214 1.09909951778 -0.205908251284 0.157263756184 -0.538998163875 -0.141564269544 -2.0942 1.33031846115 0.039862389438 0.134572164948
19.7712750204 0.118315977588 1.09930208193 -0.204004302787 0.158579580616 -0.539142212712 -0.140750123243 -2.0942 1.33046799485 0.0422539449222 0.134851681187
19.8495123204 0.113223054265 1.09937148593 -0.202040933202 0.159868695857 -0.539294472947 -0.139990405442 -2.0942 1.33059743328 0.0446595654558 0.135118530711
19.9182049737 0.108133574379 1.09943657878 -0.20008033732 0.161159438509 -0.539447155442 -0.139222532465 -2.0942 1.3307257082 0.0470600344301 0.135391773869
19.9956274793 0.103047478116 1.09949736151 -0.198122625012 0.162451672277 -0.539600458516 -0.13844670407 -2.0942 1.33085299642 0.0494551884196 0.135671558111
20.0643533158 0.0979648066231 1.09955385185 -0.196167788195 0.163745404094 -0.539754428139 -0.13766290914 -2.0942 1.33097931709 0.0518450088231 0.135957876043
20.1266851264 0.0928856009887 1.09960606786 -0.194215818787 0.165040641012 -0.539909110173 -0.136871136842 -2.0942 1.33110468976 0.0542294771548 0.136250719956
20.1843215544 0.0877998615888 1.09952476056 -0.192204596875 0.166309370916 -0.540071634493 -0.136133746926 -2.0942 1.33121006729 0.0566279572742 0.136530863837
20.2385800327 0.0827176483006 1.09943925296 -0.19019630509 0.167579759705 -0.540234679735 -0.135388200061 -2.0942 1.33131432672 0.0590214213438 0.136817397995
20.2901698796 0.0776389033322 1.0993495441 -0.188191048533 0.168851674727 -0.540398445145 -0.134634693907 -2.0942 1.33141764638 0.0614097085717 0.137110469616
20.3392219373 0.0725636672872 1.09925565271 -0.186188818919 0.170125123045 -0.540562976336 -0.133873217537 -2.0942 1.3315200463 0.063792800267 0.137410071732
20.3863270322 0.0674919806991 1.09915759787 -0.184189607965 0.171400111845 -0.540728318816 -0.133103760301 -2.0942 1.33162154693 0.0661706778467 0.137716197064
20.4363512016 0.0624181478033 1.09892579483 -0.18213133694 0.172648806119 -0.540901139383 -0.132388629833 -2.0942 1.33170315957 0.0685625185334 0.138009574723
20.488889754 0.0573479196443 1.09868990572 -0.180076147531 0.173899188838 -0.541074580464 -0.131665341691 -2.0942 1.33178369877 0.0709494773862 0.138309340165
20.5446214472 0.0522812405578 1.09844992772 -0.178024140296 0.175151130888 -0.541248842171 -0.130934091449 -2.0942 1.33186334421 0.0733313960949 0.138615640081
20.6043310383 0.0472181505719 1.09820588051 -0.17597530678 0.176404639471 -0.541423969743 -0.13019486836 -2.0942 1.33194211677 0.0757082558914 0.138928467944
20.668941626 0.0421586896342 1.09795778417 -0.173929638522 0.177659721918 -0.541600008312 -0.129447661946 -2.0942 1.33202003781 0.078080038108 0.139247816915
20.7402802682 0.0371014718068 1.09757585331 -0.171825125272 0.178888732282 -0.541783164297 -0.128754717569 -2.0942 1.33207818477 0.0804657387272 0.139554356445
20.8214112313 0.032047933164 1.09718995383 -0.169723840128 0.180119458719 -0.541967040885 -0.128053615873 -2.0942 1.33213530206 0.0828466904361 0.139867282256
20.9195039415 0.026998020266 1.09680008115 -0.167625879334 0.181351775541 -0.542151838999 -0.127344550357 -2.0942 1.33219157054 0.0852227372613 0.140186740311
21.0534031777 0.0219517725332 1.09640625593 -0.165531234291 0.182585690107 -0.542337603478 -0.126627510441 -2.0942 1.33224701196 0.0875938603718 0.140512724536
21.2441341935 0.0169092292961 1.09600849916 -0.163439896391 0.1838212099 -0.542524379056 -0.125902485805 -2.0942 1.33230164851 0.08996004103 0.140845228542
21.4801722633 0.0169536641705 1.09228738954 -0.161663214808 0.183032888652 -0.542443399683 -0.127703763005 -2.09394953999 1.33176890202 0.0905477520567 0.140320607256
21.5797052638 0.0169972565723 1.08856646373 -0.159886185629 0.182244143571 -0.542362510156 -0.129504751503 -2.09369798368 1.33123493484 0.0911356882687 0.139795152262
21.6574945135 0.0170403771643 1.08484568813 -0.158108508599 0.1814553031 -0.54228216203 -0.131305510961 -2.09344492162 1.33070043371 0.0917240006019 0.139269472222
21.723639867 0.0170828601852 1.08112507822 -0.15633068479 0.180665867622 -0.542201421756 -0.13310624718 -2.09319120627 1.33016486842 0.0923124000367 0.138743149156
21.782192654 0.0171249777605 1.07740459562 -0.154552415681 0.179876148459 -0.542120765006 -0.134907003937 -2.09293644678 1.32962886429 0.0929010418321 0.138216735468
21.8357272612 0.0171663380062 1.07368428927 -0.152773672325 0.179086175066 -0.54204068145 -0.13670741279 -2.0926800578 1.32909186381 0.0934899764529 0.137689678342
21.8851636078 0.017207114743 1.06996413096 -0.150994599344 0.178295811656 -0.541960522614 -0.138507682813 -2.09242267102 1.32855394306 0.0940791388671 0.137162100275
21.9317330527 0.0172473293833 1.06624411876 -0.149215159765 0.177505105616 -0.541880409133 -0.140307797855 -2.09216415765 1.3280151642 0.0946685506461 0.136634054562
21.9756021354 0.0172872031574 1.06252422876 -0.147435408785 0.176714017641 -0.541799951466 -0.14210795719 -2.09190492558 1.32747577661 0.0952581802999 0.136105806772
22.017340238 0.0173262892812 1.05880450131 -0.145655266514 0.17592261851 -0.541719911001 -0.143907749969 -2.09164412081 1.32693524359 0.0958480937312 0.135576805415
22.0574482604 0.0173647959142 1.05508491051 -0.143874796529 0.175130857838 -0.541639827242 -0.145707367356 -2.0913822155 1.32639376828 0.09643826486 0.135047278129
22.0959898829 0.0174027330277 1.05136545475 -0.142093988978 0.174338754879 -0.541559756908 -0.147506801998 -2.09111913912 1.3258513761 0.0970287018969 0.134517248971
22.1333968504 0.0174403347683 1.04764611353 -0.140312869957 0.173546302001 -0.541479379552 -0.149306254399 -2.09085525417 1.32530837796 0.0976193854367 0.133987036242
22.1697022416 0.0174771399316 1.04392692003 -0.138531390388 0.172753535052 -0.54139938187 -0.151105300386 -2.09058973434 1.32476414916 0.0982103719524 0.133456011029
22.2049387107 0.0175133577348 1.04020785174 -0.136749613043 0.171960405912 -0.54131930528 -0.152904141776 -2.09032306661 1.32421891477 0.0988016332988 0.132924422475
22.2391377437 0.01754899889 1.03648890715 -0.134967526922 0.171166935113 -0.541239210487 -0.154702770564 -2.09005517548 1.32367270245 0.0993931783537 0.132392296448
22.272661956 0.0175842988287 1.03277006947 -0.133185156673 0.170373118066 -0.541158781107 -0.156501398747 -2.08978643989 1.32312584886 0.0999849857902 0.131859975749
22.3055244402 0.0176187926121 1.02905136408 -0.131402457846 0.169578982568 -0.541078688391 -0.158299577504 -2.08951600166 1.32257767187 0.100577116562 0.131326778047
22.337738421 0.0176526911574 1.02533277207 -0.129619491459 0.168784483925 -0.540998479608 -0.160097520147 -2.08924436099 1.32202842241 0.101169540556 0.130792977316
22.3693167088 0.0176860049527 1.02161429191 -0.127836246753 0.167989642386 -0.540918214118 -0.161895218074 -2.08897144211 1.32147812718 0.101762267026 0.130258598693
22.4002719558 0.0177189715762 1.01789591083 -0.126052745636 0.167194457961 -0.540837584775 -0.163692895709 -2.08869763806 1.32092715348 0.102355272895 0.129724013586
22.4306163132 0.0177511219214 1.01417764593 -0.124268948963 0.166398949396 -0.540757244074 -0.165490077379 -2.08842205626 1.32037475601 0.102948623833 0.129188481339
22.4603619578 0.0177826685079 1.01045948211 -0.122484916133 0.165603075393 -0.540676745011 -0.167286988912 -2.08814521253 1.31982121322 0.103542287587 0.128652302277
22.4892320168 0.0178136219762 1.00674141784 -0.120700636048 0.164806856553 -0.54059614768 -0.169083621006 -2.08786702871 1.31926655205 0.104136273977 0.128115501818
22.5178155327 0.0178442217351 1.00302344453 -0.118916128314 0.164010297119 -0.540515152883 -0.1708802117 -2.08758791581 1.31871117169 0.104730557902 0.127578481148
22.5461152862 0.0178739942071 0.999305570555 -0.117131359577 0.163213405981 -0.540434391674 -0.172676255992 -2.08730694304 1.31815425783 0.105325210093 0.127040436353
22.5741341804 0.0179031541653 0.995587784877 -0.115346386634 0.162416146455 -0.54035342685 -0.174471993264 -2.08702464072 1.31759612088 0.105920196242 0.126501697809
22.6018750117 0.0179317118462 0.9918700859 -0.113561198866 0.161618538581 -0.54027231612 -0.176267413521 -2.08674093087 1.31703678609 0.106515526586 0.125962289721
22.6293405728 0.017959908821 0.988152469493 -0.11177581306 0.160820591543 -0.540190770569 -0.178062769664 -2.08645624337 1.31647668811 0.107111173934 0.125422646139
22.6565335989 0.0179872668333 0.984434934784 -0.109990201967 0.160022303732 -0.540109397604 -0.179857524563 -2.08616960412 1.31591493775 0.107707214547 0.124881894848
22.6834568452 0.0180140026478 0.980717475 -0.108204420181 0.15922364277 -0.540027768827 -0.181651932444 -2.08588156178 1.31535187884 0.108303611774 0.124340397694
22.7101129977 0.0180401262671 0.977000088487 -0.106418457291 0.158424628431 -0.539945940487 -0.183445982524 -2.08559203736 1.31478753548 0.108900376394 0.123798178123
22.7365047048 0.0180658817802 0.97328277586 -0.10463232672 0.1576252756 -0.539863636462 -0.185239943961 -2.08530148085 1.31422238173 0.109497479046 0.123255706431
22.7626346644 0.0180907857993 0.969565526422 -0.102846007973 0.156825571117 -0.539781436872 -0.187033244386 -2.08500887006 1.31365544626 0.110095001993 0.122712035979
22.7885054855 0.0181150569443 0.965848337888 -0.101059553681 0.156025486802 -0.539698921833 -0.188826154297 -2.08471477547 1.31308710842 0.110692905957 0.122167562013
22.8141197535 0.0181387053007 0.962131208582 -0.0992729531319 0.155225042718 -0.539616147899 -0.190618661992 -2.08441911518 1.31251739223 0.111291202465 0.121622308102
22.8394799728 0.0181619774649 0.958414144131 -0.0974862164055 0.154424259595 -0.539532852235 -0.192411054511 -2.08412236281 1.31194681418 0.111889859718 0.121076783402
22.8645888037 0.0181843843099 0.954697123354 -0.0956993306236 0.153623111403 -0.539449583065 -0.194202720757 -2.08382344292 1.31137431228 0.112488966507 0.120529959821
22.889448725 0.0182061470005 0.950980148819 -0.0939123454421 0.152821575457 -0.539365933422 -0.195993948982 -2.08352294774 1.31080030678 0.113088480935 0.119982270448
22.9140622115 0.0182272751975 0.947263218743 -0.0921252506003 0.152019671264 -0.539281957281 -0.197784726543 -2.08322079451 1.31022481973 0.113688415164 0.119433737584
22.9381903576 0.0182480183878 0.94354634412 -0.0903380522722 0.151217426209 -0.539197407835 -0.199575360134 -2.08291748258 1.30964841473 0.114288734795 0.118884913196
22.9623183537 0.0182678812342 0.939829492582 -0.0885507458018 0.150414800318 -0.539112797494 -0.201365195961 -2.08261187618 1.30906993054 0.114889535875 0.118334680583
22.9864461485 0.0182870873983 0.936112671837 -0.0867633780129 0.149611776433 -0.539027732478 -0.20315454182 -2.08230459329 1.30848983126 0.115490773545 0.117783513319
23.0105737558 0.0183056462436 0.932395879999 -0.084975938874 0.148808373741 -0.538942264869 -0.204943383991 -2.08199554922 1.30790813739 0.116092460764 0.117231432807
23.0347010671 0.0183238104786 0.928679133809 -0.0831884301873 0.148004627012 -0.538856166395 -0.206732050845 -2.08168527198 1.3073254645 0.116694560288 0.116679037936
23.0588283705 0.0183410778306 0.924962388904 -0.081400856465 0.147200480827 -0.538769908187 -0.20851984142 -2.0813725582 1.30674054179 0.117297176222 0.116125114953
23.0829555811 0.0183576745583 0.921245658463 -0.0796132616495 0.146395923822 -0.538683110789 -0.210307085059 -2.08105805544 1.30615388109 0.117900260396 0.115570181232
23.1070827089 0.0183736099778 0.917528940532 -0.077825635507 0.145590975339 -0.538595825787 -0.212093766789 -2.08074167533 1.30556550216 0.118503826803 0.115014258027
23.1312096057 0.0183891401913 0.913812257986 -0.0760379752766 0.144785677971 -0.538507845086 -0.213880238979 -2.08042397901 1.30497607726 0.119107834973 0.114457995133
23.1553366466 0.0184037552157 0.91009555357 -0.0742502956009 0.143979959291 -0.538419592681 -0.21566574842 -2.08010368664 1.3043842147 0.119712398058 0.113900072525
23.1794637053 0.0184176840554 0.906378846312 -0.0724626374559 0.143173814062 -0.538330704877 -0.217450648261 -2.07978147968 1.30379047839 0.120317464166 0.113341055119
23.2035907955 0.0184309364418 0.902662134261 -0.0706749896059 0.142367262655 -0.538241235409 -0.219234922045 -2.07945726327 1.30319488911 0.120923048708 0.112780965445
23.2277177259 0.0184437716239 0.898945446776 -0.0688873452583 0.141560355158 -0.538150995627 -0.221018948849 -2.07913163892 1.3025981793 0.121529107301 0.112220507292
23.2518449583 0.018455671083 0.895228712718 -0.0670997301425 0.140753000517 -0.538060356115 -0.22280191742 -2.07880323968 1.3019988239 0.122135763379 0.111658244304
23.2759723288 0.0184668673959 0.891511957504 -0.0653121811317 0.139945201152 -0.537968974325 -0.22458420717 -2.0784727828 1.30139744631 0.122742961146 0.111094795015
23.3000998492 0.0184773698593 0.887795179022 -0.0635246872924 0.139136977004 -0.537876901236 -0.226365800119 -2.07814017018 1.30079406504 0.12335071723 0.110530180834
23.3247122464 0.0184874420382 0.884078413759 -0.0617372361037 0.138328387829 -0.537783975099 -0.228147104897 -2.07780604529 1.30018948213 0.123958983192 0.109965167161
23.3495712559 0.0184965555652 0.880361575519 -0.0599498660157 0.137519321512 -0.537690503873 -0.229927245649 -2.07746894324 1.29958202374 0.124567894082 0.109398189065
23.3746791296 0.018504946919 0.876644696602 -0.0581626095032 0.136709788758 -0.537596168747 -0.231706630954 -2.07712962233 1.29897237874 0.12517738968 0.108829923709
23.400038376 0.0185126247806 0.872927774683 -0.0563754561789 0.135899808795 -0.537501016835 -0.233485241118 -2.07678798109 1.2983605626 0.125787487966 0.108260390925
23.4256512052 0.018519857811 0.869210854016 -0.0545883867467 0.135089452531 -0.537404918622 -0.235263517679 -2.07644470964 1.29774745553 0.126398136001 0.107690424705
23.4515208679 0.0185261062718 0.865493832013 -0.0528014542416 0.134278584031 -0.537308108826 -0.23704051266 -2.07609823233 1.29713121742 0.127009482067 0.107118317793
23.4776496611 0.0185316111505 0.86177674846 -0.0510146860515 0.133467223385 -0.537210296624 -0.238816667081 -2.07574935356 1.29651261026 0.127621461006 0.106544812258
23.5040401959 0.0185363806174 0.858059600819 -0.0492280720907 0.132655389362 -0.537111525826 -0.240591959268 -2.07539796694 1.29589164683 0.128234092472 0.10596992679
23.5306947182 0.0185406887334 0.854342441717 -0.0474415860984 0.131843164604 -0.53701170178 -0.242366867609 -2.07504481752 1.29526929285 0.128847318171 0.105394570017
23.5576167429 0.0185439829195 0.850625150721 -0.0456552973099 0.131030386785 -0.536910975464 -0.244140363308 -2.07468820228 1.29464352327 0.129461301761 0.104816877841
23.5848086007 0.0185465092968 0.846907775769 -0.0438692273798 0.130217086471 -0.536809088474 -0.245912923598 -2.07432897813 1.29401518158 0.130075972472 0.104237664044
23.6122730171 0.0185482753177 0.843190314049 -0.0420833667912 0.129403281669 -0.536706080036 -0.247684524555 -2.07396703335 1.29338427692 0.130691351856 0.103656945707
