liuchen18/hilsys_new/sim_sys/data/fwx_planned_trajectory_cehou_o.txt
this is the FWX joint values,the following info is time,x,y,theta,joint1,joint2,joint3,joint4,joint5,joint6,joint7
0.0 2.35954286196 0.540454931081 -0.160103968687 0.216495884286 -0.685564126954 -1.51280062126 -1.38268720234 0.491255346182 0.0194354485686 0.385017736858
0.112881629135 2.35523476036 0.540216022075 -0.160382409672 0.215571584648 -0.686934534896 -1.51283740658 -1.38130914751 0.490701748611 0.0219583972792 0.384451418402
0.198921919358 2.35092556509 0.539975728723 -0.160659317026 0.214646918253 -0.688297899159 -1.51287655385 -1.37992990175 0.490153162788 0.0244827467034 0.383888695736
0.272392352284 2.34661526456 0.539734063713 -0.160934676868 0.213721910693 -0.68965424192 -1.51291806424 -1.3785494855 0.4896095335 0.0270084276255 0.383329591689
0.338081004568 2.34230384733 0.539491039794 -0.161208475482 0.212796587489 -0.691003585905 -1.51296193844 -1.37716791897 0.489070805628 0.0295353712582 0.382774128356
0.398154907639 2.33799155759 0.539246533337 -0.161480984165 0.211870623678 -0.692346371711 -1.51300862714 -1.37578506491 0.488537274735 0.0320628551206 0.382222685418
0.453646891114 2.33367812205 0.539000686043 -0.16175191916 0.210944373779 -0.693682109792 -1.51305772962 -1.37440111575 0.488008578703 0.0345915369755 0.381674978793
0.505936797154 2.32936353559 0.538753517307 -0.162021251559 0.210017883867 -0.695010916189 -1.51310919789 -1.3730160742 0.487484620384 0.0371212780286 0.381130977854
0.555209518172 2.3250477874 0.538505040114 -0.162288968279 0.209091179207 -0.696332815955 -1.51316303072 -1.37162995945 0.486965345027 0.0396520110315 0.380590701664
0.602103556842 2.32073086683 0.538255267498 -0.162555056406 0.208164284981 -0.697647834644 -1.51321922645 -1.37024279043 0.486450698034 0.0421836691931 0.380054168548
0.647180079796 2.31641277039 0.538004218981 -0.162819487422 0.207237247299 -0.698956097021 -1.51327773285 -1.36885456697 0.485940582155 0.044716110457 0.379521341296
0.690509775952 2.31209347354 0.537751894705 -0.163082280548 0.206310048843 -0.700257430111 -1.51333864812 -1.36746534566 0.48543502947 0.0472494220405 0.37899234737
0.732576867153 2.30777297335 0.537498314365 -0.163343407367 0.205382735824 -0.701551961793 -1.51340191858 -1.3660751254 0.484933942322 0.0497834611107 0.378467147073
0.773418239293 2.30345125981 0.537243491157 -0.163602855651 0.204455333057 -0.702839719656 -1.51346754078 -1.36468392413 0.484437266786 0.0523181626427 0.37794575576
0.813069692605 2.2991283231 0.536987438307 -0.163860613352 0.203527865245 -0.704120731695 -1.51353551082 -1.36329175953 0.48394494916 0.0548534621288 0.377428188087
0.851565900689 2.29480416198 0.536730175439 -0.16411665276 0.202600378193 -0.70539513362 -1.5136057715 -1.36189862773 0.483456892586 0.0573892141243 0.37691439826
0.88931450112 2.29047874981 0.536471703034 -0.164370994049 0.201672853772 -0.70666273776 -1.5136784243 -1.36050458897 0.48297313118 0.0599255194878 0.376404519883
0.926330015145 2.28615208593 0.536212040835 -0.164623609682 0.200745337772 -0.707923682688 -1.51375341079 -1.3591096385 0.482493567909 0.0624622321733 0.375898504806
0.962626748928 2.28182416115 0.535951202169 -0.16487448833 0.199817854453 -0.709177998163 -1.51383072539 -1.35771379303 0.48201814999 0.064999289576 0.375396364811
0.998218736193 2.27749496646 0.535689200383 -0.165123618844 0.198890427953 -0.710425714303 -1.51391036216 -1.35631706902 0.481546824907 0.0675366296216 0.374898110991
1.03311964604 2.27316450293 0.535426054957 -0.16537097468 0.197963103237 -0.711666976599 -1.51399225984 -1.35491945902 0.481079497231 0.0700741042517 0.374403689638
1.06734312301 2.26883274171 0.535161766974 -0.165616576358 0.197035862133 -0.712901583942 -1.51407652189 -1.35352102686 0.480616201942 0.0726118269373 0.373913239582
1.1009022995 2.26449968448 0.534896355985 -0.165860397572 0.196108749495 -0.714129684468 -1.51416308597 -1.35212176421 0.480156843627 0.0751496491532 0.37342670488
1.13381012972 2.26016532285 0.534629835378 -0.166102427919 0.195181788941 -0.715351309765 -1.51425194462 -1.35072168662 0.479701370918 0.0776875108579 0.37294409389
1.16640200759 2.2558296486 0.534362218545 -0.166342657183 0.19425500395 -0.716566491712 -1.51434309002 -1.34932080941 0.47924973276 0.0802253525656 0.372465414311
1.19868094019 2.25149266514 0.534093524602 -0.166581060299 0.19332843818 -0.717775384481 -1.51443645771 -1.34791912166 0.478801836047 0.0827630242616 0.371990605219
1.23065015377 2.24715434137 0.533823755471 -0.166817657579 0.19240207411 -0.718977774749 -1.51453215188 -1.34651669065 0.478357715588 0.0853006510702 0.371519809733
1.26231258986 2.24281468127 0.533552930292 -0.167052424257 0.191475955194 -0.720173819093 -1.51463010722 -1.34511350466 0.477917278472 0.0878380826513 0.371052964844
1.29367124531 2.23847367728 0.533281062446 -0.16728535088 0.190550104328 -0.721363550602 -1.51473031452 -1.34370957812 0.477480474976 0.0903752616318 0.370590075654
1.32472908622 2.23413132197 0.533008165304 -0.16751642818 0.18962454426 -0.722547002587 -1.51483276426 -1.34230492526 0.477047255731 0.0929121312162 0.370131146646
1.35548894966 2.22978762106 0.532734257407 -0.167745632855 0.188699316905 -0.723724336797 -1.51493738969 -1.3408995319 0.47661753074 0.0954485400376 0.369676110426
1.38595393079 2.22544254115 0.532459341742 -0.167972984499 0.18777440604 -0.724895328905 -1.51504429453 -1.33949346858 0.476191333731 0.0979846239654 0.36922511347
1.41612680522 2.22109608857 0.532183436829 -0.168198460167 0.18684985329 -0.726060142831 -1.51515341136 -1.33808672037 0.475768575058 0.100520231432 0.368778086457
1.44601042025 2.21674825651 0.53190655598 -0.16842205136 0.185925680768 -0.727218812852 -1.5152647294 -1.33667930064 0.475349206832 0.103055307807 0.368335031424
1.47560759245 2.21239903832 0.53162871249 -0.168643749772 0.185001910427 -0.728371373395 -1.51537823763 -1.3352712226 0.47493318156 0.105589799056 0.367895949832
1.50492100732 2.20804844203 0.531349924134 -0.168863534101 0.184078582063 -0.729517992742 -1.51549386782 -1.33386246903 0.474520413001 0.108123552969 0.367460768571
1.53395362276 2.20369643193 0.531070195159 -0.169081422781 0.183155681312 -0.730658436694 -1.51561172217 -1.33245311351 0.474110933051 0.110656715345 0.367029636587
1.56270806689 2.19934301663 0.530789543283 -0.169297394909 0.182233247608 -0.731792875499 -1.51573173191 -1.33104313809 0.473704655944 0.11318913387 0.366602478989
1.59118704364 2.1949881901 0.530507981696 -0.169511442952 0.181311302225 -0.732921344307 -1.51585388495 -1.32963255521 0.47330153579 0.115720756714 0.366179294965
1.61939322618 2.19063194642 0.530225523556 -0.169723559567 0.180389866267 -0.734043878358 -1.5159781689 -1.32822137709 0.472901527118 0.118251532646 0.365760083171
1.64732915866 2.1862742959 0.529942185711 -0.169933725648 0.179468977084 -0.735160651483 -1.51610451486 -1.32680958365 0.472504547981 0.120781309045 0.365344765533
1.6749976679 2.18191520051 0.529657973836 -0.170141958078 0.178548622671 -0.736271420695 -1.5162330225 -1.32539725136 0.472110627801 0.123310240879 0.364933492604
1.70212992133 2.17755467112 0.529372904689 -0.17034823819 0.177628839956 -0.737376361591 -1.51636362251 -1.32398435946 0.471719685206 0.125838175512 0.364526184683
1.72927113046 2.17319270242 0.529086991282 -0.170552559411 0.176709649326 -0.738475509909 -1.51649630161 -1.32257091948 0.471331676425 0.128365063932 0.364122838329
1.75642132805 2.16882928922 0.528800246594 -0.170754915355 0.175791070997 -0.739568901432 -1.51663104628 -1.32115694277 0.470946558121 0.130890857724 0.363723449607
1.78358043422 2.16446444403 0.528512686392 -0.170955289275 0.174873139599 -0.740656714604 -1.51676778765 -1.31974240661 0.47056425306 0.133415404225 0.363327936233
1.81074870297 2.16009812654 0.528224317936 -0.171153696163 0.173955845912 -0.741738698674 -1.51690662197 -1.31832739012 0.470184787678 0.135938866871 0.362936449549
1.83792605032 2.15573034983 0.527935156877 -0.171350119742 0.173039224091 -0.742815033679 -1.51704748011 -1.31691186997 0.469808085391 0.138461093053 0.362548905787
1.86511250699 2.15136110928 0.527645216008 -0.17154455439 0.172123293606 -0.743885755677 -1.51719034779 -1.31549585685 0.469434104634 0.140982036576 0.362165299105
1.89230809961 2.14699040038 0.527354508082 -0.171736994664 0.171208073753 -0.744950900734 -1.51733521053 -1.3140793613 0.469062804286 0.143501651831 0.361785623207
1.91951273806 2.14261823777 0.527063047664 -0.171927426299 0.170293596211 -0.746010651054 -1.51748200015 -1.3126623582 0.468694112139 0.146019786411 0.361409792317
1.94672668452 2.13824457893 0.526770843723 -0.172115862113 0.169379854915 -0.747064749079 -1.5176308087 -1.31124492911 0.468328051234 0.148536611575 0.361037957808
1.97394984887 2.13386943904 0.52647791068 -0.172302288335 0.168466881024 -0.748113378429 -1.51778156788 -1.30982704832 0.467964550075 0.151051975038 0.360670032569
2.00118225159 2.12949281415 0.526184261073 -0.172486700277 0.16755469307 -0.749156575259 -1.51793426258 -1.30840872579 0.467603569354 0.153565833386 0.36030600858
2.02842391932 2.12511470041 0.525889907392 -0.172669093422 0.166643309406 -0.750194375671 -1.51808887754 -1.30698997132 0.467245070216 0.156078143792 0.359945877415
2.05567474758 2.12073511451 0.525594862892 -0.172849456076 0.165732758579 -0.751226964846 -1.51824534586 -1.30557075758 0.466888985697 0.15858875434 0.359589550504
2.08293501291 2.11635401176 0.525299138356 -0.173027798648 0.164823037978 -0.752254079294 -1.51840375473 -1.30415116838 0.46653533514 0.161097843536 0.359237178552
2.11020460879 2.11197140938 0.525002746874 -0.173204109958 0.163914175599 -0.753275905467 -1.51856403723 -1.30273117586 0.46618405233 0.163605259633 0.358888671783
2.13748355776 2.10758730404 0.524705700695 -0.173378386226 0.163006189015 -0.754292479379 -1.51872617762 -1.30131078929 0.465835100247 0.166110961964 0.358544020235
2.16477187824 2.10320169252 0.524408012015 -0.173550623839 0.162099095627 -0.755303836966 -1.51889016001 -1.29989001783 0.465488442321 0.168614910432 0.35820321358
2.19206945349 2.09881459346 0.524109692695 -0.173720813737 0.16119292071 -0.756310165666 -1.51905591933 -1.29846883215 0.465144016968 0.171116953802 0.357866161115
2.21937657642 2.09442596008 0.523810755411 -0.173888963723 0.160287665353 -0.757311196887 -1.51922353729 -1.29704731809 0.464801839608 0.17361727728 0.357533012222
2.24669312823 2.09003581155 0.52351121184 -0.174055065266 0.159383354252 -0.758307119187 -1.51939294892 -1.29562544586 0.464461849432 0.176115729852 0.357203675132
2.27401912325 2.08564414512 0.523211073917 -0.174219115468 0.158480004021 -0.759297968266 -1.51956413798 -1.29420322413 0.464124011703 0.178612273526 0.356878138156
2.30135457992 2.08125095816 0.522910353516 -0.17438111159 0.157577631101 -0.760283779703 -1.51973708808 -1.29278066146 0.463788292133 0.181106870868 0.356556389281
2.3286993692 2.07685627116 0.522609061035 -0.174541047233 0.156676257398 -0.761264742542 -1.51991173649 -1.29135772674 0.463454634573 0.183599371475 0.356238336296
2.35605379628 2.07246003536 0.522307211105 -0.174698927456 0.155775887886 -0.762240583836 -1.52008815895 -1.28993450767 0.463123050386 0.186089966759 0.355924126687
2.38341773009 2.06806227175 0.522004813928 -0.174854746395 0.154876543872 -0.763211493631 -1.52026629288 -1.2885109727 0.462793484203 0.188578506568 0.355613667293
2.41079118495 2.06366297815 0.521701881098 -0.175008502005 0.153978241012 -0.76417750713 -1.52044612169 -1.28708712996 0.462465903553 0.191064955516 0.355306944919
2.4381741711 2.05926215247 0.52139842415 -0.175160192391 0.153080994788 -0.765138659396 -1.52062762865 -1.28566298751 0.462140276406 0.193549278755 0.355003946083
2.46529534054 2.05485981694 0.521094451965 -0.175309813819 0.152184823676 -0.766095140503 -1.52081075375 -1.28423851263 0.461816552034 0.196031326815 0.354704577642
2.49242612321 2.05045592091 0.520789981177 -0.175457368493 0.151289736672 -0.767046673837 -1.52099556637 -1.2828137947 0.461494737672 0.198511296862 0.354408984664
2.51956637982 2.04605048712 0.520485020457 -0.175602853225 0.150395751637 -0.767993450357 -1.52118200673 -1.2813888006 0.461174783373 0.200989039706 0.35411707317
2.54671612061 2.04164351389 0.520179581048 -0.175746266783 0.149502883275 -0.768935504635 -1.521370058 -1.27996353801 0.46085665889 0.203464522479 0.353828828664
2.57387535378 2.03723499963 0.519873674126 -0.175887608079 0.148611146126 -0.769872871078 -1.52155970327 -1.27853801452 0.4605403344 0.205937712828 0.353544236395
2.60104393594 2.03282496824 0.519567307018 -0.176026876034 0.147720555195 -0.770805740263 -1.52175088556 -1.27711219601 0.460225764538 0.208408462296 0.353263202824
2.62822218664 2.02841336725 0.519260498387 -0.176164069921 0.1468311236 -0.771733832547 -1.52194366762 -1.27568617334 0.459912952393 0.210876973378 0.352985870144
2.65540995635 2.02400022105 0.518953255345 -0.176299189204 0.145942865726 -0.772657339299 -1.52213799278 -1.27425991203 0.459601853368 0.213343097919 0.352712144079
2.68260725326 2.01958552842 0.518645588763 -0.176432233432 0.145055795344 -0.773576294333 -1.5223338441 -1.27283341935 0.459292439378 0.215806805471 0.352442009027
2.70981408351 2.01516928826 0.518337509451 -0.176563202286 0.14416992606 -0.774490731284 -1.52253120459 -1.27140670249 0.45898468275 0.218268066081 0.352175449162
2.73703029143 2.01075152601 0.518029023157 -0.176692097304 0.143285269411 -0.775400840778 -1.5227300206 -1.26997972607 0.458678543367 0.220726732349 0.351912371037
2.76425620886 2.00633218749 0.517720150588 -0.176818914789 0.142401842685 -0.776306340718 -1.52293034802 -1.26855258232 0.458374020212 0.223183011716 0.351652913564
2.79149168011 2.00191129862 0.51741089727 -0.176943656819 0.141519656797 -0.777207422431 -1.52313213357 -1.26712523554 0.458071073911 0.225636757102 0.351396982654
2.8187367052 1.99748885864 0.517101273701 -0.177066323682 0.140638724601 -0.77810411888 -1.52333536031 -1.26569769264 0.457769678474 0.228087940378 0.351144561778
2.84599129026 1.99306486686 0.516791290312 -0.17718691579 0.13975905879 -0.778996462826 -1.52354001126 -1.26426996047 0.457469808307 0.23053653389 0.350895634217
2.87325527142 1.98863935016 0.516480951262 -0.177305437245 0.138880667455 -0.779884644549 -1.52374603636 -1.26284200258 0.457171428384 0.232982391318 0.350650107053
2.90052898873 1.9842122528 0.5161702793 -0.177421881366 0.138003572073 -0.780768380016 -1.52395348446 -1.26141391237 0.45687453366 0.23542572469 0.350408115575
2.92781227624 1.97978360208 0.51585927836 -0.177536252794 0.13712778011 -0.781647860128 -1.52416230589 -1.25998565309 0.456579089831 0.237866388022 0.350169566309
2.95510513603 1.97535339768 0.515547958558 -0.177648552512 0.136253303529 -0.782523116913 -1.52437248381 -1.25855723135 0.456285072916 0.240304355399 0.349934441968
2.98240756808 1.97092163929 0.515236329941 -0.177758781623 0.135380154136 -0.783394182181 -1.52458400135 -1.25712865372 0.455992459315 0.242739601359 0.349702725111
3.00971940033 1.96648835514 0.514924395083 -0.17786694673 0.134508336615 -0.784261245517 -1.52479681222 -1.25569988278 0.455701218917 0.245171980671 0.349474323741
3.0370409851 1.96205348799 0.514612178758 -0.177973038178 0.133637876616 -0.785124021424 -1.52501095813 -1.25427101303 0.455411342755 0.247601709616 0.349249369232
3.06437214624 1.95761706648 0.514299683311 -0.178077063099 0.132768778209 -0.785982700042 -1.52522639322 -1.25284200675 0.455122801408 0.250028643311 0.349027769111
3.09171288169 1.95317909064 0.513986918474 -0.178179023135 0.131901052488 -0.786837312398 -1.52544310081 -1.25141287034 0.454835572816 0.252452757947 0.348809505491
3.1190631935 1.94873956055 0.513673893909 -0.178278920036 0.131034710398 -0.787687889294 -1.52566106423 -1.24998361012 0.454549635281 0.254874030144 0.348594560358
3.14642289937 1.94429850564 0.513360610611 -0.178376762828 0.130169753282 -0.788534619321 -1.52588024108 -1.24855418782 0.4542649634 0.257292315755 0.348382842987
3.17379235776 1.93985586733 0.513047095359 -0.178472538915 0.129306210919 -0.789377215946 -1.52610066593 -1.24712469891 0.453981544425 0.259707835001 0.348174480597
3.20117139046 1.93541167546 0.512733348919 -0.178566257843 0.128444084044 -0.790215868256 -1.52632229681 -1.24569510488 0.453699353604 0.262120444093 0.347969382051
3.22855998929 1.93096593039 0.512419380638 -0.178657921869 0.127583382914 -0.791050606231 -1.52654511731 -1.24426541189 0.453418370704 0.264530121218 0.34776752901
3.25595815423 1.92651863256 0.512105199794 -0.17874753335 0.126724117644 -0.79188145962 -1.52676911102 -1.24283562608 0.453138575836 0.26693684497 0.347568903025
3.28336569889 1.92206981252 0.51179080582 -0.178835103648 0.125866286312 -0.792708615766 -1.52699423951 -1.24140570847 0.452859948075 0.269340472269 0.347373414949
3.31078298789 1.91761941042 0.51147622747 -0.178920617276 0.125009922756 -0.793531787483 -1.52722053025 -1.23997575537 0.452582471054 0.271741226987 0.347181187651
3.33820983276 1.91316745722 0.511161463948 -0.179004086105 0.124155024461 -0.794351162563 -1.52744794525 -1.23854572756 0.452306124463 0.274138966407 0.346992131627
3.36564623146 1.90871395359 0.510846524218 -0.179085512968 0.123301600876 -0.795166769902 -1.52767646841 -1.23711563107 0.452030889797 0.276533670605 0.346806228212
3.39309217579 1.90425890028 0.510531417178 -0.179164900786 0.122449661315 -0.795978638168 -1.52790608365 -1.23568547184 0.451756748874 0.278925320042 0.346623458656
3.42054747117 1.89980232888 0.510216140724 -0.179242263164 0.121599200682 -0.796786953238 -1.52813675658 -1.2342552103 0.451483685015 0.281313772677 0.346443735651
3.44801249653 1.89534417837 0.509900725543 -0.179317581791 0.12075025679 -0.797591427627 -1.5283685076 -1.23282494349 0.451211678405 0.283699255762 0.34626717756
3.4754870532 1.89088448073 0.509585169302 -0.179390870767 0.119902823964 -0.798392247614 -1.52860130278 -1.23139463162 0.45094071294 0.286081627628 0.346093696773
3.50297113501 1.88642323693 0.50926948059 -0.179462133459 0.119056910876 -0.799189441 -1.52883512639 -1.22996428056 0.450670771741 0.288460870132 0.345923274415
3.53046473583 1.88196044798 0.508953667927 -0.179531373313 0.118212526074 -0.799983035349 -1.52906996269 -1.22853389613 0.450401838231 0.290836965494 0.345755891547
3.55796765491 1.87749614642 0.508637727703 -0.179598606075 0.117369661388 -0.800773214897 -1.52930578137 -1.22710343825 0.450133899735 0.293209772682 0.345591462928
3.58548027531 1.87303027017 0.508321692489 -0.179663810691 0.1165283585 -0.801559692163 -1.52954259589 -1.22567300459 0.449866933174 0.295579522075 0.345430102302
3.61300239423 1.86856285215 0.508005558453 -0.17972700339 0.115688608678 -0.802342651753 -1.52978037635 -1.22424255489 0.449600926404 0.297946073016 0.345271724166
3.64053400348 1.86409389357 0.507689333807 -0.179788188031 0.114850419852 -0.803122120353 -1.53001910745 -1.22281209489 0.449335864072 0.300309409044 0.345116309547
3.66807509487 1.85962339571 0.507373026703 -0.179847368548 0.114013799836 -0.803898124421 -1.53025877387 -1.22138163031 0.449071731107 0.30266951403 0.344963839414
3.69562546559 1.85515139195 0.507056632059 -0.179904562723 0.113178737494 -0.804670846404 -1.53049934932 -1.21995112062 0.448808518583 0.305026247918 0.344814230783
3.72318550076 1.85067781928 0.506740184282 -0.179959746849 0.112345278262 -0.805439999107 -1.53074084048 -1.21852066411 0.448546200357 0.307379843974 0.344667592701
3.75075499349 1.84620271142 0.50642367807 -0.180012939178 0.111513410456 -0.806205765315 -1.53098322148 -1.21709022004 0.448284767995 0.309730162521 0.344523841957
3.77833393557 1.84172606984 0.506107121272 -0.180064144024 0.110683141302 -0.806968170607 -1.53122647746 -1.2156597941 0.448024207568 0.312077188671 0.344382959565
3.80592231677 1.83724789605 0.505790521675 -0.180113365767 0.109854477911 -0.807727240334 -1.53147059356 -1.21422939192 0.447764505412 0.314420907851 0.344244926501
3.83351992611 1.83276822419 0.505473872766 -0.180160624125 0.109027406296 -0.808483155029 -1.53171554748 -1.21279897261 0.447505656102 0.316761180948 0.344109662196
3.86112715891 1.8282869904 0.50515721073 -0.18020589283 0.108201975518 -0.809235628044 -1.53196133929 -1.21136863494 0.447247630627 0.319098243881 0.343977270943
3.88874380216 1.82380422915 0.504840528838 -0.180249192054 0.107378171059 -0.809984840223 -1.53220794712 -1.20993833784 0.446990424017 0.32143195792 0.34384767198
3.91636984356 1.81931994213 0.504523834582 -0.180290526528 0.10655599947 -0.810730816045 -1.53245535656 -1.20850808693 0.446734023667 0.323762309655 0.343720846389
3.94400527492 1.81483413105 0.504207135393 -0.180329901041 0.105735467197 -0.811473579765 -1.53270355323 -1.20707788778 0.44647841722 0.32608928597 0.343596775233
3.97164988115 1.81034683074 0.503890423367 -0.180367337135 0.10491655752 -0.812213309913 -1.53295251879 -1.20564769917 0.44622360251 0.328412748654 0.343475380481
3.99930405964 1.80585797658 0.503573736412 -0.180402806092 0.104099322985 -0.812949720605 -1.53320224687 -1.20421762035 0.445969547853 0.330732936071 0.343356761656
4.02669369906 1.80136760371 0.503257066411 -0.180436329892 0.103283746363 -0.81368299066 -1.53345271953 -1.20278760993 0.4457162515 0.333049710398 0.34324084056
4.05409258915 1.79687571402 0.502940420507 -0.180467913647 0.102469833563 -0.81441314347 -1.53370392286 -1.20135767349 0.445463702075 0.335363059609 0.343127598421
4.0815007217 1.7923823094 0.502623805788 -0.180497562519 0.101657590398 -0.815140202212 -1.53395584297 -1.19992781654 0.44521188843 0.337672971952 0.343017016453
4.1089178755 1.78788742529 0.502307213001 -0.180525299769 0.100846997536 -0.815864343334 -1.53420846538 -1.19849799763 0.444960811416 0.339979310085 0.342909019268
4.13634445408 1.7833909964 0.501990681715 -0.180551094334 0.100038110868 -0.816585281926 -1.53446177752 -1.19706831638 0.44471043688 0.34228231461 0.342803701616
4.16378023825 1.77889305849 0.50167420247 -0.180574969897 0.0992309105706 -0.817303194702 -1.5347157653 -1.19563873115 0.444460766047 0.344581848579 0.342700987965
4.19122521164 1.7743936136 0.501357782074 -0.180596931917 0.0984254019462 -0.818018103996 -1.53497041532 -1.19420924749 0.444211788681 0.346877901258 0.342600859744
4.21867936604 1.76989266379 0.501041427274 -0.180616985893 0.0976215902079 -0.818730031927 -1.53522571418 -1.1927798709 0.443963494751 0.34917046217 0.342503298382
4.24614248023 1.76539024505 0.50072512752 -0.180635156696 0.096819453537 -0.819439152807 -1.53548165117 -1.19135055967 0.44371588789 0.351459394808 0.342408231207
4.2736149557 1.76088629151 0.500408923975 -0.180651411034 0.0960190510165 -0.820145182877 -1.53573820777 -1.1899214138 0.443468931669 0.353744941818 0.342315748222
4.30109657326 1.75638083944 0.500092805886 -0.180665774185 0.0952203603551 -0.820848296702 -1.53599537362 -1.18849239144 0.443222630059 0.356026967093 0.342225776627
4.32858731654 1.75187389104 0.49977677973 -0.180678251918 0.0944233862811 -0.821548515575 -1.53625313583 -1.1870634981 0.442976973868 0.358305461107 0.34213829811
4.35608717323 1.74736544854 0.499460851929 -0.18068885004 0.0936281334388 -0.822245860588 -1.53651148154 -1.18563473927 0.4427319541 0.360580414571 0.342053294364
4.38359592007 1.74285554839 0.499145010681 -0.180697594927 0.0928345776459 -0.822940503876 -1.53677040369 -1.18420607306 0.442487576941 0.362851691785 0.341970695489
4.41111396468 1.73834412421 0.498829298678 -0.180704451168 0.0920427810276 -0.823632162998 -1.53702987802 -1.18277759977 0.442243803876 0.365119537251 0.341890586777
4.4386410797 1.73383121275 0.498513703922 -0.180709445534 0.091252718947 -0.824321010324 -1.53728989782 -1.18134927738 0.442000641398 0.367383815672 0.341812898217
4.46617725488 1.72931681634 0.498198232571 -0.180712584074 0.0904643955898 -0.825007066145 -1.53755045071 -1.17992111139 0.441758081277 0.369644518648 0.341737611795
4.49372246973 1.72480093734 0.497882890729 -0.180713872866 0.0896778150638 -0.825690350553 -1.53781152437 -1.17849310725 0.441516115463 0.371901638001 0.341664709511
4.52127650508 1.72028361261 0.497567665391 -0.180713339691 0.0888929509453 -0.826371033477 -1.53807311525 -1.17706522296 0.44127475248 0.374155038805 0.341594124274
4.54883976651 1.71576477537 0.497252600715 -0.180710947134 0.0881098682484 -0.827048833941 -1.53833519365 -1.17563755907 0.441033951912 0.376404967245 0.341525936723
4.57641202665 1.71124446274 0.496937683502 -0.180706723355 0.0873285401142 -0.827723922098 -1.53859775635 -1.1742100734 0.440793722559 0.378651288802 0.341460079662
4.60399327116 1.7067226772 0.496622919603 -0.180700674651 0.086548970216 -0.828396317266 -1.5388607915 -1.17278277145 0.440554057073 0.380893996128 0.341396535417
4.6315834857 1.70219942122 0.496308314816 -0.180692807347 0.0857711621548 -0.829066038571 -1.5391242873 -1.17135565868 0.440314948269 0.383133082079 0.341335286333
4.65918244084 1.69767473201 0.495993854981 -0.18068315052 0.0849950873886 -0.829733253727 -1.53938824362 -1.16992869294 0.440076406802 0.385368412478 0.341276268137
4.68679054833 1.69314854243 0.495679585654 -0.180671664874 0.0842208136659 -0.830397683344 -1.53965262555 -1.16850197502 0.439838390535 0.38760023502 0.341219556892
4.71440757873 1.68862088997 0.495365492487 -0.18065837985 0.0834483120279 -0.831059495354 -1.53991743323 -1.16707546263 0.439600910369 0.389828415943 0.341165088227
4.7420335177 1.6840917772 0.495051581032 -0.180643301969 0.0826775856645 -0.831718708132 -1.54018265535 -1.16564916126 0.439363959759 0.392052948876 0.34111284484
4.76966834682 1.6795612067 0.494737856793 -0.180626437772 0.0819086376997 -0.832375339875 -1.54044828063 -1.16422307636 0.439127532314 0.394273827637 0.341062809449
4.79731183871 1.67502921599 0.494424304501 -0.180607817537 0.0811414375922 -0.833029556072 -1.5407143122 -1.16279716569 0.43889164062 0.396490918775 0.341014920605
4.8249644051 1.67049573764 0.494110971047 -0.180587400198 0.0803760556729 -0.833681079045 -1.54098071021 -1.16137153023 0.438656240992 0.398704471337 0.340969249872
4.85262581451 1.66596080943 0.493797840981 -0.180565216382 0.0796124610015 -0.834330074489 -1.54124747804 -1.15994612759 0.438421346238 0.400914352291 0.340925735708
4.88029605261 1.66142443403 0.493484919566 -0.180541272805 0.0788506563136 -0.834976559881 -1.54151460492 -1.15852096326 0.438186950545 0.403120556175 0.340884361203
4.90797510097 1.65688661411 0.493172212022 -0.180515576199 0.0780906442837 -0.83562055252 -1.54178208006 -1.15709604269 0.437953048241 0.405323077706 0.340845109477
4.93566273016 1.65234738743 0.492859702022 -0.180488157945 0.0773323924892 -0.83626221568 -1.54204990972 -1.15567132354 0.43771965366 0.407521784135 0.340807921888
4.96335935191 1.64780668637 0.492547437724 -0.180458975322 0.0765759736918 -0.836901273493 -1.54231804939 -1.15424690699 0.437486721735 0.409716925706 0.340772865595
4.9910647368 1.64326454893 0.492235402624 -0.180428060048 0.0758213550864 -0.837537889426 -1.54258650554 -1.15282275053 0.437254266991 0.411908370099 0.34073988187
5.01877886434 1.63872097787 0.49192360171 -0.18039541901 0.0750685389818 -0.83817208009 -1.5428552679 -1.15139885967 0.437022284284 0.414096112696 0.340708954217
5.0465017202 1.63417597596 0.491612039924 -0.180361059102 0.0743175276299 -0.83880386193 -1.54312432621 -1.14997523987 0.436790768596 0.41628014905 0.340680066172
5.07423307291 1.62962958113 0.49130069993 -0.18032501272 0.073568286841 -0.83943339601 -1.5433936897 -1.14855184869 0.436559735831 0.418460347096 0.340653161882
5.10197333419 1.62508172563 0.49098963109 -0.180287235598 0.0728208916582 -0.840060408363 -1.54366330945 -1.14712878747 0.436329139695 0.42063695813 0.340628304197
5.12972227258 1.62053244766 0.490678815892 -0.180247760453 0.0720753075258 -0.840685060239 -1.54393319489 -1.14570601364 0.43609899626 0.422809850522 0.34060543718
5.15747986964 1.61598175004 0.490368259057 -0.180206594317 0.0713315363517 -0.841307367425 -1.54420333625 -1.14428353269 0.435869300987 0.424979020443 0.340584544763
5.18524611103 1.6114296356 0.490057965265 -0.180163744228 0.0705895799911 -0.841927345546 -1.54447372377 -1.14286135007 0.43564004945 0.427144464219 0.340565610911
5.21302075914 1.60687614245 0.489747916213 -0.180119243504 0.069849402598 -0.842545153473 -1.54474436952 -1.14143942331 0.435411258958 0.429306050458 0.340548582528
5.24080423183 1.60232120275 0.489438162403 -0.180073046444 0.069111081351 -0.843160519222 -1.54501522042 -1.14001785385 0.435182882139 0.431464031362 0.340533518262
5.2685962956 1.59776485482 0.489128685366 -0.180025186675 0.0683745800547 -0.843773601844 -1.54528628872 -1.13859659906 0.434954936449 0.433618275981 0.340520364928
5.29639692996 1.59320710158 0.488819489565 -0.179975671355 0.06763990024 -0.844384416336 -1.54555756513 -1.13717566442 0.434727417894 0.435768781217 0.3405091069
5.32420611852 1.5886479459 0.488510579422 -0.179924507639 0.0669070433905 -0.844992977545 -1.54582904038 -1.1357550554 0.434500322586 0.437915544114 0.340499728583
5.35202362776 1.58408742602 0.488201935722 -0.179871729687 0.0661759721114 -0.845599442166 -1.54610072926 -1.13433472946 0.434273669081 0.440058433939 0.340492179593
5.37984987351 1.57952547405 0.48789361004 -0.179817290466 0.0654467655739 -0.846203540271 -1.54637257477 -1.13291478813 0.434047409073 0.442197703669 0.34048651449
5.40768461815 1.57496212843 0.487585582993 -0.179761224431 0.06471938605 -0.846805428733 -1.54664459182 -1.13149518874 0.433821561247 0.444333223017 0.340482682798
5.43552784735 1.57039739213 0.487277858799 -0.179703538841 0.0639938347173 -0.847405121796 -1.54691677161 -1.13007593678 0.433596122102 0.446464989566 0.340480669337
5.46337954062 1.56583126808 0.486970441635 -0.179644240952 0.0632701127107 -0.848002633565 -1.54718910536 -1.12865703768 0.433371088231 0.448593001029 0.340480458962
5.49123946444 1.56126379458 0.486663311412 -0.179583365681 0.0625481811908 -0.848598118587 -1.54746161039 -1.12723844886 0.433146479298 0.450717127319 0.340482003951
5.51910803464 1.55669490379 0.486356520721 -0.179520864769 0.0618281211826 -0.849191309051 -1.54773422605 -1.12582027196 0.432922246192 0.45283762206 0.340485354889
5.5469850136 1.55212463419 0.486050049312 -0.179456773415 0.0611098935285 -0.849782359677 -1.54800696978 -1.12440246422 0.432698408686 0.454954355617 0.340490463959
5.57487038494 1.5475529888 0.485743901163 -0.179391098963 0.0603934990754 -0.850371283993 -1.54827983326 -1.12298503114 0.43247496372 0.457067326206 0.340497316436
5.60276413021 1.54297997063 0.485438080217 -0.17932384875 0.059678938631 -0.850958095398 -1.54855280816 -1.12156797816 0.432251908324 0.45917653216 0.340505897625
5.63066601591 1.53840561798 0.485132565555 -0.179255058371 0.0589661720122 -0.85154294632 -1.5488259142 -1.12015126262 0.432029263131 0.461281844034 0.34051616241
5.65857645376 1.53382986309 0.484827410725 -0.179184678441 0.0582552819625 -0.852125571119 -1.54909908734 -1.11873498624 0.43180697835 0.463383515971 0.34052815752
5.68649520819 1.52925274449 0.484522594651 -0.179112744827 0.0575462279941 -0.852706122387 -1.5493723474 -1.11731910622 0.431585074713 0.465481418983 0.340541837745
5.71442226487 1.52467426522 0.484218121085 -0.179039264938 0.0568390106445 -0.853284612976 -1.5496456865 -1.11590362804 0.431363549553 0.467575551873 0.34055718881
5.74208101339 1.52009442833 0.483913993741 -0.178964246176 0.0561336304156 -0.853861055615 -1.54991909677 -1.11448855712 0.431142400289 0.46966591355 0.340574196472
5.76974773026 1.51551327215 0.483610190917 -0.178887724739 0.0554300458761 -0.854435600642 -1.5501926002 -1.11307385078 0.430921648403 0.471752375204 0.340592818166
5.79742282312 1.51093072902 0.483306767055 -0.178809650213 0.0547283413576 -0.855007984633 -1.55046612958 -1.11165961076 0.43070124354 0.473835191379 0.340613096882
5.82510605844 1.50634683746 0.483003700299 -0.178730059059 0.054028475138 -0.855578358086 -1.55073970697 -1.11024579423 0.430481207263 0.475914233731 0.340634989955
5.85279741985 1.50176160057 0.48270099418 -0.178648958736 0.0533304474653 -0.85614673321 -1.55101332492 -1.10883240664 0.430261537262 0.477989501603 0.340658483561
5.88049688685 1.49717502142 0.482398652196 -0.178566356691 0.052634258555 -0.856713122099 -1.55128697601 -1.10741945341 0.430042231302 0.480060994443 0.340683563909
5.90820423003 1.4925871383 0.482096651902 -0.178482289658 0.0519398658206 -0.857277673032 -1.55156068435 -1.10600689182 0.429823311597 0.482128584071 0.340710190917
5.93591985497 1.48799788374 0.481795048578 -0.178396706284 0.0512473550552 -0.857840124845 -1.5518343798 -1.10459482363 0.429604727336 0.484192525319 0.34073840396
5.9636435302 1.48340729621 0.481493819628 -0.178309643555 0.0505566833946 -0.858400625971 -1.55210808651 -1.10318320597 0.429386500805 0.486252690479 0.340768162852
5.99137523523 1.47881537883 0.481192968374 -0.178221108964 0.0498678508156 -0.858959188011 -1.55238179747 -1.10177204427 0.429168630006 0.488309079402 0.340799454219
6.01911495369 1.47422213472 0.480892498102 -0.17813110999 0.0491808572667 -0.859515822459 -1.55265550568 -1.10036134393 0.428951113015 0.49036169203 0.340832264716
6.04686245409 1.46962760211 0.480592385666 -0.178039683833 0.048495659094 -0.860070675568 -1.55292923722 -1.09895106218 0.42873397267 0.492410400816 0.340866556681
6.07461814202 1.46503171372 0.480292687129 -0.177946778294 0.0478123434309 -0.860623488465 -1.55320291927 -1.0975413008 0.428517157809 0.494455460768 0.340902365994
6.10238178601 1.46043450797 0.479993379197 -0.177852430815 0.0471308663583 -0.861174407554 -1.55347657793 -1.09613201688 0.42830069133 0.496496744816 0.340939654882
6.13015336763 1.455835988 0.479694464988 -0.177756648909 0.0464512276006 -0.861723443861 -1.55375020661 -1.09472321582 0.428084571518 0.498534253279 0.340978410414
6.1579328664 1.45123615696 0.479395947588 -0.177659440071 0.0457734268563 -0.862270608311 -1.5540237987 -1.093314903 0.427868796721 0.50056798656 0.341018619687
6.18572005288 1.44663505297 0.479097803188 -0.177560841908 0.0450974194888 -0.862816045167 -1.55429738216 -1.09190703561 0.427653390304 0.502597817742 0.341060247391
6.21351533062 1.44203260903 0.47880008858 -0.177460801455 0.0444232938555 -0.863359497878 -1.55457088166 -1.09049971542 0.42743830085 0.504624001905 0.341103326027
6.2413184702 1.43742886346 0.478502779809 -0.177359356552 0.0437510050658 -0.863901110848 -1.55484432514 -1.08909289948 0.42722355177 0.506646412619 0.341147820171
6.26968845258 1.43282381941 0.478205879799 -0.177256514716 0.0430805526086 -0.864440894564 -1.5551177064 -1.08768659317 0.4270091416 0.508665050635 0.341193717328
6.29835019343 1.42821748005 0.477909391444 -0.177152283447 0.0424119359488 -0.864978859412 -1.55539101924 -1.08628080183 0.42679506893 0.510679916785 0.341241005032
6.32730645402 1.4236098834 0.477613290309 -0.177046700697 0.0417451095484 -0.8655151477 -1.55566429333 -1.0848754826 0.42658135756 0.512690884783 0.34128965025
6.35656068184 1.41900096273 0.477317633863 -0.176939712819 0.0410801628756 -0.86604950522 -1.55593745106 -1.08347073726 0.426367955905 0.514698209683 0.34133968223
6.38611569347 1.41439075625 0.47702239753 -0.176831357988 0.0404170501497 -0.866582074417 -1.5562105221 -1.08206652279 0.426154887805 0.516701765692 0.341391067822
6.4159745595 1.40977926712 0.476727584047 -0.176721643715 0.0397557706391 -0.867112865263 -1.55648350061 -1.08066284455 0.425942152011 0.518701553966 0.34144379496
6.44614038326 1.40516649854 0.476433196121 -0.176610577494 0.0390963235912 -0.867641887639 -1.55675638075 -1.07925970784 0.42572974733 0.520697575731 0.341497851608
6.47661606534 1.40055248838 0.476139208732 -0.176498197564 0.0384386626434 -0.868169281931 -1.55702919383 -1.07785706976 0.425517697914 0.522689705338 0.34155320694
6.50740522937 1.39593717023 0.475845679973 -0.176384449673 0.0377828782673 -0.868694796295 -1.55730186014 -1.07645503205 0.425305952091 0.524678197718 0.341609887068
6.53851084353 1.39132058216 0.475552584682 -0.176269372276 0.037128923868 -0.869218571248 -1.55757441093 -1.07505355166 0.425094534044 0.52666292772 0.341667861048
6.56993613202 1.38670272735 0.475259925418 -0.176152972869 0.036476798509 -0.869740616282 -1.55784684073 -1.0736526339 0.42488344272 0.52864389687 0.341727117231
6.60168435799 1.382083609 0.474967704712 -0.176035258924 0.0358265012347 -0.870260940798 -1.55811914407 -1.07225228403 0.424672677112 0.530621106765 0.341787644003
6.63375857766 1.37746326484 0.474675896988 -0.175916268917 0.0351779849311 -0.870779683297 -1.55839135374 -1.07085245913 0.424462261649 0.532594432394 0.341849412673
6.666162597 1.37284162879 0.474384560918 -0.175795948066 0.0345313409704 -0.871296594312 -1.55866338813 -1.06945326086 0.424252144645 0.534564128473 0.341912446337
6.69889953576 1.36821873876 0.474093670789 -0.175674335052 0.0338865220164 -0.87181181247 -1.55893527997 -1.06805464615 0.424042350558 0.536530070496 0.341976716179
6.73197278817 1.36359459796 0.473803228991 -0.175551437343 0.0332435269416 -0.872325346808 -1.55920702414 -1.06665662026 0.423832878498 0.538492260336 0.342042210965
6.76538578738 1.35896920957 0.47351323788 -0.175427262383 0.0326023546012 -0.872837206275 -1.55947861551 -1.06525918839 0.423623727625 0.54045069993 0.342108919489
6.79914174532 1.35434261115 0.473223671366 -0.175301848834 0.0319629571997 -0.873347527524 -1.55975008823 -1.0638623076 0.423414922575 0.542405264911 0.342176815125
6.83324466253 1.34971473702 0.472934588647 -0.175175141452 0.0313254269116 -0.873856063475 -1.560021359 -1.06246607947 0.42320641172 0.544356209694 0.342245918066
6.8676978247 1.34508562489 0.472645963498 -0.175047179095 0.0306897157287 -0.874362950899 -1.5602924619 -1.0610704609 0.422998219718 0.546303410421 0.342316201555
6.9028528697 1.34045527796 0.472357798141 -0.174917969196 0.0300558223451 -0.874868198404 -1.56056339214 -1.05967545709 0.422790345827 0.548246869288 0.342387654762
6.93872406887 1.33582369944 0.47207009477 -0.174787519161 0.0294237454407 -0.875371814517 -1.56083414491 -1.0582810732 0.422582789349 0.550186588546 0.342460266879
6.97532571402 1.3311909267 0.471782826809 -0.174655867787 0.0287934366041 -0.875873934073 -1.56110475565 -1.05688726624 0.422375575064 0.552122444478 0.342534013271
7.01267320314 1.32655689443 0.47149605394 -0.17452295944 0.0281649887188 -0.876374312389 -1.56137513951 -1.05549413771 0.422168651465 0.554054691113 0.342608911346
7.05078142414 1.32192164017 0.471209749456 -0.174388833107 0.0275383531696 -0.876873084414 -1.5616453318 -1.05410164448 0.421962043349 0.555983205249 0.342684936333
7.08966584259 1.31728516712 0.470923915419 -0.174253496175 0.0269135284858 -0.877370258354 -1.56191532807 -1.05270979169 0.421755750103 0.557907989377 0.34276207779
7.12934223541 1.31264747848 0.470638553868 -0.174116956004 0.0262905131831 -0.877865842335 -1.56218512383 -1.05131858444 0.421549771149 0.559829046044 0.342840325305
7.17023125175 1.30800861141 0.470353637774 -0.173979251486 0.025669258298 -0.878359969412 -1.56245475566 -1.0499279797 0.421344131356 0.561746252186 0.342919656159
7.21237053745 1.30336850104 0.470069227257 -0.173840326654 0.025049857333 -0.878852397302 -1.56272413735 -1.04853807889 0.421138779395 0.563659861368 0.343000085083
7.25579796781 1.29872718468 0.46978529516 -0.173700220585 0.0244322611291 -0.879343259169 -1.56299330536 -1.04714883882 0.420933740148 0.565569751048 0.343081589222
7.30145246264 1.29408466554 0.469501843394 -0.17355894061 0.0238164680614 -0.879832562835 -1.56326225553 -1.04576026457 0.420729013108 0.567475923994 0.343164158518
7.34897299 1.2894409468 0.469218873846 -0.173416494036 0.0232024764939 -0.880320316055 -1.56353098367 -1.0443723612 0.420524597804 0.569378383022 0.343247782934
7.39893004503 1.28479606542 0.468936359064 -0.173272919807 0.0225902369703 -0.880806650135 -1.56379952743 -1.04298508562 0.42032051914 0.571277005731 0.343332441602
7.4514492819 1.28014995697 0.468654359568 -0.173128161686 0.0219798435267 -0.881291325192 -1.56406779938 -1.04159853915 0.42011672602 0.573172045145 0.343418146687
7.50721379123 1.27550265852 0.468372847778 -0.172982258795 0.0213712465197 -0.881774472637 -1.56433583702 -1.04021267855 0.419913243357 0.575063379389 0.343504877178
7.56701615988 1.27085417328 0.468091825461 -0.172835218406 0.0207644441814 -0.882256099938 -1.56460363649 -1.03882750886 0.419710070736 0.576951011487 0.343592623385
7.63179004527 1.26620450444 0.467811294358 -0.172687047762 0.0201594347348 -0.882736214494 -1.56487119389 -1.03744303505 0.419507207777 0.578834944503 0.343681375642
7.70335835865 1.2615536887 0.467531226626 -0.172537785824 0.0195561682873 -0.883214945899 -1.56513854781 -1.03605921401 0.419304679371 0.58071505671 0.34377111486
7.78483098423 1.25690166211 0.46725168314 -0.172387376139 0.018954739328 -0.883692056669 -1.56540560978 -1.03467614691 0.419102434704 0.582591600515 0.343861850741
7.88250930561 1.2522484615 0.46697263593 -0.172235857837 0.0183550977847 -0.884167676496 -1.56567241824 -1.03329379051 0.418900498673 0.584464454717 0.343953564051
8.01705873562 1.24759409006 0.466694086623 -0.172083238122 0.0177572417574 -0.884641812512 -1.5659389696 -1.03191214974 0.418698870942 0.586333622576 0.344046245459
8.20904824748 1.242938551 0.466416036821 -0.171929524171 0.0171611693376 -0.885114471783 -1.56620526024 -1.03053122953 0.418497551207 0.588199107391 0.344139885656
8.43049279785 1.24295618665 0.461899085926 -0.169786704618 0.0161911986813 -0.880837382533 -1.56935918936 -1.028109033 0.418437578793 0.58361369109 0.348685714621
8.54408943609 1.24296673093 0.45737019897 -0.167653921589 0.0152009304873 -0.876533062153 -1.57255872016 -1.02571086512 0.418375483024 0.57906668664 0.35328021127
8.63282797443 1.24297064209 0.452828611945 -0.165532159751 0.0141889404053 -0.872202164084 -1.57580548344 -1.02333667873 0.418311653257 0.574557821429 0.357924723651
8.70872276536 1.24296800159 0.448274021598 -0.163421803338 0.0131546769938 -0.867844560382 -1.57909962489 -1.02098669845 0.418246352175 0.570088281258 0.362619607049
8.77627237625 1.24295889482 0.443706120612 -0.1613232409 0.0120975815681 -0.863460137679 -1.58244126839 -1.01866113657 0.418179842346 0.565659274507 0.367365193566
8.83842555645 1.24280683651 0.439118998315 -0.159236284204 0.010998446692 -0.859067986309 -1.58583783213 -1.01632026545 0.418106690216 0.561327821789 0.372161341973
8.90084453754 1.24264818614 0.434518420732 -0.157161251218 0.00987649517164 -0.854648677826 -1.58928015546 -1.01400439982 0.418032453968 0.557040432864 0.377006944207
8.95891065948 1.24248335815 0.429903619771 -0.155099219647 0.00873019458699 -0.850202786215 -1.59276989056 -1.01171348248 0.41795761652 0.552797032965 0.381903677112
9.01336512656 1.24231245089 0.425274281184 -0.153050582591 0.00755897476606 -0.845730274316 -1.59630705449 -1.00944766273 0.417882424814 0.548598894971 0.386851757731
9.06482829654 1.2421355661 0.420630088673 -0.151015734944 0.00636226200162 -0.841231124406 -1.59989163723 -1.00720707317 0.4178071227 0.544447308537 0.391851373215
9.11397919189 1.24181731946 0.415968306548 -0.148997880951 0.00512073111227 -0.836729306793 -1.60352895977 -1.00495301349 0.417726480261 0.540400947344 0.396898082972
9.1613642593 1.24149306504 0.411291520131 -0.146993843354 0.00385381971349 -0.832200945901 -1.60721154904 -1.00272448047 0.417645665013 0.536404466712 0.401994290866
9.20705361208 1.24116316177 0.406598995782 -0.14500475114 0.00255995458272 -0.827646550443 -1.61094096698 -1.00052140786 0.417565245778 0.53245804926 0.407141908568
9.2511103559 1.2408277199 0.40189042149 -0.143030989645 0.00123857119208 -0.823066195838 -1.61471707766 -0.998343849277 0.417485436862 0.52856301576 0.412340982331
9.29401998057 1.24048685195 0.397165486091 -0.141072942543 -0.000110893276152 -0.818459981171 -1.61853971373 -0.996191837749 0.417406446106 0.524720694899 0.417591522703
9.3358054366 1.24000634659 0.392424917782 -0.139136826235 -0.00150733542899 -0.813856865558 -1.6224113734 -0.994027563743 0.417323168102 0.520991148578 0.422884040855
9.37650326982 1.23952046376 0.387667835139 -0.137216353529 -0.00293165865986 -0.809228430753 -1.62632710239 -0.991888796698 0.41724043264 0.517317237094 0.428225313427
9.41614670767 1.23902949902 0.38289358881 -0.135312634402 -0.00438537238482 -0.804575156809 -1.63028821528 -0.989775453477 0.417158864456 0.513699436916 0.433617294967
9.45515111025 1.23853356676 0.378101885879 -0.133426026038 -0.00586900470336 -0.799897248024 -1.63429440759 -0.987687475627 0.417078627693 0.510139062517 0.439059836367
9.49352856939 1.23803278191 0.373292437848 -0.131556879805 -0.00738307556419 -0.795194935191 -1.63834534111 -0.985624781121 0.416999876729 0.506637424931 0.444552748785
9.53125414149 1.23739423527 0.368469656453 -0.129714102581 -0.00894561463453 -0.790502390314 -1.64244026399 -0.983550279565 0.416917534299 0.503255332345 0.450080886021
9.56837359643 1.23675093264 0.363628979375 -0.127888645772 -0.0105383343489 -0.785786391358 -1.64657734232 -0.981500676356 0.416836200067 0.49993430511 0.455656262344
9.60490002566 1.23610310462 0.358769894837 -0.126081502556 -0.0121625447207 -0.78104744673 -1.65075746018 -0.979475850326 0.416756493347 0.496675098413 0.461280582118
9.64084426328 1.23545085975 0.353892147606 -0.124292980245 -0.0138187038038 -0.776285896702 -1.65498014234 -0.977475621323 0.416678512976 0.493478957005 0.466953489567
9.67728868608 1.23479430514 0.348995490569 -0.1225233761 -0.0155072548169 -0.77150210897 -1.65924487995 -0.975499784122 0.416602345335 0.490347109981 0.472674587623
9.71454610004 1.2340019529 0.344088235791 -0.120783932014 -0.0172448982256 -0.766735649539 -1.66354731915 -0.973511808855 0.416522810763 0.487340331465 0.478422464894
9.75269985126 1.23320539521 0.339161941248 -0.119063234989 -0.019014652699 -0.761948237693 -1.66788928962 -0.971547529645 0.416444467308 0.484399469002 0.484215333508
9.79177357442 1.23240480249 0.334216270841 -0.117362054445 -0.0208174937836 -0.757140468727 -1.67227109175 -0.969606750954 0.416367835498 0.481525464018 0.490054309215
9.83179045352 1.23160026716 0.32925102392 -0.1156806288 -0.0226537793024 -0.752312815503 -1.67669209125 -0.967689169651 0.416292938623 0.478719430244 0.495938834299
9.87277417649 1.23079187834 0.324266010966 -0.114019183043 -0.0245238468265 -0.747465777484 -1.68115162243 -0.965794457511 0.416219785665 0.475982455151 0.501868310883
9.91506219386 1.22984967749 0.319273625713 -0.112390953186 -0.0264426513454 -0.742644405942 -1.68564154751 -0.963886517726 0.416142953561 0.473374379427 0.507814600377
9.95880464659 1.22890369693 0.314261409613 -0.110782529936 -0.0283949345138 -0.737805200632 -1.69016765112 -0.96200051041 0.416067187023 0.470836275436 0.5138028821
10.0040523273 1.22795405417 0.309229198666 -0.109194386356 -0.0303812655115 -0.732948866258 -1.6947296165 -0.960136121348 0.415992803517 0.468369104449 0.519833442418
10.0508575383 1.22700081729 0.30417685812 -0.10762668008 -0.0324018823269 -0.728075996546 -1.69932667101 -0.958292931179 0.415919745395 0.4659738026 0.525905541264
10.0997584588 1.22604404976 0.299104266014 -0.106079553596 -0.0344569998174 -0.723187209743 -1.70395801392 -0.956470496911 0.415847939395 0.463651272365 0.532018402167
10.1506816121 1.22495541615 0.294028019498 -0.104567974169 -0.0365595363954 -0.718333003929 -1.7086117889 -0.95463308827 0.415771618176 0.461459481162 0.538137032403
10.2044150908 1.22386327218 0.28893159604 -0.103076768756 -0.038696167745 -0.713464671098 -1.71329760785 -0.95281533914 0.415695873526 0.45934074074 0.544293775771
10.2616806268 1.22276768474 0.283814947008 -0.101606128991 -0.0408671099182 -0.708582981732 -1.71801469193 -0.951016787867 0.415620756504 0.457295851438 0.550488129697
10.3233204976 1.22166869227 0.278678007991 -0.100156128737 -0.0430724748219 -0.703688631619 -1.72276215411 -0.949236914702 0.415546125753 0.45532554194 0.556719204133
10.3902039808 1.22056632765 0.27352072805 -0.0987268264898 -0.0453123504936 -0.698782337058 -1.72753908355 -0.947475180134 0.415471823418 0.45343050136 0.562986079406
10.4642310513 1.21933396106 0.268363994613 -0.0973347606982 -0.0475974584738 -0.69391989827 -1.73233017594 -0.945696258517 0.415391736776 0.451665961503 0.569247186518
10.5314960752 1.21809817736 0.263187199294 -0.0959630590513 -0.049916428235 -0.689047510852 -1.73714842783 -0.943934280761 0.415311275583 0.44997636544 0.575541554957
10.5938578521 1.21686511796 0.257990098177 -0.0946147955509 -0.0522720969318 -0.684180577037 -1.74204450583 -0.942248025514 0.415195771213 0.448390063577 0.581856545312
10.6522325071 1.21564149389 0.25277342644 -0.093290622134 -0.0546641787533 -0.679341874055 -1.7470566275 -0.94068773033 0.41501456001 0.44692617767 0.588169940036
10.7074248354 1.2144297536 0.247538636461 -0.0919877222478 -0.0570887118442 -0.674546641318 -1.75217933276 -0.939255876963 0.414764242635 0.445578738075 0.594463856153
10.7598504554 1.21310831913 0.242312617363 -0.0907213571719 -0.0595500613927 -0.669872607112 -1.75739515048 -0.937927662028 0.414431245198 0.444395199431 0.600671365681
10.8103697423 1.21180313082 0.237072148874 -0.0894695559473 -0.0620342741192 -0.665271858299 -1.76270672771 -0.936728943119 0.414024275364 0.443310466622 0.60682351882
10.8590356599 1.21051614387 0.231818956277 -0.0882291213632 -0.0645368609349 -0.660757771251 -1.76810623368 -0.935659090955 0.413541897986 0.442315448899 0.612903880603
10.9059002833 1.20924909585 0.226554797008 -0.0869968411941 -0.0670533112427 -0.656342726004 -1.77358533431 -0.934716488596 0.412983373127 0.441400311691 0.618897006235
10.9514662024 1.20800348358 0.221281428124 -0.0857695479821 -0.069579176092 -0.652037930507 -1.77913536035 -0.933898585196 0.412348653828 0.440554664574 0.624788684977
10.9955052458 1.20665835813 0.216030331405 -0.0845637827724 -0.0721163281565 -0.647920424339 -1.78473215221 -0.933175032966 0.411628221703 0.439817822105 0.630511337664
11.038293731 1.20533657456 0.210773752513 -0.0833566176408 -0.0746537701454 -0.64393115125 -1.79038124557 -0.932567465323 0.410833796892 0.439126847384 0.636108818418
11.0798548912 1.20403882518 0.205513240262 -0.0821453807732 -0.0771877432087 -0.640076989303 -1.79607409395 -0.932071094675 0.409967207154 0.438471048887 0.641571807415
11.1206164057 1.20276555498 0.20025023926 -0.0809276205079 -0.0797147954595 -0.636363408742 -1.80180243106 -0.931680623192 0.409030772979 0.437839951664 0.646892651792
11.1605835881 1.20151697542 0.194986075298 -0.0797011268126 -0.0822318123284 -0.632794509834 -1.80755837772 -0.931390361966 0.408027233667 0.437223447941 0.652065350382
11.1995098558 1.20017230269 0.189755958348 -0.0784852076798 -0.084740296135 -0.629442157934 -1.81331526317 -0.931166008014 0.40695078002 0.436657899815 0.657027534046
11.2376593504 1.1988517093 0.184527180923 -0.0772566630117 -0.0872331089859 -0.626237783131 -1.81908490708 -0.931028631445 0.405814026825 0.436086859871 0.661835251999
11.27504113 1.19755482493 0.179300643017 -0.0760140953813 -0.089708272642 -0.623181797969 -1.8248611437 -0.930972113667 0.404620473586 0.435502156124 0.666487087839
11.3116652464 1.19628113741 0.174077113852 -0.0747563487397 -0.0921641475331 -0.620273663876 -1.8306383897 -0.930990362599 0.403373736234 0.434896319092 0.670982846794
11.3479013961 1.19503001612 0.168857236868 -0.0734824954092 -0.0945994147762 -0.617512012278 -1.83641164739 -0.931077385162 0.402077487035 0.434262605409 0.675323416272
11.3834886843 1.19368116655 0.163679564867 -0.0722151190209 -0.0970159496483 -0.614963788711 -1.84215393036 -0.93119742906 0.400728005939 0.433637918378 0.679451590873
11.4186912629 1.19235291161 0.158506648443 -0.0709302878283 -0.0994098101758 -0.6125558671 -1.847883716 -0.93137380257 0.39933663709 0.432973124512 0.683430388263
11.4535112601 1.19104440532 0.153338784247 -0.0696276797976 -0.101780527612 -0.610285106625 -1.85359775383 -0.931601208531 0.397906886325 0.43226376007 0.687263090212
11.4889949823 1.18975476375 0.148176180612 -0.0683071223325 -0.10412784411 -0.608147998354 -1.85929327058 -0.931874613734 0.396442153049 0.431506005552 0.690953497919
11.5247961214 1.18848307954 0.143018967272 -0.066968573855 -0.106451686751 -0.606140752635 -1.86496793386 -0.932189265023 0.394945708594 0.430696645927 0.694505821398
11.5606237732 1.18711001819 0.137909034394 -0.0656377404054 -0.108754108702 -0.604327089181 -1.87059454483 -0.932509355939 0.393414745767 0.429873948782 0.697865820512
11.5967702902 1.18575264387 0.132804666613 -0.0642891216602 -0.111033176951 -0.602633655126 -1.87619682905 -0.93286127345 0.39185837292 0.428994323953 0.701098434447
11.6336035748 1.1844100639 0.127705805237 -0.0629229768978 -0.113289241385 -0.601056307872 -1.88177359619 -0.933241209093 0.390279354417 0.428056174968 0.704208481511
11.6711373738 1.18308140009 0.122612349629 -0.0615396288788 -0.115522742013 -0.599590880553 -1.88732393567 -0.933645629572 0.388680294594 0.427058311983 0.707200851832
11.7093859873 1.18176579413 0.117524164111 -0.0601394521974 -0.117734192296 -0.598233221152 -1.89284718433 -0.934071267881 0.387063638151 0.42599990858 0.710080454633
11.7480155988 1.18034518293 0.112486550569 -0.0587510209714 -0.119925485421 -0.597044911079 -1.89831534537 -0.934482616871 0.385427044645 0.424920247743 0.712794413952
11.7873825225 1.17893558513 0.107453940876 -0.0573466272339 -0.122095779246 -0.595954779115 -1.9037558704 -0.93490880261 0.383777366834 0.423779049142 0.71540667339
11.8275024555 1.17753624247 0.102426126859 -0.0559267438947 -0.124245724112 -0.594958966342 -1.90916868362 -0.935347342778 0.382116555267 0.422576373105 0.717921879937
11.8683915661 1.17614642628 0.0974028870086 -0.0544918588025 -0.126375991747 -0.594053721238 -1.91455384283 -0.935795963802 0.380446423491 0.421312485657 0.720344567058
11.9100664853 1.17476543854 0.0923839900112 -0.0530424694998 -0.128487267595 -0.59323541088 -1.91991152011 -0.936252587565 0.378768655041 0.419987829794 0.722679138359
11.9525500468 1.17327665853 0.0874181775648 -0.0516098581939 -0.130581089318 -0.592563808686 -1.92521241484 -0.936681941367 0.377081308317 0.418642267102 0.724873444414
11.9962862048 1.17179503477 0.0824563014705 -0.0501637626507 -0.132657186039 -0.591970922135 -1.930486668 -0.937115219737 0.375389329362 0.417237125263 0.726989226683
12.0413140716 1.17031997906 0.077498118847 -0.048704681166 -0.134716241646 -0.591453589437 -1.9357346967 -0.937550893315 0.373694028784 0.415773238655 0.729030355861
12.0876740402 1.16885093183 0.0725433869427 -0.0472331062152 -0.13675893182 -0.591008780643 -1.94095696957 -0.937987572286 0.371996619441 0.414251524713 0.731000546098
12.1358851595 1.16738736148 0.0675918646314 -0.0457495227381 -0.13878592137 -0.590633597188 -1.94615399701 -0.938423995693 0.370298223154 0.412672968434 0.732903354259
12.1856456625 1.16581419817 0.0626957098496 -0.0442878429407 -0.140798326866 -0.59038593991 -1.95129488801 -0.938824999105 0.368597333261 0.411077779305 0.734687273448
12.2332903568 1.16424519231 0.0578023620253 -0.0428151073397 -0.142796202157 -0.590201285451 -1.95641188809 -0.939223225482 0.366897381391 0.409427816726 0.736411527016
12.2790518345 1.16267990544 0.0529115940745 -0.041331765496 -0.144780159109 -0.590077186738 -1.96150557599 -0.939617769421 0.365199236334 0.407724183525 0.738079137241
12.3234460595 1.1611179219 0.0480231840704 -0.0398382547068 -0.146750792087 -0.59001131299 -1.96657654204 -0.940007813573 0.363503702234 0.405968002178 0.739692982696
12.3665157785 1.15955884792 0.0431369157133 -0.0383349998491 -0.148708677568 -0.590001446034 -1.97162538387 -0.940392621418 0.361811523742 0.404160407385 0.741255802782
12.4078255136 1.15788925681 0.0383083092876 -0.0368585015443 -0.150654512302 -0.590103418116 -1.9766194932 -0.940737060101 0.360121660504 0.402341903594 0.742716861256
12.4479054062 1.15622154107 0.0334815009281 -0.0353730728995 -0.152588573675 -0.590256185734 -1.98159291947 -0.941074741406 0.358436358658 0.400474251419 0.744132907738
12.4871825108 1.1545553787 0.028656296256 -0.0338790957435 -0.154511374409 -0.590457902996 -1.98654624792 -0.941405151182 0.356756199555 0.398558571331 0.745506233572
12.5256744069 1.15289046453 0.0238325071032 -0.0323769393047 -0.156423409207 -0.590706815558 -1.99148005822 -0.941727829144 0.355081723343 0.396595974289 0.74683901439
12.5633982112 1.15122650941 0.0190099516054 -0.0308669605714 -0.158325155111 -0.591001256786 -1.99639492285 -0.942042364574 0.353413432557 0.394587559011 0.748133315555
12.6006522965 1.14945182363 0.0142474442594 -0.029388214659 -0.160216915464 -0.591394780661 -2.00125647947 -0.942313638987 0.351750754659 0.39257417132 0.749339345435
12.6371649481 1.14767727917 0.00948589924571 -0.0279023141783 -0.16209915727 -0.591829751281 -2.00610043281 -0.942575879887 0.350095003942 0.390517111541 0.750511531752
12.6729521252 1.14590264002 0.00472515678394 -0.026409576487 -0.163972298954 -0.592304790635 -2.01092731125 -0.942828813118 0.348446580043 0.388417408954 0.751651590383
12.7080293732 1.14412768215 -3.49371297581e-05 -0.0249103080601 -0.165836743332 -0.592818589454 -2.01573763149 -0.943072197265 0.34680585698 0.386276072655 0.752761149418
12.7420714278 1.14235219293 -0.00479453082321 -0.0234048049923 -0.167692878238 -0.593369903891 -2.02053189809 -0.943305820852 0.345173185335 0.384094090539 0.753841753515
12.7766841721 1.14046631939 -0.00949158991615 -0.0219346379834 -0.169540645778 -0.594009825218 -2.02527400491 -0.943494606545 0.343548434569 0.381912739704 0.754844714351
12.8119903987 1.13857925695 -0.0141883519487 -0.0204587743689 -0.171380696324 -0.594684046373 -2.03000123619 -0.943673135517 0.341932180966 0.379692648391 0.755822295995
12.8480049893 1.13669083173 -0.0188849457597 -0.0189774772411 -0.173213368855 -0.595391541533 -2.03471404387 -0.943841279526 0.340324711154 0.377434718625 0.756775779165
12.8847431288 1.13480087824 -0.0235814953653 -0.0174910009729 -0.175038989853 -0.596131335284 -2.03941286708 -0.943998929959 0.338726295967 0.37513982978 0.757706379419
12.9222203055 1.13290923895 -0.0282781200611 -0.0159995916599 -0.176857873839 -0.596902500085 -2.04409813216 -0.944145996253 0.337137191788 0.372808838702 0.758615250511
12.9599208418 1.13090800291 -0.0329096428545 -0.0145472876679 -0.178669632501 -0.597753512254 -2.04873202412 -0.944247496556 0.3355576647 0.370483556754 0.75945493538
12.9983809854 1.12890454132 -0.037541385433 -0.0130904806568 -0.180475102278 -0.598633332452 -2.05335336146 -0.944338165398 0.333987705433 0.368123809907 0.760275667535
13.0376169126 1.12689872487 -0.0421734509091 -0.0116293904881 -0.18227455886 -0.599541196291 -2.05796251946 -0.944417962446 0.332427531017 0.365730370016 0.761078403922
13.0776451298 1.12489043008 -0.0468059384962 -0.0101642302388 -0.184068268203 -0.600476375936 -2.06255986148 -0.944486859281 0.33087734876 0.363303987938 0.76186405353
13.1188908497 1.12287953895 -0.0514389436845 -0.00869520660976 -0.185856487077 -0.601438178338 -2.06714573917 -0.944544838178 0.329337357209 0.360845393524 0.762633479875
13.1607651785 1.12076019174 -0.0560042259123 -0.00726876824733 -0.187638524183 -0.602472341434 -2.07168067792 -0.944557083238 0.327808160496 0.358397035144 0.763340554913
13.2039141466 1.11863779541 -0.060570122471 -0.00583880884366 -0.18941540603 -0.603531053742 -2.07620499425 -0.94455832172 0.326289289482 0.3559178483 0.764033584543
13.2483773543 1.11651225265 -0.0651367156853 -0.00440551463284 -0.191187359099 -0.604613744098 -2.08071899417 -0.944548566249 0.324780918573 0.353408486508 0.764713285909
13.2946538088 1.11438347015 -0.0697040848771 -0.00296906669885 -0.19295460252 -0.605719867814 -2.0852229733 -0.944527836438 0.323283216362 0.350869584721 0.765380340892
13.3428182589 1.11225135839 -0.0742723064713 -0.00152964127114 -0.194717348453 -0.606848905395 -2.08971721715 -0.944496158259 0.321796346192 0.348301759722 0.766035397882
13.3924255278 1.11001222034 -0.0787701571369 -0.000136031392844 -0.196474626942 -0.60804375675 -2.09416065026 -0.944418959948 0.32032118326 0.345748192627 0.766633730357
13.4398576331 1.10776936508 -0.083268918352 0.00126028444725 -0.198227656505 -0.60925981599 -2.0985950496 -0.944330827898 0.318856907078 0.343166863476 0.767221793661
13.4854488461 1.10552271838 -0.0877686559711 0.00265914584173 -0.199976625949 -0.610496654991 -2.10302066143 -0.944231806238 0.317403666287 0.340558323274 0.767800126998
13.5292712323 1.10327220874 -0.0922694335492 0.00406039627491 -0.201721718561 -0.611753864786 -2.1074377233 -0.944121943206 0.315961606117 0.337923107378 0.768369243503
13.5718152161 1.10101776725 -0.0967713123862 0.00546388292274 -0.203463112352 -0.613031054596 -2.1118464643 -0.944001290897 0.314530868663 0.335261736099 0.768929631439
13.6132547227 1.09865797216 -0.101200169006 0.00681854158822 -0.205199580464 -0.614368205936 -2.11620427401 -0.943835602703 0.313112527836 0.33261821033 0.769438018261
13.6534857518 1.09629390631 -0.105630154302 0.00817522240997 -0.206932532626 -0.615723908909 -2.12055434636 -0.943659208701 0.311705509794 0.329949501595 0.769939066344
13.6925440053 1.09392551222 -0.110061321133 0.00953378476769 -0.208662128942 -0.617097841663 -2.1248968773 -0.943472171649 0.310309947776 0.327256074682 0.770433182017
13.7300886609 1.09155273428 -0.1144937206 0.0108940909838 -0.210388525383 -0.618489696193 -2.12923205559 -0.943274556739 0.308925973085 0.324538381518 0.770920752149
13.7669041857 1.08917551863 -0.118927402085 0.0122560061683 -0.212111873977 -0.619899177668 -2.13356006297 -0.943066431436 0.307553715269 0.321796861621 0.771402145006
13.8034533544 1.08669483139 -0.12328542646 0.0135662745274 -0.213830710625 -0.621363284625 -2.13783682622 -0.942813955157 0.306194371015 0.319076414159 0.771835578432
13.839292926 1.08420940523 -0.127644735789 0.0148779850719 -0.215546632787 -0.622843801444 -2.14210690496 -0.942551099416 0.304846704609 0.316332955921 0.772263965887
13.874437014 1.08171919496 -0.132005372679 0.0161910123705 -0.217259778745 -0.624340485633 -2.14637045325 -0.942277937841 0.303510840261 0.313566880213 0.772687613592
13.9088994391 1.07922415662 -0.136367378397 0.0175052332229 -0.218970283691 -0.6258531047 -2.15062761926 -0.941994545517 0.30218690115 0.310778569892 0.773106813067
13.9426937312 1.07672424742 -0.140730792909 0.0188205265382 -0.220678279883 -0.627381435691 -2.15487854533 -0.94170099887 0.300875009562 0.307968397676 0.773521841753
13.9765489903 1.07412293333 -0.145015947937 0.0200815297955 -0.222382084055 -0.628959443103 -2.1590777729 -0.941363941681 0.299576406965 0.305182230879 0.77389243152
14.0094192485 1.07151647671 -0.149302495094 0.0213434783068 -0.224083475654 -0.630552107792 -2.16327116812 -0.941016895016 0.298289783102 0.30237488993 0.77425978215
14.0419748877 1.06890484146 -0.153590468874 0.0226062583641 -0.22578257636 -0.632159246865 -2.16745885031 -0.940659938708 0.297015257036 0.299546709251 0.774624123629
14.0742191713 1.06628799227 -0.157879902735 0.0238697579697 -0.227479505531 -0.633780684603 -2.17164093396 -0.940293153541 0.295752947309 0.296698014902 0.774985674632
14.1067972285 1.06366589459 -0.16217082915 0.0251338667306 -0.229174380342 -0.635416252179 -2.17581752872 -0.939916621098 0.294502972111 0.293829124703 0.775344643031
14.1390754728 1.06094608013 -0.166380172922 0.0263408307638 -0.230865179736 -0.637092128277 -2.17994543946 -0.939502518187 0.293261819236 0.290995901191 0.775659839038
14.1716936585 1.05821931561 -0.170591732425 0.0275487179459 -0.232554089658 -0.638785926443 -2.18406454435 -0.93907378049 0.292037627428 0.288133962448 0.775975617921
14.2049792501 1.0554870263 -0.174804782989 0.0287570081766 -0.234241132714 -0.640492784441 -2.18817862363 -0.938635599201 0.290825785405 0.285252746938 0.77628977418
14.238946099 1.05274918231 -0.179019349181 0.0299656057627 -0.235926406745 -0.642212572028 -2.19228773702 -0.938188028769 0.289626416898 0.282352486753 0.776602458597
14.2736083577 1.05000575532 -0.183235457478 0.0311744086514 -0.237610017428 -0.643945161361 -2.19639196715 -0.937731153855 0.288439637795 0.279433454863 0.77691382505
14.3082631295 1.04716678504 -0.187367599058 0.0323238974096 -0.239289680142 -0.645714816259 -2.20044598583 -0.937236618258 0.287262845722 0.276550350645 0.777184510693
14.34363425 1.04432045649 -0.191502053304 0.0334737941824 -0.240967997648 -0.647500856527 -2.20449207229 -0.936728188112 0.286103174044 0.27364052944 0.777457269041
14.3797296098 1.04146829141 -0.195638029538 0.0346237264727 -0.242644808383 -0.649298763882 -2.20853366795 -0.936210786029 0.284956085263 0.27071273553 0.777729497211
14.4165718377 1.0386086986 -0.199776403986 0.0357737557125 -0.244320610779 -0.651112788052 -2.2125677128 -0.935679940181 0.283826356752 0.267759153896 0.778004317313
14.4545369582 1.03574478476 -0.203915491042 0.0369234616998 -0.245994708899 -0.652934138745 -2.21660052091 -0.935144864685 0.282704799604 0.264796118616 0.778275846812
14.4928404653 1.03278691365 -0.207968655075 0.0380118505656 -0.247665166743 -0.654790951107 -2.2205804672 -0.934570394414 0.281596023205 0.261866284775 0.778510778039
14.5323192716 1.02982294585 -0.212023325579 0.0391000546085 -0.249334333378 -0.656658688077 -2.2245562666 -0.933987307761 0.28049993343 0.258919325843 0.778745944729
14.5730096261 1.02685286105 -0.216079520998 0.0401879822632 -0.251002300482 -0.658537271779 -2.22852796565 -0.933395690853 0.279416644031 0.255955455596 0.778981435376
14.6149488836 1.02387663907 -0.220137259328 0.0412755427553 -0.25266915879 -0.660426626906 -2.23249560798 -0.932795630115 0.278346269001 0.252974883281 0.779217332872
14.6586078263 1.02089425979 -0.224196558111 0.0423626460756 -0.254334998114 -0.662326680577 -2.23645923436 -0.932187212299 0.277288922557 0.249977813805 0.779453714619
14.7030749424 1.01782027525 -0.228167737561 0.0433864310224 -0.255997415348 -0.664258973402 -2.24036870696 -0.93153970802 0.276245236481 0.247014528516 0.779656421866
14.7458022147 1.01473993397 -0.23214041182 0.0444097448904 -0.257658833117 -0.66620128051 -2.24427438752 -0.930884081592 0.275214427552 0.244035117588 0.779860080322
14.7868778851 1.01165321866 -0.236114595733 0.0454325008271 -0.25931933718 -0.668153543865 -2.24817630567 -0.930220419438 0.274196609082 0.241039767636 0.780064748978
14.826760818 1.008560112 -0.240090303773 0.0464546126289 -0.260979012562 -0.670115707139 -2.25207448853 -0.929548808305 0.273191894617 0.23802866168 0.780270482127
14.8654857752 1.00546059664 -0.244067550063 0.0474759947029 -0.262637943599 -0.67208771565 -2.25596896077 -0.928869335209 0.272200398022 0.235001979148 0.780477329537
14.9037089043 1.00227225622 -0.247954387676 0.0484321575181 -0.26429358123 -0.674087980654 -2.25980864699 -0.92815206998 0.271222405306 0.232011204112 0.780652639737
14.9404544182 0.99907731925 -0.251842689667 0.0493875986354 -0.265948484613 -0.676097460258 -2.26364482306 -0.927427186222 0.270257461408 0.229005176878 0.780829461604
14.9757795414 0.995875770749 -0.255732467765 0.0503422351489 -0.267602734749 -0.678116111557 -2.26747750424 -0.926694770357 0.269305679258 0.225984061504 0.781007829839
15.0104218629 0.992667595648 -0.259623733424 0.0512959846694 -0.269256412105 -0.680143892782 -2.2713067036 -0.925954909041 0.268367172156 0.222948018974 0.781187775263
15.0443946726 0.989452778757 -0.26351649779 0.0522487653279 -0.270909596592 -0.682180763168 -2.27513243201 -0.925207689256 0.267442053669 0.219897207423 0.781369324783
15.0782257994 0.98615203358 -0.267316644566 0.0531345615424 -0.272559604822 -0.684242012751 -2.278902774 -0.924424023709 0.266530190231 0.216884339847 0.781521316529
15.1114026895 0.982844468854 -0.271118208667 0.0540194174138 -0.274209122681 -0.686311766073 -2.28266982798 -0.923633249152 0.265631529107 0.213856988257 0.781675250544
15.1439380659 0.979530071425 -0.274921199075 0.0549032534019 -0.275858227276 -0.688389991797 -2.28643359686 -0.92283545172 0.2647461829 0.210815297688 0.781831141294
15.1758444011 0.976208827978 -0.278725624537 0.055785990406 -0.277506995296 -0.690476659241 -2.29019408155 -0.9220307178 0.26387426458 0.207759410651 0.781988999888
15.2074468206 0.97288072503 -0.282531493533 0.0566675497687 -0.279155502986 -0.692571738285 -2.29395128106 -0.921219134095 0.263015887403 0.204689467286 0.782148834046
15.2388819292 0.969469700877 -0.286242619787 0.0574804930818 -0.280800943343 -0.694687413852 -2.29765253858 -0.920372492841 0.262170427124 0.201659429315 0.782280950572
15.2709605919 0.966051648379 -0.289955101131 0.0582923065927 -0.282446119473 -0.696810954464 -2.30135068104 -0.919519254966 0.261338304777 0.198615586682 0.782415329682
15.3036960374 0.962626555828 -0.293668944038 0.0591029137103 -0.28409110519 -0.698942337576 -2.3050457006 -0.918659506121 0.260519632582 0.195558068274 0.782551968696
15.3371017647 0.959194411307 -0.297384154754 0.0599122382401 -0.285735973944 -0.70108154091 -2.30873758763 -0.917793332264 0.259714523056 0.19248700095 0.78269086191
15.3711915474 0.955755202701 -0.301100739315 0.0607202043584 -0.287380798856 -0.703228542453 -2.31242633071 -0.916920819597 0.258923089115 0.189402509454 0.782832000737
15.4050609796 0.952236184462 -0.304720542378 0.0614580545133 -0.289022659143 -0.705392445691 -2.3160586311 -0.91601466956 0.258144147822 0.186359817929 0.782947137219
15.4396233902 0.948709941257 -0.308341623998 0.0621946124422 -0.290664466022 -0.707563634625 -2.31968794869 -0.915102435389 0.257378662332 0.183303925261 0.783064761607
15.4748929951 0.945176462538 -0.31196398827 0.0629298042144 -0.292306290393 -0.709742093308 -2.32331426617 -0.91418420212 0.25662674433 0.180234946562 0.783184856418
15.5112442107 0.941635737535 -0.315587639101 0.0636635562404 -0.293948202879 -0.711927805831 -2.32693756456 -0.913260055033 0.255888505889 0.17715299512 0.783307401557
15.5487102378 0.938087755232 -0.319212580153 0.064395795297 -0.295590273763 -0.714120756215 -2.33055782323 -0.912330079757 0.255164059318 0.174058182599 0.783432374188
15.586172549 0.934463173844 -0.322738789451 0.0650565483349 -0.29722947755 -0.716326997349 -2.33412120109 -0.911367909678 0.254451598545 0.1710070033 0.78353294647
15.6248489238 0.930831181465 -0.326266186917 0.0657158720713 -0.298868824892 -0.718539994204 -2.33768169443 -0.910400165461 0.253752693753 0.16794316089 0.783636149111
15.6651779431 0.927191768516 -0.329794774361 0.0663736950102 -0.300508384058 -0.720759735754 -2.3412392775 -0.909426931311 0.253067456053 0.164866758468 0.783741951809
15.7072301628 0.923544925171 -0.333324553389 0.0670299459842 -0.302148223044 -0.722986210773 -2.34479392296 -0.908448291715 0.252395996881 0.16177789762 0.783850321839
15.7515176427 0.919890641342 -0.336855525355 0.0676845541783 -0.303788409515 -0.725219407747 -2.34834560192 -0.907464331527 0.251738427865 0.158676678588 0.783961223938
15.7971174918 0.916163062638 -0.340285905478 0.0682664342554 -0.305425821541 -0.727462366426 -2.35184003011 -0.906449632267 0.251092258957 0.155620868252 0.78404922392
15.8401881755 0.912427896309 -0.343717369665 0.0688467719192 -0.307063561051 -0.729711592445 -2.35533164345 -0.905429863823 0.250459728698 0.152552875461 0.784139923806
15.8812517971 0.908685133604 -0.347149917457 0.0694254979612 -0.308701693821 -0.731967078337 -2.35882040854 -0.904405109405 0.249840947515 0.149472792783 0.784233282027
15.9207933158 0.904934765503 -0.350583548152 0.0700025435131 -0.310340285315 -0.734228816212 -2.36230629047 -0.903375452581 0.249236026022 0.146380711612 0.784329254658
15.9624362305 0.901176782728 -0.354018260808 0.0705778400333 -0.311979400707 -0.736496797773 -2.36578925282 -0.902340977223 0.248645075097 0.143276722086 0.784427795511
16.0048537428 0.897348897798 -0.357350613082 0.071079292207 -0.31361582927 -0.738771093319 -2.36921466658 -0.901277222781 0.248064863892 0.140219860923 0.784504837008
16.0495253014 0.893513257083 -0.360683931498 0.071579111655 -0.315252756522 -0.74105120326 -2.37263731075 -0.90020889662 0.247498356752 0.13715124704 0.784584583361
16.0970410457 0.889669852562 -0.364018213281 0.072077231378 -0.31689024576 -0.743337122538 -2.37605714493 -0.899136080857 0.2469456632 0.134070963795 0.784666982915
16.1480873725 0.885818675947 -0.3673534554 0.0725735847095 -0.318528359972 -0.745628845559 -2.37947412727 -0.898058857941 0.246406892956 0.130979093498 0.78475198184
16.203474903 0.881959718692 -0.370689654564 0.0730681053114 -0.32016716184 -0.747926366187 -2.38288821441 -0.896977310627 0.245882155968 0.127875717372 0.784839524179
16.2629473081 0.878034335474 -0.373921817547 0.0734877888654 -0.321803359025 -0.750226834801 -2.38624452976 -0.895867939947 0.245367428136 0.124821134274 0.78490688198
16.3194018706 0.87410103611 -0.377154814647 0.0739057711798 -0.32344021329 -0.752532695319 -2.38959809969 -0.894754485244 0.244866452777 0.121755182541 0.784976892036
16.3812697756 0.870159813262 -0.380388640705 0.0743219874132 -0.325077785422 -0.754843944178 -2.39294887734 -0.893637027403 0.244379338348 0.118677937357 0.785049493649
16.4511243646 0.866210659338 -0.383623290308 0.0747363730417 -0.32671613592 -0.75716057722 -2.39629681438 -0.892515647577 0.243906193579 0.115589472874 0.785124624173
16.533110568 0.862253566491 -0.386858757739 0.0751488638927 -0.328355324921 -0.759482589607 -2.39964186107 -0.891390427261 0.243447127319 0.112489862369 0.785202218873
16.6046220295 0.858233602395 -0.389988606976 0.0754856459213 -0.329991985283 -0.761804266658 -2.40292898871 -0.890238827037 0.242997274175 0.109440654719 0.785260862851
16.668484958 0.854205569133 -0.39311914381 0.0758206790881 -0.331629447956 -0.764130939527 -2.40621337664 -0.889083618559 0.242561205222 0.106380421152 0.785322055111
16.7269944481 0.850169460048 -0.396250360643 0.0761539006607 -0.333267771191 -0.766462605442 -2.40949497194 -0.887924881278 0.242139027815 0.103309229407 0.785385726935
16.7867995043 0.846125268241 -0.39938224958 0.0764852482474 -0.334907012897 -0.768799260926 -2.41277372025 -0.886762694939 0.241730849485 0.100227146363 0.785451807702
16.8526368371 0.84207298657 -0.402514802397 0.0768146598155 -0.336547230595 -0.771140901751 -2.41604956578 -0.885597139606 0.241336777874 0.0971342381029 0.785520224827
16.9133095833 0.837961462017 -0.405540249774 0.0770676088217 -0.338184988902 -0.77347900789 -2.41926742137 -0.884406628127 0.24095106276 0.0940932873869 0.785570850682
16.9695702609 0.833841722348 -0.408566223302 0.0773187813782 -0.339823681102 -0.775821736837 -2.42248252659 -0.883212970209 0.240579147277 0.0910416156022 0.785623875053
17.0221503256 0.829713761621 -0.411592712858 0.0775681168476 -0.341463362818 -0.778169086003 -2.42569482277 -0.882016243719 0.240221137563 0.087979283722 0.785679222055
17.0717818458 0.825577573667 -0.41461970798 0.0778155549574 -0.343104089277 -0.780521052006 -2.42890424984 -0.880816526828 0.239877139855 0.0849063519923 0.785736813943
17.1240489099 0.82143315209 -0.417647197837 0.0780610358205 -0.344745915264 -0.782877630627 -2.43211074636 -0.879613898041 0.239547260413 0.0818228799941 0.785796571052
17.1808373198 0.817233184837 -0.420566190744 0.0782294152347 -0.346385343652 -0.785227560627 -2.43525925805 -0.878387710343 0.239224825289 0.0787928645732 0.785839628427
17.2424533449 0.813024863503 -0.423485533014 0.0783960097998 -0.34802582331 -0.787581760757 -2.43840499392 -0.877158822166 0.2389161895 0.0757523979109 0.785884893972
17.3106025631 0.808808182916 -0.426405211884 0.0785607609948 -0.349667407087 -0.789940228059 -2.44154788991 -0.875927309702 0.238621457755 0.0727015348899 0.785932285308
17.3724634502 0.804583137702 -0.429325214228 0.0787236106792 -0.351310147399 -0.792302958732 -2.44468788053 -0.874693249425 0.238340734837 0.0696403297208 0.785981718293
17.4297041184 0.800349722291 -0.432245526533 0.0788845011028 -0.352954096204 -0.794669948122 -2.44782489893 -0.873456718088 0.238074125586 0.0665688359486 0.786033107022
17.4927503399 0.796064522507 -0.435056047125 0.0789677625751 -0.354595701182 -0.797027261841 -2.45090401265 -0.872197992358 0.237813998028 0.0635522415296 0.786068825979
17.550805933 0.791770836715 -0.43786672452 0.0790492491911 -0.35623845995 -0.799388510943 -2.45398031169 -0.870936994635 0.237567654157 0.0605254332952 0.786106526861
17.6050625063 0.787468660607 -0.440677543242 0.079128904551 -0.357882422474 -0.801753691685 -2.45705372685 -0.869673799283 0.237335197174 0.0574884604955 0.786146121549
17.6562755765 0.7831579897 -0.443488487403 0.0792066726678 -0.359527638223 -0.804122799424 -2.46012418753 -0.868408480961 0.237116730255 0.0544413718203 0.786187520184
17.7075896236 0.778838819348 -0.446299540705 0.0792824979593 -0.361174156174 -0.806495828633 -2.46319162169 -0.867141114572 0.236912356631 0.051384215316 0.78623063126
17.7626654112 0.774471685334 -0.448999605371 0.0792802744385 -0.362818375655 -0.808856243424 -2.46620130487 -0.865852880035 0.23671345682 0.0483833440896 0.786259047272
17.8217193467 0.770095940625 -0.451699618176 0.0792763036268 -0.36446383599 -0.811220274756 -2.46920812226 -0.864562783027 0.236528310213 0.0453724662696 0.786289187592
17.877012361 0.765711581892 -0.454399560838 0.0792705312784 -0.366110584116 -0.813587917724 -2.47221199974 -0.863270895997 0.236357018317 0.0423516259658 0.786320958974
17.9292032628 0.761318605673 -0.457099414645 0.0792629035683 -0.367758666451 -0.815959166517 -2.4752128618 -0.86197729163 0.236199682651 0.0393208667065 0.786354266586
17.9789585649 0.756917008368 -0.459799160418 0.0792533671265 -0.369408128826 -0.81833401436 -2.47821063155 -0.860682042906 0.236056404613 0.0362802315468 0.786389013895
18.027381499 0.752471322872 -0.462386819645 0.0791654656778 -0.371055329441 -0.820693398584 -2.48115087574 -0.859367209156 0.235917552381 0.0332972103379 0.786409991771
18.0738810325 0.74801690956 -0.464974201988 0.0790758612623 -0.372703841949 -0.823056094636 -2.48408819172 -0.858050902233 0.235792408488 0.0303043615884 0.786432409215
18.1186537461 0.74355376623 -0.467561286301 0.0789845018049 -0.374353710151 -0.825422096161 -2.4870225007 -0.856733192535 0.235681072673 0.0273017246102 0.786456168547
18.1653355685 0.739081890576 -0.470148050958 0.0788913356973 -0.376004977242 -0.82779139584 -2.48995372253 -0.855414150737 0.235583644539 0.0242893382746 0.786481170466
18.214494465 0.734601280207 -0.472734473856 0.0787963117913 -0.377657685815 -0.830163985405 -2.49288177566 -0.854093847731 0.235500223615 0.0212672409316 0.786507314148
18.2666240802 0.730080507271 -0.475207812598 0.0786227061647 -0.379308160666 -0.832518352742 -2.49575259831 -0.852755195536 0.235420145417 0.0183040287787 0.786520571012
18.3220688844 0.725550897404 -0.47768063294 0.0784474578198 -0.380960001946 -0.834875739772 -2.49862041994 -0.851415438142 0.23535371682 0.0153311417996 0.786534959698
18.3816292036 0.721012449689 -0.480152910807 0.0782705168989 -0.382613250176 -0.837236138408 -2.50148515732 -0.85007464385 0.235301035584 0.0123486149357 0.786550378619
18.4468313808 0.716465163152 -0.482624621624 0.0780918340308 -0.384267945229 -0.839599539598 -2.50434672589 -0.848732881196 0.235262199312 0.00935648269855 0.786566724676
18.506623704 0.711909036775 -0.485095740313 0.0779113603265 -0.385924126338 -0.841965933332 -2.5072050397 -0.847390218908 0.23523730551 0.0063547791003 0.786583893339
18.5627433048 0.707319613486 -0.487452204459 0.0776527691194 -0.387577193923 -0.844309187334 -2.51000813373 -0.846032775187 0.235211189078 0.00341666603028 0.78658556951
18.6158009197 0.702718362674 -0.489808579657 0.0773920331342 -0.38923256333 -0.846657411809 -2.5128065019 -0.844672161994 0.235202089041 0.000465507267372 0.786591503117
18.6663814932 0.698108173029 -0.492164150745 0.0771296820803 -0.390889373424 -0.849008371317 -2.51560169972 -0.84331086128 0.235206663898 -0.00249516046694 0.786598138809
18.71460046 0.693489046992 -0.494518891007 0.0768656687772 -0.392547661419 -0.851362048841 -2.51839363833 -0.841948933709 0.235225007363 -0.00546531348229 0.786605368532
18.7653771164 0.688860985105 -0.496872772365 0.0765999466388 -0.394207463066 -0.853718432426 -2.52118222763 -0.8405864458 0.235257214721 -0.00844492172842 0.786613084578
18.8190874807 0.684203126786 -0.499111386658 0.0762559497943 -0.395864384828 -0.856049650767 -2.52391567128 -0.83920979619 0.235287853406 -0.0113605996119 0.786606911616
18.8762489037 0.679533276445 -0.5013495772 0.0759098869488 -0.39752359681 -0.858385474936 -2.52664431477 -0.837830365087 0.235335339056 -0.0142890721888 0.786604569998
18.9376521923 0.674854395896 -0.503586685054 0.0755623010173 -0.399184265985 -0.860723763031 -2.52936969245 -0.836450571522 0.235396413382 -0.0172269521139 0.786602583683
19.00516385 0.670166489288 -0.505822680541 0.0752131470967 -0.400846426087 -0.863064496121 -2.5320917117 -0.835070474156 0.235471167837 -0.0201742191047 0.78660084195
19.0668040179 0.66546955893 -0.508057532552 0.0748623809355 -0.40251010928 -0.865407660125 -2.53481027848 -0.833690137186 0.235559695379 -0.0231308468306 0.786599234449
19.1253449573 0.660747523409 -0.510176354076 0.0744335305506 -0.404170759633 -0.867722807847 -2.53747451163 -0.832297127954 0.235644865419 -0.0260218829662 0.786583891463
19.1804812901 0.656013344366 -0.512294396369 0.0740027081596 -0.405833666926 -0.870042198456 -2.54013385821 -0.830901689349 0.23574669743 -0.0289254915044 0.786571939652
19.235176764 0.651270055432 -0.514411062426 0.0735704680361 -0.407498030891 -0.872363788214 -2.5427898361 -0.829506184968 0.235862017935 -0.0318384272937 0.786559986727
19.2933485496 0.646517662661 -0.516526319657 0.0731367675925 -0.409163881721 -0.874687556165 -2.54544234924 -0.82811067141 0.235990915976 -0.0347606731659 0.786547919896
19.3564608695 0.641756170337 -0.518640133976 0.0727015649468 -0.410831247937 -0.877013485987 -2.54809129994 -0.826715210515 0.23613348202 -0.0376922061844 0.786535626757
19.4257896722 0.636973722039 -0.5206374066 0.0721884214828 -0.41249561936 -0.879309113066 -2.5506864576 -0.82530804766 0.236271604576 -0.0405572373143 0.786510454515
19.5041117463 0.632178990716 -0.522633523085 0.0716734143151 -0.414162192432 -0.881608624061 -2.55327663137 -0.823898777638 0.236426190696 -0.0434346430377 0.786488222224
19.5964507121 0.627375080597 -0.524627954161 0.071157107314 -0.415830204233 -0.88391007703 -2.55586332691 -0.822489714684 0.236594152817 -0.0463213152498 0.786465624466
19.7163406632 0.622561999836 -0.526620664373 0.0706394602396 -0.41749968136 -0.8862134489 -2.55844644495 -0.821080913271 0.236775577441 -0.0492172396548 0.786442546899
20.0 0.617739754917 -0.528611616717 0.0701204336097 -0.419170648637 -0.888518721011 -2.56102588447 -0.819672432828 0.236970552406 -0.0521223964401 0.786418875591
