liuchen18/hilsys_new/iiwa_agv/data/fwx_planned_trajectory.txt
this is the FWX joint values,the following info is time,x,y,theta,joint1,joint2,joint3,joint4,joint5,joint6,joint7
0.0 -1.49251419137 -0.353053403418 -0.0509683910938 0.101527989191 -0.0394139140484 0.9183915124 -0.358483320987 0.573302737359 0.706542745507 -0.179609027907
0.5 -1.51114402357 -0.412924363066 -0.139573682932 0.278738572868 -0.127186887675 0.563082414068 -0.250308537506 0.460573929449 0.696560540264 -0.00313797799293
1.0 -1.60584249274 -0.653315633875 -0.181855435084 0.363302077172 -0.856248073521 0.310396806075 -0.290709314281 0.352459926478 1.3216371275 0.500770534216
1.5 -1.58167738479 -0.629066909444 -0.16703779724 0.333666810622 -0.609227590046 0.308175980392 -0.221938365714 0.329748817245 0.977733503181 0.428539252397
2.0 -1.56438588146 -0.642053522848 -0.161935743525 0.323462703193 -0.468625545819 0.312057957184 -0.182057430276 0.324118142002 0.779623301238 0.386839659681
2.5 -1.55280271381 -0.675128195017 -0.159686740913 0.318964697968 -0.38107609493 0.316366624814 -0.155433869537 0.322693068132 0.65136117048 0.360928331933
3.0 -1.54479688358 -0.719948931271 -0.1585776894 0.316746594943 -0.32230069655 0.319461704122 -0.13599591075 0.322216440332 0.561290016491 0.344374245272
3.5 -1.5390067638 -0.772138400625 -0.157999955145 0.315591126433 -0.280306460696 0.321315265538 -0.120981119516 0.321852827635 0.494224419816 0.333620906752
4.0 -1.53463367018 -0.829241621648 -0.157691207725 0.314973631592 -0.248746812837 0.322248213367 -0.108952969856 0.32142471586 0.442088866725 0.326545224921
4.5 -1.53120772094 -0.889788303768 -0.157525979219 0.314643174582 -0.224067779306 0.322582808569 -0.0990717814575 0.320933237655 0.400240427392 0.321821305468
5.0 -1.52844189396 -0.952849140363 -0.157440348411 0.314471912964 -0.204154810243 0.322550434796 -0.0908016829397 0.32040963365 0.365811196993 0.318626823909
5.5 -1.52615418668 -1.01780687108 -0.157400216549 0.314391649241 -0.18768544799 0.322305338742 -0.0837777337565 0.319882510506 0.336931574859 0.316440955865
6.0 -1.52422458245 -1.08423454006 -0.157386712907 0.314364641957 -0.173793688954 0.321945954943 -0.0777396972182 0.319371240163 0.312326030134 0.314929148538
6.5 -1.52257098231 -1.15182663255 -0.157389071901 0.314369359944 -0.161888953854 0.321533459606 -0.0724956865332 0.31888701521 0.291091164278 0.313873393599
7.0 -1.52113532593 -1.22035821813 -0.15740099344 0.314393203023 -0.15155396502 0.321105007693 -0.0679005860621 0.318435240332 0.272567007697 0.313129620802
7.5 -1.51987531968 -1.28965966353 -0.157418711444 0.314428639031 -0.142484689979 0.320682532287 -0.0638424335089 0.318017611744 0.256258776788 0.312601342979
8.0 -1.51875934268 -1.35960039053 -0.157439935058 0.314471086259 -0.134453647547 0.320278422204 -0.0602334129741 0.317633608712 0.241787331583 0.312223130299
8.5 -1.51776320988 -1.43007809953 -0.157463251567 0.314517719277 -0.127286691005 0.319899137509 -0.0570036788623 0.317281480232 0.228856682515 0.311950101219
9.0 -1.51686805377 -1.50101141336 -0.157487781135 0.314566778413 -0.120847843327 0.319547498509 -0.0540969996048 0.316958867982 0.217232017964 0.311751145685
9.5 -1.5160588995 -1.57233472908 -0.157512972669 0.314617161482 -0.115029101082 0.319224130485 -0.0514676143978 0.316663185508 0.20672444466 0.311604495714
10.0 -1.5153236821 -1.64399453479 -0.157538480723 0.314668177588 -0.109743397303 0.318928373231 -0.0490779221338 0.316391840273 0.197180139871 0.311494792468
10.5 -1.51465255265 -1.71594672294 -0.157564089946 0.314719396035 -0.104919628269 0.318658851271 -0.0468967548328 0.316142356836 0.188472479568 0.311411120308
11.0 -1.51403737798 -1.78815459622 -0.157589668007 0.314770552157 -0.100499062922 0.318413828686 -0.0448980697145 0.3159124391 0.180496221077 0.31134567381
11.5 -1.51347137319 -1.86058736465 -0.15761513585 0.314821487842 -0.0964327008782 0.318191427419 -0.0430599460916 0.315699995962 0.173163134462 0.311292843751
12.0 -1.5129488267 -1.93321899692 -0.157640448686 0.314872113515 -0.0926792937346 0.317989758489 -0.0413638075566 0.315503145381 0.166398673294 0.311248584437
12.5 -1.5124648915 -2.00602733155 -0.157665583738 0.314922383618 -0.0892038406741 0.317806998344 -0.0397938127157 0.315320206525 0.160139405047 0.311209971215
13.0 -1.51201542438 -2.07899338129 -0.157690532262 0.314972280668 -0.0859764282075 0.317641430442 -0.0383363735613 0.315149685692 0.154331004104 0.311174888445
13.5 -1.51159686042 -2.1521007831 -0.157715294341 0.315021804825 -0.0829713241735 0.317491465186 -0.0369797714775 0.314990259555 0.148926667642 0.311141807568
14.0 -1.51120611397 -2.22533535917 -0.157739875459 0.315070967061 -0.0801662618387 0.317355646424 -0.0357138486916 0.314840757716 0.143885852841 0.311109628204
14.5 -1.51084049967 -2.29868476353 -0.157764284266 0.315119784675 -0.077541868997 0.317232650115 -0.0345297584632 0.314700145865 0.139173261923 0.311077563294
15.0 -1.51049766903 -2.37213818526 -0.157788485422 0.315168173521 -0.0750812155946 0.317121381185 -0.033419807388 0.314567605127 0.13475797401 0.311045053914
15.5 -1.5101755579 -2.44568615432 -0.157812581195 0.315216365068 -0.0727694075593 0.317020552622 -0.0323771048333 0.314442136698 0.130612952853 0.311011718198
16.0 -1.50987234533 -2.51932028784 -0.157836537254 0.315264277185 -0.0705933280667 0.316929295417 -0.0313957005306 0.314323121018 0.126714223037 0.310977289813
16.5 -1.50958641801 -2.59303317127 -0.15786036457 0.315311931818 -0.0685413541972 0.316846735352 -0.0304702864282 0.314209924609 0.123040594213 0.310941597635
17.0 -1.50931634139 -2.66681821493 -0.157884073638 0.315359349954 -0.0666031544089 0.316772086931 -0.0295961471765 0.314101985533 0.119573234185 0.31090453797
17.5 -1.50906083547 -2.7406695425 -0.157907674343 0.315406551364 -0.0647695132078 0.316704644391 -0.0287690800418 0.313998804571 0.116295349823 0.310866056473
18.0 -1.50881787438 -2.81458045017 -0.15793116642 0.315453535518 -0.0630275705879 0.316642458755 -0.0279852284074 0.313899223205 0.113186745912 0.310827844259
18.5 -1.50858828451 -2.88854929241 -0.157954577109 0.315500356896 -0.0613796866375 0.316587771667 -0.0272414450264 0.313804372272 0.110244908271 0.3107862489
19.0 -1.50837015208 -2.96257017618 -0.157977905186 0.315547013049 -0.0598139775025 0.316538543486 -0.0265345714567 0.313713070539 0.107451830857 0.310743284039
19.5 -1.50816264248 -3.03663927615 -0.158001157814 0.315593518306 -0.0583244396675 0.316494316795 -0.0258618760329 0.313625004658 0.104796584025 0.310698981177