liuchen18/hilsys_new/iiwa_agv/data/fwx_planned_trajectory_ce.txt
this is the FWX joint values,the following info is time,x,y,theta,joint1,joint2,joint3,joint4,joint5,joint6,joint7
0.0 -2.13611172466 -0.153562442536 -2.52135616811 -0.783803750356 1.17638477741 0.801275483391 1.08482340351 1.71755865056 -0.855767197766 2.62900731695
0.217186689528 -2.13441329242 -0.153372177569 -2.52093661263 -0.784642861318 1.17603697721 0.802053154823 1.08355352646 1.71836578159 -0.855281023608 2.62890209964
0.372034830851 -2.13271447047 -0.153181720956 -2.52051740171 -0.785481283153 1.17568989164 0.802829204335 1.08228380242 1.719171277 -0.854796177936 2.62879721784
0.499695250098 -2.1310152589 -0.152991074767 -2.52009853656 -0.786319013445 1.1753435201 0.803603634105 1.08101423956 1.71997513962 -0.854312656131 2.62869267227
0.611886714108 -2.12931572873 -0.15280045187 -2.51968005412 -0.787155978334 1.17499784104 0.804376541972 1.07974508502 1.72077764733 -0.853830203017 2.62858864819
0.713481011167 -2.12761571622 -0.152609364035 -2.51926186655 -0.78799235348 1.17465290909 0.805147694919 1.07847576337 1.72157812014 -0.853349439691 2.62848467415
0.807323240212 -2.12591531228 -0.152418089978 -2.51884403584 -0.788828014887 1.17430867964 0.805917249404 1.0772066623 1.72237702316 -0.852869931057 2.62838109508
0.894871611123 -2.12421451929 -0.152226634342 -2.51842655525 -0.789662976083 1.1739651615 0.806685191282 1.07593775295 1.72317430148 -0.852391730478 2.62827785205
0.977360378011 -2.12251343257 -0.152035278331 -2.5180094705 -0.790497145575 1.17362232837 0.807451645028 1.07466934544 1.72397030292 -0.851914520734 2.62817516928
1.05586783268 -2.1208118642 -0.151843468926 -2.51759268566 -0.791330715254 1.17328024038 0.808216352383 1.07340080801 1.72476428386 -0.851438979498 2.6280725426
1.13058213561 -2.11910990504 -0.151651481369 -2.51717626187 -0.792163562826 1.17293885213 0.808979468765 1.07213252075 1.72555670285 -0.850964677432 2.62797031011
1.20239750238 -2.11740755742 -0.151459320139 -2.51676019253 -0.792995701521 1.17259817218 0.809740980254 1.0708644557 1.72634750631 -0.850491666764 2.62786841448
1.27073912481 -2.11570491663 -0.151267262757 -2.51634452259 -0.793827041394 1.17225817341 0.810501010088 1.06959691636 1.72713703619 -0.850019635682 2.6277670744
1.33708956842 -2.11400179492 -0.151074763467 -2.51592915751 -0.794657771544 1.17191891755 0.811259302252 1.06832928363 1.72792456016 -0.849549251805 2.62766579637
1.4015034011 -2.11229828313 -0.150882094029 -2.51551415762 -0.795487771341 1.17158035845 0.812016011143 1.06706193026 1.72871053035 -0.84908009138 2.62756491197
1.46403706799 -2.11059438361 -0.150689258826 -2.51509951623 -0.796317054119 1.17124250468 0.812771122651 1.06579482824 1.72949489307 -0.848612206971 2.62746436394
1.52534909699 -2.10889019146 -0.150496531626 -2.51468527781 -0.797145530944 1.17090532802 0.813524759335 1.0645282758 1.73027798638 -0.848145290203 2.62736436751
1.58546997013 -2.10718551923 -0.150303373935 -2.51427134913 -0.797973388308 1.17056889179 0.814276667231 1.06326166584 1.73105908849 -0.847679999337 2.62726443902
1.64441968526 -2.10548045772 -0.150110054077 -2.51385778955 -0.798800507467 1.17023314932 0.815026999484 1.06199536339 1.73183864437 -0.847215917006 2.62716490278
1.70222097183 -2.10377500922 -0.149916576263 -2.51344459262 -0.799626901333 1.16989810884 0.815775742343 1.06072934161 1.7326166021 -0.846753094198 2.62706570356
1.7588930483 -2.10206926872 -0.149723210601 -2.51303180205 -0.800452482469 1.16956374142 0.816523017174 1.05946389239 1.73339329408 -0.846291227764 2.62696705137
1.81446406606 -2.10036304907 -0.149529425812 -2.51261932594 -0.8012774347 1.16923011179 0.817268572135 1.05819842063 1.73416800928 -0.84583096635 2.62686847249
1.86895251665 -2.09865644096 -0.149335486747 -2.51220722286 -0.80210164085 1.16889717263 0.818012559441 1.05693328444 1.73494118666 -0.845371897855 2.62677028523
1.92237941714 -2.09694944671 -0.149141397518 -2.51179548635 -0.802925113867 1.16856493212 0.81875496522 1.05566845711 1.73571277442 -0.844914073346 2.62667243466
1.97528636584 -2.09524216114 -0.14894742454 -2.51138415955 -0.803747767467 1.16823336047 0.819495910007 1.05440422508 1.73648310055 -0.84445719365 2.62657512694
2.02768415418 -2.0935343974 -0.14875304372 -2.51097315186 -0.804569782855 1.16790252372 0.820235144037 1.05314000491 1.7372514646 -0.84400189796 2.62647789793
2.07957492171 -2.09182624612 -0.148558516479 -2.51056252098 -0.805391044621 1.16757237409 0.820972818372 1.05187614751 1.7380182988 -0.843547780181 2.62638105935
2.13096351333 -2.09011770959 -0.148363846784 -2.51015226057 -0.806211565441 1.16724291952 0.821708919355 1.05061262694 1.73878355258 -0.843094890326 2.62628455767
2.18185195618 -2.08840888245 -0.148169297421 -2.50974241306 -0.807031260449 1.1669141296 0.822443566399 1.04934972371 1.73954754858 -0.84264293418 2.62618859425
2.23225062202 -2.08669957824 -0.147974351431 -2.5093328892 -0.807850308177 1.16658607152 0.823176511878 1.04808686598 1.74030959708 -0.842192541265 2.62609271468
2.28216157545 -2.08498988746 -0.147779266799 -2.50892374587 -0.808668594838 1.166258697 0.823907905851 1.04682439785 1.74107012412 -0.841743310991 2.62599722461
2.33158946653 -2.08327981238 -0.14758404739 -2.50851497674 -0.809486133095 1.16593201393 0.824637734589 1.0455622936 1.74182907943 -0.841295293266 2.625902071
2.38053626995 -2.08156944747 -0.147388952342 -2.50810662366 -0.81030283925 1.16560599116 0.82536611666 1.04430082845 1.74258678123 -0.840848197903 2.62580745138
2.42901193778 -2.07985860663 -0.147193471804 -2.50769859867 -0.811118889234 1.16528069695 0.826092806497 1.04303944178 1.74334255019 -0.840402645031 2.62571292064
2.47701845971 -2.07814738028 -0.146997860358 -2.50729095777 -0.811934171039 1.16495608271 0.826817952976 1.0417784707 1.74409680567 -0.839958240138 2.62561877793
2.52456031716 -2.07643577064 -0.146802121728 -2.50688369479 -0.812748697003 1.16463215605 0.827541542649 1.04051789035 1.74484949878 -0.839515031873 2.62552497178
2.57163941364 -2.07472387198 -0.14660651146 -2.50647685087 -0.813562384829 1.16430888532 0.828263692966 1.03925797023 1.74560094248 -0.839072734965 2.62543169511
2.61826530403 -2.07301149864 -0.146410526764 -2.50607033937 -0.814375407839 1.16398633973 0.828984160445 1.03799816083 1.74635046791 -0.838631960072 2.62533851203
2.66443991432 -2.07129874085 -0.146214418799 -2.50566421553 -0.815187655503 1.16366447023 0.829703093103 1.03673879298 1.74709848876 -0.838192317687 2.62524571635
2.71016755357 -2.06958560089 -0.146018191222 -2.50525847307 -0.815999140431 1.16334328455 0.830420477098 1.03547984139 1.74784495542 -0.837753857406 2.625153256
2.75545006158 -2.06787217276 -0.145822095952 -2.50485315266 -0.816809781246 1.16302275028 0.831136429308 1.03422157098 1.74859017732 -0.83731629708 2.62506132108
2.80029661105 -2.06615827126 -0.145625637228 -2.5044481689 -0.817619748764 1.16270293752 0.831850708222 1.03296344292 1.74933349564 -0.836880238284 2.62496948444
2.84426933997 -2.06444398649 -0.145429062843 -2.50404357615 -0.818428934266 1.16238379704 0.832563460612 1.03170578116 1.75007531726 -0.836445297757 2.6248780334
2.88825184112 -2.06272932065 -0.145232376299 -2.50363936836 -0.819237349856 1.1620653362 0.833274673125 1.03044856168 1.75081559463 -0.836011523156 2.62478691811
2.93224171267 -2.06101436755 -0.145035825991 -2.5032355854 -0.820044915764 1.16174752232 0.833984461284 1.02919204337 1.75155463119 -0.835578638008 2.62469632342
2.97624368709 -2.05929894247 -0.144838923118 -2.50283214324 -0.820851800091 1.16143042617 0.834692585794 1.02793569841 1.75229177888 -0.835147234015 2.62460583155
3.02025546748 -2.05758313534 -0.144641912107 -2.50242909539 -0.821657895792 1.16111399829 0.835399192325 1.02667984423 1.75302743829 -0.834716933676 2.62451572389
3.06427698637 -2.05586694835 -0.144444796356 -2.50202643584 -0.8224632149 1.16079824594 0.836104267524 1.02542445712 1.75376156234 -0.83428778431 2.62442595126
3.10830585318 -2.05415047504 -0.144247820709 -2.50162420389 -0.823267678789 1.16048313597 0.836807926076 1.02416979108 1.75449445017 -0.833859513422 2.62433669494
3.15234678539 -2.0524335312 -0.144050503301 -2.50122231677 -0.824071453027 1.16016873977 0.837509930707 1.02291532867 1.75522546381 -0.833432703486 2.62424754578
3.19639748984 -2.05071620659 -0.14385308521 -2.50082082715 -0.82487443228 1.15985500777 0.838210425933 1.02166138088 1.7559549974 -0.833006982923 2.62415877921
3.24045790283 -2.04899850336 -0.143655569719 -2.50041972913 -0.825676628318 1.15954194701 0.838909398617 1.02040792469 1.75668300507 -0.832582398007 2.62407034732
3.28452563375 -2.04728051482 -0.143458198163 -2.50001906136 -0.826477963861 1.15922952403 0.839606962373 1.01915520883 1.7574097809 -0.832158680954 2.62398242721
3.32860539635 -2.04556205728 -0.143260495564 -2.49961874231 -0.827278601944 1.15891781076 0.840302881958 1.01790272613 1.75813469701 -0.831736405022 2.62389461822
3.37269488998 -2.04384322028 -0.143062699649 -2.49921882393 -0.828078438708 1.15860675741 0.840997300993 1.01665078169 1.75885814196 -0.831315203678 2.62380719071
3.4167940659 -2.04212400599 -0.142864813621 -2.49881930027 -0.828877486029 1.15829637103 0.841690206133 1.01539935241 1.75958006973 -0.830895123515 2.62372009679
3.46090052979 -2.0404045074 -0.142667075307 -2.49842020945 -0.829675667676 1.15798661774 0.842381710258 1.01414868246 1.76030077044 -0.830475900386 2.6236335104
3.50501898415 -2.03868454141 -0.142469016569 -2.49802147118 -0.830473144223 1.15767756993 0.843071580084 1.01289827461 1.761019626 -0.830058098557 2.62354703908
3.54914713955 -2.03696419736 -0.142270871823 -2.49762313656 -0.831269813451 1.15736917775 0.843759958131 1.01164842784 1.76173701882 -0.8296413572 2.62346094757
3.59328493603 -2.03524347736 -0.142072644158 -2.49722519979 -0.832065686985 1.15706144805 0.844446831268 1.01039911971 1.762452904 -0.829225721878 2.62337518923
3.63742999425 -2.03352247415 -0.141874567949 -2.4968276983 -0.832860689964 1.15675434677 0.845132311255 1.00915058921 1.76316756657 -0.828810933279 2.62328993379
3.68158700172 -2.0318010052 -0.141676181835 -2.49643055312 -0.833654980331 1.15644794657 0.845816166981 1.00790234927 1.76388039879 -0.828397546047 2.62320479745
3.72575366901 -2.03007915962 -0.141477716951 -2.49603381446 -0.834448457658 1.15614219767 0.846498539675 1.00665469251 1.76459177643 -0.827985205615 2.6231200389
3.76992994741 -2.02835693952 -0.141279176273 -2.49563747665 -0.835241133268 1.1558371067 0.84717941648 1.00540759726 1.76530165586 -0.827573956345 2.62303561291
3.81411345757 -2.0266344373 -0.14108079074 -2.4952415765 -0.836032933578 1.1555326394 0.847858908136 1.0041612976 1.76601031736 -0.827163543418 2.62295168534
3.85830887201 -2.02491147107 -0.140882105726 -2.49484603629 -0.836824013997 1.15522886868 0.848536785611 1.00291531626 1.76671716321 -0.826754512189 2.62286788066
3.90251390506 -2.02318812973 -0.140683349102 -2.49445090535 -0.837614275868 1.15492574486 0.849213188841 1.00166993963 1.76742256255 -0.826346514318 2.62278445162
3.94672851176 -2.02146441531 -0.140484523732 -2.4940561782 -0.83840373017 1.15462327433 0.849888105302 1.00042514689 1.76812647322 -0.825939592791 2.62270135451
3.99095032397 -2.01974041993 -0.140285857146 -2.493661891 -0.839192304581 1.15432142267 0.850561644731 0.999181167309 1.76882917082 -0.825533497217 2.62261875147
4.03518399177 -2.01801596234 -0.140086901412 -2.49326796721 -0.839980152157 1.15402026304 0.851233579961 0.99793753291 1.76953006692 -0.825128764353 2.62253627445
4.07942724445 -2.01629113115 -0.139887881121 -2.49287445554 -0.84076717549 1.15371974562 0.851904050261 0.996694525031 1.770229526 -0.824725050123 2.6224541722
4.1236800258 -2.01456592841 -0.139688799069 -2.49248135039 -0.841553385783 1.15341987688 0.852573042752 0.995452122485 1.77092750528 -0.824322398266 2.62237240052
4.1679399827 -2.01284044589 -0.139489879394 -2.49208868737 -0.842338711825 1.15312062221 0.853240666334 0.994210550137 1.77162427621 -0.82392056228 2.62229111837
4.21221175022 -2.01111450303 -0.139290680794 -2.4916963912 -0.843123304167 1.15282205483 0.853906695915 0.992969349463 1.77231926024 -0.823520069715 2.62220996569
4.25649305765 -2.00938818816 -0.139091424636 -2.49130450971 -0.84390706715 1.15252412513 0.85457126947 0.991728795784 1.77301281532 -0.823120582671 2.62212918546
4.3007838563 -2.00766150329 -0.138892113603 -2.49091303753 -0.844690011511 1.15222683925 0.855234374607 0.990488868999 1.77370490057 -0.822722143043 2.62204873543
4.34508180051 -2.00593453987 -0.138692968491 -2.49052200955 -0.845472067476 1.15193016264 0.855896118984 0.989249788938 1.77439578214 -0.822324509442 2.62196877028
4.38939150662 -2.00420711801 -0.138493554568 -2.49013135178 -0.846253383017 1.15163416845 0.856556279692 0.988011106556 1.77508489156 -0.821928199925 2.62188893809
4.43371071144 -2.00247932579 -0.138294089999 -2.48974111119 -0.847033864189 1.15133880728 0.857214993433 0.986773091308 1.77577258043 -0.821532882658 2.62180947626
4.4780393625 -2.00075116519 -0.138094577381 -2.48935128247 -0.84781352163 1.15104408519 0.857872247861 0.985535723408 1.77645880844 -0.821138599055 2.62173034323
4.52237512916 -1.99902272729 -0.137895234165 -2.4889619 -0.848592286563 1.15074996744 0.858528149919 0.984299218632 1.777143838 -0.820745111203 2.62165169092
4.56672260525 -1.99729383293 -0.137695632156 -2.48857289095 -0.849370304673 1.15045652721 0.859182478538 0.983063136669 1.77782710967 -0.820352928753 2.62157317447
4.61107953509 -1.99556456988 -0.137495986322 -2.48818430154 -0.850147483501 1.15016371524 0.859835369419 0.981827741672 1.77850896953 -0.819961725079 2.62149502658
4.6554458737 -1.99383494011 -0.137296299173 -2.48779612653 -0.850923833517 1.14987153744 0.860486810342 0.980593014294 1.77918937808 -0.819571540878 2.62141720654
4.69981929418 -1.99210503433 -0.137096784863 -2.48740839968 -0.851699287212 1.14957995913 0.861136907195 0.979359165762 1.77986859302 -0.819182142718 2.62133986266
4.7442043679 -1.99037467413 -0.136897021666 -2.48702104936 -0.852473987847 1.14928905332 0.861785440937 0.97812576466 1.78054606443 -0.818794031317 2.62126265753
4.78859885414 -1.98864394695 -0.136697221381 -2.48663412106 -0.853247844451 1.14899877093 0.862432546245 0.976893069898 1.78122213286 -0.818406885296 2.62118581916
4.83300270793 -1.98691285477 -0.136497386442 -2.48624760954 -0.854020867488 1.14870911783 0.863078210828 0.97566106224 1.78189675902 -0.818020745221 2.62110930719
4.87741360238 -1.98518148789 -0.136297727719 -2.48586154805 -0.854792990482 1.14842005928 0.863722539802 0.974429948902 1.78257019679 -0.817635381277 2.62103326708
4.92183610136 -1.9834496687 -0.136097829912 -2.48547586604 -0.855564354493 1.14813166821 0.86436531589 0.973199306781 1.7832419049 -0.817251286077 2.62095736807
4.96626796789 -1.98171748427 -0.135897901658 -2.48509060843 -0.856334869709 1.14784389556 0.865006673151 0.971969390293 1.78391221958 -0.816868142259 2.62088183467
5.01070915327 -1.9799849366 -0.135697945324 -2.4847057699 -0.857104546766 1.14755674726 0.865646598996 0.970740179941 1.78458110112 -0.816485990929 2.6208066262
5.05515734932 -1.97825211558 -0.135498168535 -2.48432138312 -0.857873320332 1.14727018862 0.866285197611 0.969511878761 1.78524879917 -0.816104606318 2.62073188498
5.09917690103 -1.97651884438 -0.135298162342 -2.48393737882 -0.858641328936 1.1469842922 0.866922253933 0.96828407252 1.78591478229 -0.815724471668 2.62065728794
5.1432056779 -1.97478520979 -0.135098132284 -2.48355380092 -0.859408484739 1.14669900948 0.867557900343 0.967057009545 1.78657937949 -0.81534527672 2.62058305333
5.18724363498 -1.97305121372 -0.134898080623 -2.48317064443 -0.860174797712 1.14641434597 0.868192125023 0.965830671784 1.7872425536 -0.814967059967 2.62050914303
5.23128850157 -1.97131694568 -0.134698211778 -2.48278794136 -0.860940203855 1.14613026719 0.868825030983 0.964605257764 1.78790454939 -0.814589600398 2.62043569557
5.27534474038 -1.96958222966 -0.134498123099 -2.48240562362 -0.86170483933 1.14584684534 0.869456405184 0.963380361671 1.78856484467 -0.814213372492 2.62036239498
5.31941016688 -1.9678471521 -0.134298017032 -2.48202373438 -0.862468617805 1.14556403222 0.870086378904 0.962156226762 1.78922376285 -0.813838071356 2.62028945487
5.36348472487 -1.9661117149 -0.134097895771 -2.48164226861 -0.863231549344 1.14528183335 0.870714940126 0.960932834878 1.78988126665 -0.813463735722 2.62021683708
5.4075661549 -1.96437600715 -0.133897960536 -2.48126125789 -0.863993570795 1.14500021421 0.871342191299 0.959710381085 1.79053759766 -0.813090147507 2.62014467806
5.45165890469 -1.96263985366 -0.133697814929 -2.4808806352 -0.864754816167 1.14471924671 0.871967921147 0.958488467428 1.79119224214 -0.812717773241 2.62007266809
5.49576078596 -1.96090334051 -0.133497658322 -2.48050044302 -0.865515200529 1.14443888292 0.87259225997 0.957267332385 1.79184551832 -0.812346312998 2.62000101658
5.53987175752 -1.95916646959 -0.133297492832 -2.48012067641 -0.866274733762 1.14415912824 0.873215195913 0.956046958245 1.79249738977 -0.811975804707 2.61992968626
5.58398955989 -1.95742932955 -0.133097516527 -2.4797413663 -0.867033353967 1.14387994837 0.873836830319 0.954827535836 1.79314809348 -0.811606034764 2.61985881012
5.62811862957 -1.95569174609 -0.132897339197 -2.47936244685 -0.867791192881 1.14360141479 0.874456953856 0.953608675203 1.79379712455 -0.811237461269 2.61978808508
5.67225677827 -1.95395380487 -0.132697157159 -2.47898395989 -0.868548166788 1.14332347977 0.87507569608 0.95239061048 1.79444479672 -0.810869788583 2.61971771699
5.71640396854 -1.95221550781 -0.132496972472 -2.47860590036 -0.869304285851 1.14304614887 0.875693044672 0.951173323457 1.79509107273 -0.810503055593 2.61964766789
5.76055795591 -1.9504769431 -0.132296980069 -2.4782282988 -0.870059488968 1.14276938776 0.876309100468 0.949957001703 1.7957361866 -0.810137051446 2.61957806887
5.80472314688 -1.94873793729 -0.132096795865 -2.47785109047 -0.87081390563 1.14249326745 0.876923656072 0.948741263103 1.79637964216 -0.809772225903 2.61950862335
5.84889736816 -1.94699857572 -0.131896613169 -2.47747431636 -0.871567453853 1.14221774076 0.87753683958 0.947526336464 1.79702174685 -0.809408289582 2.61943953193
5.89308058231 -1.94525886022 -0.131696433955 -2.47709797164 -0.872320143286 1.14194281291 0.878148639279 0.946312204678 1.79766246538 -0.809045279319 2.61937075862
5.93727055607 -1.94351887858 -0.13149645007 -2.4767220862 -0.873071914179 1.14166844995 0.878759154745 0.945099050991 1.79830202684 -0.808682989107 2.61930243077
5.98147166974 -1.94177845823 -0.131296283495 -2.47634659642 -0.87382289373 1.14139472228 0.879368180601 0.94388650111 1.79893994397 -0.808321860192 2.6192342584
6.02568176877 -1.94003768411 -0.131096124546 -2.47597154258 -0.874573001411 1.14112158317 0.879975843832 0.942674779137 1.79957651883 -0.807961608419 2.61916643781
6.06990080444 -1.93829655806 -0.130895975127 -2.47559691994 -0.875322246684 1.14084903768 0.880582132902 0.941463868406 1.800211717 -0.807602269794 2.61909893387
6.11412656227 -1.93655516736 -0.130696024021 -2.47522275783 -0.876070570911 1.14057705213 0.881187146427 0.940253948364 1.80084576348 -0.80724364227 2.61903187106
6.15836340005 -1.93481334041 -0.130495899217 -2.47484899372 -0.876818099127 1.14030569635 0.881790680905 0.939044652187 1.80147817941 -0.806886159047 2.61896496547
6.20260917072 -1.9330711617 -0.130295788062 -2.47447566728 -0.877564752018 1.14003492392 0.882392862521 0.937836199806 1.80210926239 -0.806529540302 2.61889840996
6.24686382934 -1.93132863308 -0.130095692398 -2.47410277366 -0.878310539243 1.13976474 0.882993679389 0.936628574232 1.80273897746 -0.806173822659 2.61883216899
6.29112516889 -1.92958584137 -0.129895797973 -2.47373034176 -0.879055403052 1.13949511104 0.88359322946 0.935421951605 1.80336754634 -0.805818807193 2.61876636487
6.33539752469 -1.92784261587 -0.129695738721 -2.47335831014 -0.879799466284 1.13922610624 0.884191311176 0.934215972536 1.80399449868 -0.805464918924 2.6187007199
6.37967876093 -1.92609904071 -0.129495699057 -2.47298671762 -0.880542651336 1.13895767982 0.884788049222 0.933010851862 1.80462012585 -0.805111884244 2.61863542183
6.42396883265 -1.92435511764 -0.129295680746 -2.47261555971 -0.881284967144 1.13868983647 0.885383432628 0.931806574083 1.80524439562 -0.804759736929 2.61857043778
6.46826554409 -1.92261093306 -0.129095866541 -2.47224486455 -0.882026357465 1.13842254322 0.885977557814 0.930603310858 1.80586752424 -0.804408283512 2.61850588586
6.51257321183 -1.92086631722 -0.128895896263 -2.47187457182 -0.882766942927 1.13815586853 0.886570225215 0.929400710166 1.80648904992 -0.804057940767 2.61844149455
6.5568897038 -1.91912135379 -0.128695951407 -2.47150471978 -0.883506647006 1.13788976691 0.887161558867 0.928198983054 1.80710926001 -0.803708438931 2.61837744866
6.60121498254 -1.91737604456 -0.128496033688 -2.47113530374 -0.884245479091 1.13762424333 0.887751547089 0.926998113183 1.80772812087 -0.803359813369 2.61831371402
6.64554685979 -1.9156304754 -0.128296322881 -2.47076635152 -0.884983383527 1.13735926483 0.88834028603 0.92579826959 1.80834584653 -0.803011872612 2.61825040763
6.68988962213 -1.91388447753 -0.128096464628 -2.47039780386 -0.885720478852 1.13709489916 0.888927577982 0.924599107294 1.8089619833 -0.802665025628 2.6181872637
6.73424116375 -1.91213813422 -0.12789663755 -2.47002969814 -0.886456690295 1.1368311016 0.889513545362 0.92340083227 1.80957681217 -0.802319009069 2.61812446189
6.77860142843 -1.91039144719 -0.127696843289 -2.46966203 -0.887192026576 1.13656787665 0.890098177358 0.922203429558 1.81019030202 -0.801973855635 2.61806197047
6.8229682579 -1.90864450185 -0.127497258689 -2.46929482659 -0.887926433398 1.13630519189 0.890681568752 0.921007064094 1.81080266196 -0.801629378771 2.61799990277
6.86734590877 -1.9068971304 -0.127297535152 -2.46892802968 -0.88866002721 1.13604311433 0.891263523713 0.919811397841 1.81141344636 -0.801285979649 2.6179379987
6.91173227521 -1.90514941564 -0.12709784844 -2.46856167616 -0.889392734259 1.13578159955 0.891844164066 0.918616633209 1.81202293248 -0.800943398552 2.61787643522
6.95612731976 -1.90340135932 -0.126898200142 -2.46819576149 -0.890124563595 1.13552065223 0.892423478448 0.91742275464 1.81263108817 -0.800601669305 2.61781517974
7.00052888037 -1.90165304633 -0.126698764191 -2.46783031242 -0.890855461729 1.13526024018 0.893001561041 0.916229924098 1.81323811958 -0.800260608189 2.61775434374
7.04494119869 -1.89990430985 -0.126499197689 -2.46746527177 -0.891585543027 1.13500042961 0.893578217915 0.915037810392 1.8138435891 -0.799920608584 2.61769367279
7.08936218012 -1.89815523226 -0.126299673573 -2.4671006757 -0.892314735177 1.13474117668 0.894153569675 0.913846611586 1.81444776875 -0.799581416025 2.61763333977
7.13379177971 -1.89640581526 -0.12610019337 -2.46673651979 -0.893043046995 1.13448248592 0.894727605211 0.912656312625 1.81505062737 -0.799243063329 2.61757331306
7.17822785789 -1.89465614324 -0.125900928141 -2.46637283028 -0.893770426019 1.13422432552 0.895300417783 0.911467072115 1.81565236735 -0.798905370439 2.61751370164
7.22267462259 -1.89290605039 -0.125701540624 -2.46600955102 -0.894496984542 1.13396676084 0.89587181537 0.910278565602 1.81625255908 -0.798568722988 2.6174542566
7.26712999419 -1.89115561864 -0.125502200958 -2.46564671746 -0.895222651646 1.13370974864 0.89644191741 0.909090986952 1.8168514695 -0.798232871579 2.61739514698
7.31159392774 -1.88940484969 -0.125302910615 -2.46528432526 -0.895947436049 1.13345329338 0.897010712849 0.907904321341 1.81744906795 -0.797897848541 2.61733634164
7.35606429867 -1.88765382738 -0.125103837811 -2.4649224002 -0.89667128618 1.13319736356 0.897578294203 0.906718724319 1.81804555355 -0.797563476977 2.6172779475
7.40054528866 -1.88590238694 -0.124904650858 -2.46456088713 -0.89739431231 1.13294202368 0.898144471327 0.905533877995 1.81864050449 -0.797230134939 2.61721972105
7.44503482561 -1.88415060985 -0.124705517128 -2.46419982075 -0.898116445068 1.13268723121 0.898709362225 0.904349971777 1.81923418208 -0.796897578716 2.6171618269
7.48953287579 -1.88239849773 -0.124506438034 -2.46383919703 -0.898837692518 1.13243299021 0.899272956737 0.903166992157 1.81982655816 -0.796565838024 2.61710423632
7.5340373109 -1.88064613397 -0.124307578986 -2.46347904098 -0.899558004607 1.1321792699 0.89983534569 0.901985090449 1.82041782635 -0.796234741506 2.61704705205
7.57855230138 -1.87889335482 -0.124108613806 -2.46311929854 -0.900277489484 1.13192613381 0.900396340989 0.900803955437 1.82100757296 -0.795904659256 2.61699003627
7.6230757826 -1.87714024126 -0.123909707123 -2.46276000387 -0.900996078831 1.13167353985 0.900956059919 0.899623773079 1.82159605548 -0.795575351379 2.61693335088
7.66760771336 -1.87538679494 -0.123710860299 -2.46240115277 -0.901713781033 1.13142149225 0.901514491766 0.898444529287 1.82218324471 -0.795246848669 2.61687696625
7.71214599532 -1.87363309867 -0.123512235967 -2.46204277001 -0.902430546554 1.13116996039 0.902071727136 0.897266373115 1.82276933237 -0.794918981539 2.61682098432
7.75669475396 -1.87187898976 -0.123313513393 -2.46168480243 -0.90314648171 1.13091900695 0.902627579588 0.896088999384 1.82335391187 -0.794592113199 2.61676517195
7.80125194714 -1.87012454872 -0.123114854498 -2.46132728353 -0.903861519506 1.13066859048 0.903182165269 0.894912590132 1.82393723586 -0.794266008599 2.61670968744
7.8458175374 -1.86836977718 -0.122916260591 -2.46097020919 -0.904575668194 1.1304187151 0.903735473581 0.893737131557 1.82451927579 -0.793940697911 2.61665450179
7.89038943015 -1.86661475743 -0.122717891559 -2.46061360367 -0.905288879239 1.13016935065 0.904287594177 0.892562769562 1.82510021972 -0.793616015127 2.61659971452
7.93497172838 -1.86485932783 -0.122519432054 -2.46025741477 -0.90600125703 1.12992055889 0.904838342436 0.891389205107 1.82567966845 -0.793292316235 2.61654509748
7.97956253984 -1.86310356326 -0.122321041629 -2.45990169672 -0.906712693141 1.12967227279 0.90538789846 0.890216698018 1.82625802107 -0.792969210272 2.61649094462
8.02416142239 -1.86134748075 -0.122122720651 -2.45954638154 -0.907423323483 1.12942457481 0.905936057031 0.889044990626 1.82683479775 -0.792647207398 2.61643681148
8.06876669362 -1.85959114662 -0.121924627126 -2.45919155691 -0.908132972747 1.12917735675 0.90648310164 0.887874469892 1.82741063464 -0.792325664548 2.6163832111
8.11338230662 -1.85783440547 -0.121726450769 -2.45883715034 -0.908841785899 1.12893070556 0.90702878468 0.886704761627 1.82798498974 -0.792005090317 2.61632978197
8.15800636167 -1.85607733179 -0.121528348602 -2.45848321494 -0.909549656692 1.12868455535 0.907573284423 0.885536119869 1.8285582542 -0.791685102111 2.6162768114
8.20263843909 -1.85431994223 -0.121330320586 -2.45812968403 -0.91025671852 1.12843898717 0.90811639745 0.884368292642 1.82912995742 -0.791366199908 2.61622386414
8.24727686022 -1.85256230293 -0.121132522415 -2.45777664364 -0.910962799299 1.12819389456 0.908658404839 0.883201658729 1.82970072389 -0.791047753173 2.61617144276
8.29192554444 -1.85080425944 -0.12093464893 -2.45742402262 -0.911668041339 1.12794936303 0.90919906132 0.882035851617 1.83027002161 -0.790730260313 2.61611919332
8.33658261075 -1.84904588589 -0.120736854642 -2.45707187308 -0.912372340409 1.12770532776 0.909738543525 0.880871119973 1.83083823446 -0.790413346371 2.6160673971
8.38124765072 -1.84728719856 -0.120539139132 -2.45672012955 -0.913075827476 1.12746186845 0.91027664977 0.879707217248 1.8314049007 -0.790097501575 2.61601562767
8.42591898195 -1.84552826336 -0.12034165578 -2.45636887646 -0.913778333654 1.12721888037 0.910813658664 0.878544514208 1.83197063326 -0.789782107758 2.61596437729
8.47060050507 -1.84376892684 -0.120144104509 -2.45601804399 -0.914479998593 1.12697644756 0.911349327348 0.877382651928 1.83253491014 -0.78946765315 2.61591329958
8.51529035033 -1.84200926274 -0.119946637341 -2.45566768323 -0.915180720117 1.12673450633 0.911883830711 0.876221873687 1.83309810783 -0.7891537706 2.61586266966
8.5599881093 -1.84024928696 -0.119749253496 -2.45531772991 -0.915880626761 1.12649313502 0.912416968868 0.875061938318 1.83365977343 -0.78884094053 2.6158120699
8.60469211456 -1.83848906522 -0.119552104058 -2.45496826689 -0.916579552802 1.12625223061 0.912949017943 0.873903208723 1.83422050847 -0.788528557047 2.61576198242
8.64940624053 -1.83672844505 -0.11935489397 -2.45461922564 -0.917277635286 1.1260118757 0.913479737454 0.872745333375 1.83477980075 -0.788217098395 2.61571206818
8.69412862118 -1.83496749978 -0.119157772788 -2.45427065628 -0.917974774018 1.12577200768 0.91400930062 0.871588550356 1.83533801961 -0.78790620497 2.61566259643
8.73885886309 -1.83320624497 -0.118960739398 -2.45392249571 -0.918671095152 1.12553270355 0.914537509323 0.870432623736 1.8358947208 -0.787596347562 2.61561315807
8.78359530632 -1.83144474611 -0.118763942593 -2.45357482524 -0.919366436092 1.12529386203 0.915064637201 0.869277908703 1.83645049461 -0.787286932431 2.61556422532
8.82834179156 -1.82968285172 -0.118567092285 -2.45322757763 -0.920060931308 1.12505556424 0.915590446147 0.868124060988 1.83700483851 -0.786978427944 2.61551546629
8.87309647155 -1.82792063475 -0.118370335587 -2.452880802 -0.920754482569 1.12481774865 0.916115107698 0.866971313569 1.83755811476 -0.786670481985 2.61546714448
8.91785895658 -1.82615811038 -0.118173671066 -2.45253443645 -0.921447213673 1.12458049097 0.916638425518 0.865819435651 1.83810988767 -0.786363555783 2.61541885919
8.96262759048 -1.82439534388 -0.117977245243 -2.45218856073 -0.922138965108 1.12434369162 0.917160670756 0.864668774865 1.83866073643 -0.786057067628 2.61537107288
9.0074061952 -1.82263218479 -0.117780772938 -2.45184310884 -0.922829868896 1.1241074303 0.917681607529 0.863518993889 1.83921016771 -0.785751476459 2.61532346042
9.05219293096 -1.82086870562 -0.117584398847 -2.45149812901 -0.923519828561 1.12387164646 0.918201405981 0.862370321029 1.83975853747 -0.785446436907 2.61527628025
9.09698741556 -1.81910492122 -0.117388121241 -2.45115356051 -0.924208965562 1.12363641451 0.918719871592 0.861222530557 1.84030541846 -0.785142400652 2.61522913993
9.14178800406 -1.81734089662 -0.117192084379 -2.45080948146 -0.924897123643 1.12340163671 0.919237272671 0.860075962297 1.84085137823 -0.784838798695 2.61518249171
9.1865984847 -1.81557648238 -0.116996007933 -2.4504658272 -0.925584432181 1.12316739118 0.919753375927 0.858930286159 1.8413959333 -0.784536079813 2.61513601779
9.23141703268 -1.81381175061 -0.116800034205 -2.45012264495 -0.926270796676 1.12293361849 0.920268349718 0.857785725421 1.84193943255 -0.784233906204 2.61508997087
9.27624327329 -1.81204671578 -0.116604161186 -2.44977987515 -0.926956336267 1.12270039178 0.92078200136 0.856642059342 1.84248145713 -0.783932720057 2.61504396665
9.32107556909 -1.81028144269 -0.116408530893 -2.44943759444 -0.927640897688 1.12246761498 0.921294596683 0.855499620501 1.84302256383 -0.783631964118 2.61499844808
9.36591768584 -1.80851578292 -0.116212867792 -2.44909573939 -0.928324607784 1.12223536469 0.921805904856 0.85435808576 1.84356227867 -0.783332077415 2.61495310431
9.41076779873 -1.80674980816 -0.116017311811 -2.44875435625 -0.929007374075 1.12200358266 0.922316092336 0.853217673337 1.84410094327 -0.78303272988 2.61490818216
9.45562555181 -1.80498353257 -0.115821860681 -2.44841338654 -0.929689313493 1.12177234078 0.922824968144 0.852078167219 1.84463814676 -0.782734354622 2.61486330508
9.50048931135 -1.80321702064 -0.115626654194 -2.44807290555 -0.93037027548 1.12154154455 0.923332796023 0.850939893334 1.84517443622 -0.782436405113 2.61481890766
9.54536280941 -1.80145012503 -0.115431421548 -2.44773285094 -0.931050384702 1.1213112692 0.923839347081 0.849802534777 1.84570934587 -0.782139311906 2.61477468484
9.59024424741 -1.79968291696 -0.115236300333 -2.44739326815 -0.931729550282 1.12108145741 0.924344786512 0.848666305517 1.84624321157 -0.781842751166 2.61473087895
9.63513326938 -1.79791541027 -0.115041288036 -2.44705409986 -0.932407886854 1.12085217981 0.924848925248 0.847530994402 1.84677563072 -0.781547146539 2.61468712138
9.67958373613 -1.79614766921 -0.114846522229 -2.4467154197 -0.933085247163 1.12062334381 0.925352023898 0.846396919674 1.84730713862 -0.781251964458 2.61464383653
9.72404390017 -1.7943795426 -0.114651738212 -2.44637718783 -0.933761710911 1.12039499648 0.925853927458 0.845263849929 1.84783742864 -0.780957468323 2.61460086226
9.76851150955 -1.79261111985 -0.114457065837 -2.44603936761 -0.934437351351 1.12016718329 0.926354526389 0.844131693547 1.84836625748 -0.780663943227 2.61455791556
9.81298699517 -1.79084238379 -0.114262511292 -2.44570203664 -0.935112013288 1.11993980576 0.9268540843 0.843000740152 1.84889417449 -0.780370811672 2.61451549282
9.85746812755 -1.78907342334 -0.114068202707 -2.44536515818 -0.935785770214 1.11971290982 0.927352491845 0.8418708974 1.84942093641 -0.780078358639 2.61447331194
9.90195870242 -1.78730408721 -0.11387388028 -2.44502869874 -0.936458689095 1.11948653434 0.927849613966 0.840741959467 1.84994628171 -0.779786800319 2.61443125004
9.94645693246 -1.7855344467 -0.113679676619 -2.44469269771 -0.937130691148 1.11926062951 0.928345597887 0.839614115691 1.85047050344 -0.779495857878 2.61438951212
9.99096275772 -1.78376450417 -0.113485592245 -2.4443571475 -0.937801791565 1.11903520376 0.928840420203 0.838487339739 1.85099355004 -0.779205585548 2.6143480488
10.0354743047 -1.78199433412 -0.113291756953 -2.44402207137 -0.938471943836 1.11881022764 0.929334174619 0.837361760702 1.85151560134 -0.778915823641 2.61430696313
10.0799953878 -1.78022378481 -0.11309791628 -2.44368744389 -0.939141198794 1.11858572983 0.929826753458 0.836237204165 1.85203645338 -0.778626728741 2.61426618249
10.1245238039 -1.77845294382 -0.112904194986 -2.4433532298 -0.939809626971 1.1183617545 0.930318049063 0.835113582748 1.85255587239 -0.778338573919 2.61422543506
10.169059965 -1.77668179486 -0.11271059972 -2.44301950371 -0.94047707915 1.11813820644 0.930808320198 0.833991173515 1.85307438678 -0.778050806052 2.61418519723
10.2136016792 -1.77491042505 -0.112517253565 -2.44268623024 -0.941143626088 1.11791513026 0.931297459387 0.832869888389 1.85359176279 -0.777763698094 2.61414519811
10.2581526898 -1.77313868552 -0.112323905959 -2.44235337716 -0.941809332258 1.117692563 0.931785334403 0.831749529595 1.85410774861 -0.777477457001 2.61410531989
10.3027113481 -1.77136664192 -0.112130686693 -2.44202100317 -0.942474080234 1.11747043045 0.932272162113 0.830630355296 1.85462277345 -0.777191662298 2.61406589247
10.3472772381 -1.76959431061 -0.111937591106 -2.44168903847 -0.943138009637 1.11724881963 0.932757702354 0.829512110418 1.85513634706 -0.776906825764 2.6140264693
10.3918488761 -1.76782175087 -0.111744749437 -2.44135756781 -0.943800950959 1.11702762341 0.933242264047 0.828395148427 1.85564908286 -0.776622334983 2.61398754785
10.4364298891 -1.76604881818 -0.11155191471 -2.44102654593 -0.94446299472 1.11680689523 0.933725669535 0.827279225133 1.85616063786 -0.77633849289 2.61394892584
10.4810181226 -1.76427559832 -0.11135920678 -2.44069593897 -0.945124208631 1.11658667792 0.934207813332 0.826164257563 1.85667078815 -0.776055559994 2.61391034279
10.5256139663 -1.76250207586 -0.111166632675 -2.44036581848 -0.945784449619 1.11636687968 0.934688948811 0.825050510044 1.85718004057 -0.775773008524 2.6138722548
10.5702152732 -1.76072833609 -0.110974310627 -2.44003615048 -0.946443785617 1.11614754381 0.935168970664 0.823937898932 1.85768817122 -0.775491098849 2.61383440226
10.6148257265 -1.75895423263 -0.110781999048 -2.43970690399 -0.947102278593 1.11592870539 0.935647749594 0.822826234339 1.858194938 -0.77521002868 2.6137966725
10.6594436927 -1.75717983037 -0.110589823414 -2.43937813537 -0.947759815835 1.11571029307 0.936125498055 0.821715763314 1.85870075332 -0.774929396287 2.61375938166
10.7040687819 -1.75540514488 -0.110397778644 -2.43904977752 -0.948416531536 1.11549239087 0.936601980611 0.820606241932 1.85920514631 -0.774649690682 2.61372210139
10.7486995104 -1.75363023499 -0.11020599085 -2.43872191185 -0.949072262876 1.11527489562 0.937077500081 0.819498008498 1.85970870661 -0.774370326479 2.61368530881
10.7933394603 -1.75185495851 -0.110014221818 -2.43839449484 -0.949727096887 1.11505785823 0.937551882568 0.818390828688 1.86021110439 -0.774091593252 2.61364881009
10.8379865146 -1.75007939941 -0.10982258668 -2.43806749392 -0.950381098729 1.11484132042 0.93802502445 0.817284623382 1.8607121246 -0.773813739968 2.61361235501
10.8826410441 -1.74830354308 -0.109631092775 -2.43774097783 -0.951034130915 1.11462519345 0.938497174347 0.816179645422 1.86121225457 -0.773536262071 2.61357638143
10.9273009507 -1.74652747302 -0.109439853654 -2.43741491388 -0.95168625882 1.11440951947 0.938968228811 0.815075815043 1.86171127928 -0.773259408377 2.61354063997
10.9719698464 -1.74475104531 -0.109248636451 -2.43708927226 -0.952337542058 1.11419433167 0.939438061319 0.8139729498 1.86220896573 -0.772983367916 2.61350502265
11.0166461237 -1.74297432408 -0.109057562418 -2.43676410711 -0.952987872349 1.11397956144 0.939906880177 0.812871286343 1.86270571062 -0.772707756683 2.61346983285
11.0613294116 -1.74119732413 -0.108866626131 -2.43643935404 -0.953637378483 1.11376528976 0.940374454916 0.811770591671 1.86320106225 -0.772433041 2.61343466011
11.1060182377 -1.73942010384 -0.108675949618 -2.43611509102 -0.954285904534 1.11355141763 0.940841081539 0.810671188812 1.86369558587 -0.772158663285 2.61339996077
11.1507161241 -1.7376425233 -0.108485303195 -2.43579127631 -0.954933533952 1.11333799331 0.941306590235 0.809572853277 1.86418896506 -0.771884899425 2.61336554969
11.1954209986 -1.73586466475 -0.10829479745 -2.43546787865 -0.955580329277 1.11312505736 0.941770879515 0.808475509894 1.86468099384 -0.771611986574 2.61333118697
11.2401332136 -1.73408651434 -0.108104439956 -2.43514496392 -0.956226158724 1.11291252421 0.942234192745 0.807379399979 1.8651721397 -0.771339443845 2.6132972921
11.2848507119 -1.73230815379 -0.107914339764 -2.43482250077 -0.956871085038 1.11270043487 0.942696428599 0.806284447736 1.86566219668 -0.771067508232 2.61326362596
11.3295770532 -1.73052944168 -0.107724272479 -2.43450046057 -0.957515165431 1.11248882049 0.943157463524 0.8051904781 1.86615094105 -0.770796359918 2.61323008543
11.3743106374 -1.72875044132 -0.107534355211 -2.4341788952 -0.958158296171 1.11227761534 0.943617501239 0.804097717279 1.86663875339 -0.770525633071 2.61319696089
11.4190511199 -1.72697116682 -0.107344582246 -2.4338577428 -0.958800600973 1.11206689757 0.944076315925 0.803005942455 1.86712519999 -0.770255772482 2.61316385849
11.4637970394 -1.72519167599 -0.107155071619 -2.43353707828 -0.959441930009 1.11185657187 0.944534197863 0.801915463049 1.86761082453 -0.769986245524 2.61313121651
11.508551858 -1.7234118313 -0.106965601928 -2.43321686151 -0.960082363554 1.11164668406 0.944990980759 0.800826063491 1.86809532255 -0.769717315874 2.61309885721
11.5533135487 -1.72163171322 -0.106776279377 -2.43289706244 -0.960721961697 1.11143727368 0.945446565089 0.799737672218 1.86857849653 -0.769449209467 2.6130665503
11.5980824486 -1.71985130863 -0.106587111725 -2.43257774429 -0.961360597992 1.11122825809 0.945901189323 0.798650519831 1.8690607954 -0.76918146782 2.61303469821
11.6428565382 -1.71807069753 -0.106398203684 -2.43225887692 -0.961998332727 1.1110196773 0.946354754094 0.797564534166 1.86954202163 -0.768914316701 2.61300307143
11.6876393133 -1.71628974095 -0.10620933908 -2.43194043286 -0.962635220855 1.11081156046 0.946807138658 0.796479547126 1.87002196024 -0.768647927979 2.61297157124
11.7324292078 -1.71450850141 -0.106020630977 -2.43162246183 -0.963271162918 1.11060384461 0.947258542412 0.795395775136 1.87050097668 -0.768381953029 2.61294047597
11.7772258769 -1.71272699229 -0.105832073436 -2.43130490451 -0.963906277544 1.11039660499 0.947708744492 0.794313005444 1.87097865521 -0.768116815046 2.61290940825
11.8220278855 -1.7109452709 -0.105643780545 -2.43098783265 -0.964540421278 1.11018975026 0.948158028614 0.793231533579 1.87145551703 -0.767852007376 2.61287878759
11.8668386322 -1.70916320202 -0.10545553896 -2.43067120774 -0.96517367109 1.10998332363 0.948606232396 0.792151152953 1.87193127007 -0.767587781029 2.61284844404
11.9116561348 -1.70738086438 -0.105267450671 -2.43035500098 -0.965806084609 1.10977736362 0.94905325844 0.791071795603 1.87240572524 -0.76732435068 2.61281815678
11.956480708 -1.7055982456 -0.105079523556 -2.43003927292 -0.966437540725 1.10957179059 0.949499340025 0.789993681565 1.87287931297 -0.767061280257 2.61278831141
12.0013103846 -1.70381542392 -0.104891858156 -2.42972399466 -0.967068097258 1.1093666435 0.949944379904 0.788916742295 1.8733518442 -0.766798784261 2.61275868788
12.0461485932 -1.70203226288 -0.104704246269 -2.42940913977 -0.967697807037 1.10916194958 0.950388259999 0.787840816291 1.87382311215 -0.76653702674 2.61272919148
12.0909937863 -1.70024882414 -0.104516797011 -2.42909475597 -0.968326574628 1.10895764847 0.950831175625 0.786766110791 1.87429346807 -0.766275675388 2.61270008937
12.1358456415 -1.69846512043 -0.104329504262 -2.42878078633 -0.968954513918 1.10875381276 0.951272910493 0.785692422357 1.87476251294 -0.766015133048 2.6126710194
12.1807027314 -1.69668120846 -0.104142478249 -2.42846729961 -0.969581487358 1.1085503548 0.951713742296 0.784620033667 1.87523074713 -0.76575491737 2.61264238388
12.2255684019 -1.69489695538 -0.103955513445 -2.42815425886 -0.970207568855 1.1083473153 0.95215351227 0.783548746518 1.87569789008 -0.765495267573 2.61261401992
12.2704407084 -1.6931124382 -0.103768707783 -2.42784163646 -0.970832813663 1.10814473181 0.95259212512 0.782478496368 1.87616376083 -0.765236387393 2.61258571579
12.3153199544 -1.69132764521 -0.10358206921 -2.42752949038 -0.971457105814 1.1079425276 0.953029809007 0.781409493172 1.876628772 -0.764977862464 2.61255784097
12.3602042102 -1.68954265295 -0.103395694257 -2.42721779291 -0.97208050075 1.10774074065 0.953466468778 0.780341671831 1.87709274267 -0.764719896344 2.61253018447
12.4050968443 -1.68775732744 -0.103209382454 -2.4269065187 -0.972703049164 1.10753939623 0.953901989138 0.77927487731 1.87755547427 -0.764462645252 2.61250265568
12.4499963317 -1.68597172949 -0.103023239054 -2.42659571345 -0.973324659678 1.10733843662 0.954336561045 0.778209307757 1.87801730376 -0.764205793292 2.61247551054
12.4949023651 -1.68418587119 -0.102837257805 -2.42628532253 -0.973945441504 1.10713793179 0.954769972913 0.777144768803 1.87847784854 -0.763949723222 2.61244840174
12.539813532 -1.68239980862 -0.102651545153 -2.42597541188 -0.974565262814 1.10693779769 0.955202496453 0.776081530799 1.87893758891 -0.763693976312 2.61242171515
12.5847331184 -1.68061341131 -0.102465903153 -2.42566594601 -0.975184194549 1.10673807256 0.955633976477 0.775019403592 1.87939625537 -0.763438780371 2.61239529458
12.6296592284 -1.67882675458 -0.102280425829 -2.42535689839 -0.97580228979 1.10653879315 0.956064319541 0.773958325688 1.87985367437 -0.763184328908 2.61236893661
12.6745921392 -1.67703982735 -0.10209512117 -2.42504832464 -0.976419437294 1.10633988534 0.956493749215 0.772898497831 1.88031024226 -0.762930227779 2.61234299613
12.7195299699 -1.67525270447 -0.101910081835 -2.42474019813 -0.97703569032 1.10614138629 0.95692217219 0.771839857988 1.88076578549 -0.762676670309 2.61231727043
12.7644760291 -1.67346525443 -0.101725114855 -2.42443249456 -0.977651097453 1.10594331928 0.957349476008 0.770782257428 1.88122011362 -0.762423805002 2.61229167293
12.8094288029 -1.6716775372 -0.101540321707 -2.42412525762 -0.978265571334 1.10574562926 0.957775847117 0.769725885402 1.88167354945 -0.762171332226 2.61226644855
12.8543880103 -1.66988956425 -0.101355696062 -2.42381843504 -0.978879216484 1.10554838354 0.95820107893 0.76867055653 1.88212572684 -0.761919614631 2.61224126471
12.89935225 -1.66810139101 -0.101171340645 -2.42351208987 -0.979491906842 1.10535150173 0.958625436757 0.767616528923 1.88257710584 -0.761668217238 2.61221649079
12.9443247519 -1.66631288938 -0.100987064877 -2.4232061881 -0.980103710368 1.10515501957 0.959048769178 0.766563620366 1.88302742809 -0.761417356415 2.61219197739
12.9893036574 -1.66452413299 -0.100802959022 -2.4229007043 -0.980714677968 1.10495897299 0.959470984729 0.765511772401 1.8834765274 -0.761167215463 2.6121675293
13.0342892327 -1.6627351114 -0.100619031061 -2.42259569173 -0.981324703103 1.10476329051 0.95989230215 0.7644611767 1.88392478395 -0.76091742037 2.61214348695
13.0792796341 -1.66094589778 -0.100435369937 -2.42229112486 -0.981933836854 1.10456800848 0.960312630105 0.763411774287 1.88437203154 -0.760668154249 2.6121196558
13.1242782152 -1.65915635893 -0.100251792794 -2.42198700065 -0.982542085278 1.10437312151 0.960731941629 0.762363494685 1.88481823089 -0.760419417687 2.61209608244
13.1692830989 -1.6573665695 -0.100068386808 -2.42168328523 -0.983149516115 1.10417867689 0.961150109687 0.76131624897 1.88526315602 -0.760171451246 2.61207251847
13.2142946297 -1.65557651565 -0.0998851624495 -2.42138004863 -0.983755989316 1.10398458087 0.961567423723 0.760270288327 1.88570730595 -0.759923766224 2.61204941162
13.2593109455 -1.65378627158 -0.0997022056149 -2.42107725688 -0.984361572805 1.1037908812 0.961983756843 0.759225523287 1.88615045472 -0.759676602997 2.61202651418
13.3043352462 -1.65199570981 -0.0995193339166 -2.42077488564 -0.984966315286 1.10359760026 0.962398994315 0.758181808503 1.8865924124 -0.759430109942 2.61200373528
13.3493660818 -1.65020488833 -0.0993366437938 -2.42047297884 -0.985570128884 1.10340468277 0.9628133288 0.75713933177 1.88703350377 -0.759183989049 2.61198132418
13.3944031598 -1.64841381838 -0.0991541284248 -2.42017148445 -0.986173117673 1.10321219634 0.963226548192 0.756097909267 1.88747336393 -0.758938595768 2.6119589492
13.439445139 -1.64662255377 -0.098971885558 -2.4198704645 -0.986775157572 1.10302006176 0.963638921302 0.755057792929 1.8879124463 -0.758693507501 2.61193697641
13.484495133 -1.64483097023 -0.0987897350157 -2.41956988558 -0.987376315417 1.10282831317 0.964050295771 0.754018806228 1.88835049729 -0.758448935135 2.61191525597
13.5295513584 -1.64303913893 -0.0986077617025 -2.41926972388 -0.987976638815 1.10263698524 0.964460583433 0.752980895301 1.88878736186 -0.758205046593 2.61189360484
13.5746140548 -1.64124705032 -0.0984259734958 -2.41897002913 -0.988576028322 1.10244601053 0.964869995173 0.75194423834 1.8892233958 -0.757961498104 2.6118723419
13.6196814425 -1.63945477509 -0.0982444540409 -2.41867077743 -0.989174531712 1.10225542412 0.965278442942 0.750908780992 1.88965844407 -0.757718457401 2.61185128478
13.6647567739 -1.63766218407 -0.0980630309222 -2.41837196588 -0.989772154808 1.10206521922 0.965685900883 0.74987445635 1.89009246933 -0.757475925948 2.6118304773
13.709838228 -1.63586934932 -0.0978817860533 -2.41807356272 -0.990368961135 1.10187544138 0.966092246139 0.748841181842 1.89052525986 -0.7572341248 2.61180968594
13.7549261344 -1.63407625816 -0.0977007297902 -2.41777563351 -0.990964819556 1.1016860019 0.966497758554 0.747809191739 1.89095728409 -0.756992603728 2.61178933146
13.8000186871 -1.63228298218 -0.0975199428256 -2.4174781464 -0.991559793776 1.10149694676 0.966902315399 0.746778402953 1.89138833034 -0.756751583596 2.61176918097
13.8451191011 -1.63048939354 -0.097339256105 -2.41718109852 -0.992153889542 1.1013082687 0.967305891174 0.745748749724 1.89181836189 -0.756511066182 2.61174927745
13.8902255777 -1.62869556388 -0.0971587495376 -2.41688445668 -0.992747173214 1.10112001551 0.967708355503 0.744720144057 1.89224715672 -0.756271280546 2.61172937866
13.9353384431 -1.62690148002 -0.0969784340571 -2.41658828922 -0.993339508138 1.10093209452 0.968110002859 0.743692829724 1.8926752032 -0.756031760244 2.61170992364
13.9804559135 -1.62510721313 -0.0967983883779 -2.41629256286 -0.993930960853 1.10074455396 0.968510702997 0.742666718216 1.89310227934 -0.755792734144 2.61169067081
14.0255811665 -1.62331263671 -0.0966184467471 -2.41599727477 -0.994521537035 1.1005573861 0.968910430766 0.741641744899 1.89352834904 -0.755554204344 2.61167166226
14.0707124222 -1.62151782163 -0.0964386873534 -2.41570239201 -0.995111302549 1.10037063875 0.969309055276 0.740617822272 1.89395319179 -0.755316396471 2.6116526577
14.1158500029 -1.61972275491 -0.0962591212035 -2.41540798235 -0.995700121877 1.10018421971 0.96970687163 0.739595191795 1.89437729229 -0.755078850737 2.61163409318
14.1609921399 -1.61792750694 -0.0960798253112 -2.41511401275 -0.996288061063 1.09999817722 0.970103749064 0.738573765462 1.89480043006 -0.754841792576 2.61161572903
14.2061419846 -1.61613195255 -0.0959006371702 -2.41482048043 -0.996875125711 1.09981250311 0.970499662776 0.737553479741 1.8952225696 -0.754605224409 2.61159760649
14.2512977721 -1.61433616179 -0.0957216333329 -2.41452735301 -0.997461380545 1.09962724475 0.970894482771 0.736534248781 1.89564349421 -0.754369366199 2.61157948927
14.2964598208 -1.612540122 -0.0955428247684 -2.41423469705 -0.998046692478 1.09944231128 0.971288501963 0.735516309446 1.89606368034 -0.754133769271 2.61156180629
14.3416263847 -1.61074390274 -0.0953642868736 -2.41394248008 -0.998631126409 1.09925775055 0.971681590481 0.734499575385 1.89648291131 -0.753898653394 2.61154432188
14.3868005738 -1.60894738017 -0.0951858603322 -2.41365069935 -0.999214687873 1.0990735539 0.972073723866 0.733483984153 1.89690115221 -0.753664021316 2.61152707642
14.4319806495 -1.60715062349 -0.0950076201128 -2.41335932317 -0.999797440229 1.09888976814 0.972464773534 0.732469451929 1.89731819093 -0.753430086602 2.6115098383
14.4771669227 -1.60535362038 -0.0948295771003 -2.41306841665 -1.00037925326 1.09870630406 0.972855029185 0.731456210237 1.89773449411 -0.75319641315 2.61149302795
14.5223576624 -1.60355643961 -0.0946518051259 -2.41277794804 -1.0009601905 1.09852320893 0.973244362357 0.730444174768 1.89814984967 -0.752963214331 2.61147641435
14.5675559524 -1.6017589586 -0.094474148008 -2.41248791458 -1.00154025742 1.09834047363 0.973632748927 0.72943328414 1.89856422327 -0.752730493225 2.61146003706
14.6127600727 -1.59996124573 -0.0942966791646 -2.41219828527 -1.00211951602 1.09815814442 0.974020061735 0.728423456541 1.89897740732 -0.752498457059 2.61144366908
14.6579703231 -1.59816328906 -0.0941194093862 -2.41190912382 -1.00269783894 1.09797613372 0.974406587248 0.727414918227 1.8993898588 -0.752266682179 2.61142772245
14.703184995 -1.59636515648 -0.0939424109716 -2.41162039912 -1.00327528833 1.09779448822 0.974792198423 0.726407586907 1.89980137016 -0.752035375616 2.61141197077
14.7484071422 -1.59456672675 -0.0937655308189 -2.41133210848 -1.00385186962 1.09761319834 0.97517687147 0.725401402243 1.90021190761 -0.751804540788 2.61139645276
14.7936350599 -1.5927680674 -0.0935888408362 -2.4110442216 -1.00442764337 1.09743230974 0.975560480896 0.724396284583 1.90062126843 -0.751574378309 2.61138094631
14.838869044 -1.59096916685 -0.0934123516939 -2.41075680068 -1.00500248522 1.09725173657 0.975943309452 0.723392454636 1.90102989929 -0.751344477514 2.61136585455
14.8841074083 -1.58917009217 -0.0932361341988 -2.41046981534 -1.0055764559 1.0970715249 0.976325231758 0.722389832278 1.90143759747 -0.751115038823 2.61135095591
14.9293531655 -1.58737072339 -0.0930600382744 -2.41018326291 -1.00614956075 1.0968916647 0.976706224352 0.721388358198 1.90184432977 -0.750886065993 2.61133628834
14.9746046407 -1.58557112725 -0.092884134341 -2.40989711376 -1.00672185905 1.09671220109 0.977086163142 0.720387954656 1.90224989779 -0.750657753504 2.61132163412
15.0198621186 -1.58377129248 -0.09270843296 -2.40961142871 -1.00729322915 1.09653304979 0.977465327699 0.719388837332 1.90265473891 -0.75042970272 2.61130738837
15.065123928 -1.58197128534 -0.0925330034682 -2.40932617803 -1.0078637305 1.09635425634 0.97784359404 0.718390928022 1.90305865477 -0.750202107926 2.61129333394
15.1103930554 -1.58017098716 -0.0923576987609 -2.4090413591 -1.00843336838 1.09617581024 0.978220939026 0.717394168422 1.90346161271 -0.749974973224 2.61127950799
15.1556678446 -1.57837046384 -0.0921825878142 -2.40875694298 -1.00900220061 1.095997756 0.978597240315 0.716398482936 1.90386341915 -0.749748486551 2.61126569758
15.200948569 -1.57656970447 -0.0920076810475 -2.408472989 -1.00957010857 1.09582001109 0.978972773605 0.715404081776 1.90426450125 -0.74952226211 2.61125228905
15.2462335838 -1.57476877449 -0.091833046371 -2.40818946817 -1.01013715024 1.09564262041 0.97934741666 0.714410888888 1.90466466546 -0.749296487643 2.61123907003
15.2915258415 -1.57296755651 -0.0916585395991 -2.40790637786 -1.01070333085 1.09546557302 0.979721146658 0.713418846959 1.90506387966 -0.749071167601 2.61122607689
15.3368237048 -1.57116611562 -0.0914842282742 -2.40762368976 -1.01126870706 1.09528891297 0.98009384247 0.712427882085 1.90546195419 -0.748846484221 2.61121310069
15.3821274397 -1.56936444124 -0.0913101227062 -2.40734146193 -1.01183316271 1.09511255914 0.980465777 0.711438199931 1.9058593078 -0.748622062854 2.6112005206
15.4274354162 -1.56756259799 -0.0911362893891 -2.40705966599 -1.0123967546 1.09493655596 0.980836829222 0.710449726145 1.90625575085 -0.748398085543 2.61118812821
15.4727505646 -1.56576046976 -0.0909625870043 -2.40677829933 -1.01295948792 1.09476089207 0.981206976626 0.709462404386 1.90665125176 -0.748174557089 2.61117595913
15.5180712585 -1.56395812084 -0.090789081707 -2.40649733431 -1.01352141795 1.09458561091 0.981576099747 0.708476162753 1.90704562539 -0.747951653488 2.61116380895
15.5633977603 -1.56215554097 -0.0906157836577 -2.4062168276 -1.01408243138 1.09441063302 0.981944467796 0.707491201765 1.90743928086 -0.747729012319 2.61115204856
15.6087284662 -1.56035279398 -0.0904427579803 -2.40593675146 -1.01464258365 1.09423600227 0.982311961408 0.706507449082 1.90783203307 -0.747506809383 2.61114047406
15.6540662578 -1.55854976503 -0.090269866172 -2.40565710335 -1.01520187988 1.09406170682 0.982678558382 0.705524849318 1.90822385094 -0.747285049836 2.61112912032
15.6989606043 -1.5567465176 -0.0900971730201 -2.40537785621 -1.01576037415 1.09388778964 0.983044140659 0.704543332342 1.90861455343 -0.747063903874 2.611117787
15.743860635 -1.55494304174 -0.089924688549 -2.40509906544 -1.01631795568 1.09371417275 0.983408974278 0.703563094014 1.90900454093 -0.746843020414 2.61110683761
15.7887647837 -1.55313940049 -0.0897524765318 -2.40482070393 -1.01687467872 1.0935408995 0.983772941276 0.702584063773 1.90939363242 -0.746622569459 2.6110960723
15.8336758794 -1.55133548027 -0.0895804012307 -2.40454276913 -1.01743054831 1.09336795762 0.984136019756 0.701606187169 1.90978179734 -0.746402556521 2.61108552522
15.8785923595 -1.54953134378 -0.0894085261019 -2.40426523467 -1.01798561724 1.09319538955 0.984498093272 0.700629395965 1.91016885895 -0.746183145807 2.61107500031
15.923514464 -1.54772698138 -0.089236861012 -2.40398815456 -1.01853977745 1.09302311887 0.984859424281 0.699653881139 1.91055520847 -0.745963997948 2.61106485324
15.9684406414 -1.54592245532 -0.0890654684197 -2.40371150235 -1.01909308187 1.09285118839 0.98521989643 0.698679574032 1.9109406692 -0.74574527696 2.61105488845
16.0133736909 -1.54411765326 -0.0888942153022 -2.40343527554 -1.0196455355 1.0926795854 0.985579488123 0.697706421111 1.91132521106 -0.74552698871 2.61104513938
16.0583120686 -1.54231263714 -0.088723163804 -2.40315944831 -1.02019718995 1.09250835187 0.985938084293 0.69673435583 1.91170866123 -0.745309291807 2.61103541386
16.1032560107 -1.54050739759 -0.0885523236459 -2.40288407347 -1.02074793962 1.09233741279 0.986295944283 0.695763564714 1.91209140258 -0.745091857815 2.61102606049
16.1482039846 -1.5387019961 -0.0883817559913 -2.40260912515 -1.02129783627 1.09216681051 0.986652953118 0.694793980798 1.9124732623 -0.744874845153 2.61101688761
16.1931587555 -1.53689632159 -0.0882113304834 -2.40233460087 -1.02184688484 1.09199653189 0.987009089497 0.693825551456 1.91285421082 -0.744658260044 2.61100792794
16.2381187986 -1.53509043518 -0.0880411079924 -2.40206047545 -1.02239513567 1.09182661835 0.987364240006 0.692858211992 1.91323407955 -0.744442255239 2.6109989935
16.283084346 -1.53328432784 -0.0878710980682 -2.40178680038 -1.02294248581 1.09165699645 0.987718660335 0.691892144172 1.91361324235 -0.744226513751 2.61099042525
16.3280538802 -1.53147806027 -0.0877013606165 -2.40151355042 -1.02348898574 1.09148770798 0.988072237158 0.69092728289 1.91399153065 -0.74401118814 2.61098203568
16.3730301404 -1.52967152262 -0.0875317678979 -2.4012407231 -1.02403464037 1.09131873939 0.988424949466 0.689963576408 1.91436891536 -0.743796284989 2.61097385684
16.4180116201 -1.52786477526 -0.0873623795214 -2.40096829383 -1.02457949891 1.09115013164 0.988776685127 0.689000961586 1.91474523153 -0.743581951739 2.61096570437
16.4629985405 -1.52605780943 -0.087193204889 -2.40069631291 -1.02512346075 1.09098181266 0.989127696921 0.688039616042 1.91512084522 -0.743367881751 2.61095791269
16.5079894066 -1.52425068507 -0.0870243026614 -2.40042475567 -1.02566657524 1.09081382379 0.989477872802 0.687079476235 1.9154955915 -0.74315422228 2.61095029789
16.5529869235 -1.52244329355 -0.0868555476692 -2.40015361966 -1.02620884725 1.09064615104 0.989827192048 0.686120491298 1.91586944176 -0.742940980263 2.61094289136
16.5979896077 -1.52063569451 -0.086686998299 -2.3998828809 -1.02675032477 1.09047883489 0.990175544145 0.685162599851 1.91624223509 -0.742728297509 2.61093551273
16.6429976726 -1.51882787943 -0.0865186637758 -2.39961258842 -1.02729090973 1.09031180474 0.990523178298 0.684205974974 1.91661432894 -0.742515878376 2.61092848911
16.6880096381 -1.51701990752 -0.0863506015542 -2.39934271816 -1.02783065025 1.09014510142 0.990869984074 0.683250554895 1.91698556242 -0.742303864486 2.61092164059
16.7330281834 -1.51521167137 -0.0861826889873 -2.3990732677 -1.02836955116 1.08997871052 0.991215941035 0.682296289601 1.91735590738 -0.742092263135 2.61091499789
16.7780518433 -1.51340322985 -0.0860149832553 -2.3988042136 -1.02890765937 1.08981267208 0.991560940011 0.681343119256 1.91772520653 -0.741881210909 2.6109083842
16.8239859023 -1.51159457473 -0.0858474934224 -2.39853560375 -1.02944487907 1.08964691684 0.991905227182 0.680391212859 1.91809380961 -0.741670422337 2.61090212018
16.8703832843 -1.50978576446 -0.0856802757527 -2.39826741463 -1.02998125731 1.0894814852 0.992248693457 0.679440510188 1.91846155933 -0.74146003382 2.61089602948
16.9172514084 -1.50797669284 -0.0855132100755 -2.39799964386 -1.03051679885 1.08931636232 0.992591318676 0.678490962069 1.91882842799 -0.741250053012 2.61089014217
16.9645935309 -1.50616741801 -0.0853463523865 -2.3977322685 -1.03105154957 1.08915158784 0.992932994905 0.677542510106 1.91919426169 -0.741040611477 2.6108842848
17.0124146539 -1.50435793199 -0.0851797115926 -2.39746533537 -1.03158541584 1.08898709378 0.99327396552 0.676595319442 1.91955940289 -0.740831433515 2.61087877197
17.0607180861 -1.50254829249 -0.0850133427892 -2.39719882146 -1.03211844365 1.0888229201 0.993614122663 0.675649331299 1.91992369769 -0.740622650506 2.61087343069
17.1095115239 -1.50073839452 -0.084847128236 -2.39693272442 -1.03265063773 1.08865905158 0.99395344645 0.674704497332 1.92028711885 -0.740414270462 2.61086829036
17.1587983696 -1.49892829547 -0.0846811227864 -2.39666702191 -1.03318204275 1.08849552733 0.994291830668 0.673760760886 1.92064951648 -0.740206419451 2.61086318152
17.208583824 -1.49711798764 -0.0845153351522 -2.39640175949 -1.03371256759 1.08833228086 0.994629514919 0.672818282658 1.92101122452 -0.739998832489 2.6108584115
17.2588713494 -1.49530752799 -0.0843498193018 -2.39613691477 -1.03424225703 1.08816935161 0.994966393065 0.67187700562 1.92137209307 -0.739791635462 2.61085381127
17.3096689232 -1.49349681273 -0.0841844598805 -2.39587248541 -1.03477111575 1.08800672396 0.995302445493 0.670936882237 1.92173209535 -0.739584836737 2.61084940959
17.3609801088 -1.49168589853 -0.084019310608 -2.39560844959 -1.0352991874 1.08784443661 0.995637567273 0.669997857274 1.92209108479 -0.739378557472 2.6108450403
17.4128103133 -1.48987477792 -0.0838543800295 -2.39534485179 -1.03582638298 1.08768242433 0.995971995117 0.66906008765 1.92244938819 -0.73917254223 2.61084100478
17.4651631598 -1.48806350715 -0.0836897209951 -2.39508167015 -1.03635274628 1.08752072614 0.996305624167 0.668123517761 1.92280685898 -0.73896691199 2.61083713728
17.5180469144 -1.4862519836 -0.0835252204913 -2.39481890233 -1.03687828191 1.08735932603 0.996638435076 0.667188100871 1.92316347081 -0.738761675472 2.61083346596
17.5714653092 -1.48444026323 -0.0833609311412 -2.39455652709 -1.03740303238 1.08719826221 0.996970324566 0.666253783377 1.92351908091 -0.738556948603 2.61082982835
17.6254239646 -1.48262833881 -0.0831968612944 -2.39429458775 -1.03792691108 1.08703747087 0.997301525727 0.665320718005 1.92387400801 -0.738352486133 2.61082651905
17.6799266763 -1.48081626588 -0.0830330627193 -2.39403306297 -1.03844996063 1.08687699054 0.997631935346 0.664388850793 1.92422810934 -0.73814840381 2.61082337602
17.7360886182 -1.479003943 -0.0828694247003 -2.39377195048 -1.03897218562 1.08671680481 0.997961534343 0.663458135787 1.92458135898 -0.73794471071 2.6108204268
17.7933855668 -1.47719142541 -0.0827059987649 -2.39351122946 -1.03949362765 1.08655695158 0.99829022046 0.662528520581 1.92493361703 -0.737741518271 2.61081751178
17.8518406938 -1.47537870611 -0.0825427931091 -2.39325094229 -1.04001420199 1.08639736811 0.998618224424 0.661600154601 1.92528519599 -0.737538589944 2.61081492048
17.9114755969 -1.47356583993 -0.082379858421 -2.39299106811 -1.04053395036 1.0862380926 0.998945444044 0.660672985089 1.92563595598 -0.737336036991 2.61081249369
17.972317457 -1.4717527266 -0.0822170862395 -2.39273160463 -1.04105287731 1.08607910826 0.999271860499 0.659746966859 1.92598587148 -0.737133868839 2.61081025837
18.0343888313 -1.46993942065 -0.0820545270409 -2.39247253161 -1.04157102335 1.08592045252 0.99959737315 0.658822049066 1.92633480626 -0.736932191898 2.61080805847
18.0977148023 -1.46812591532 -0.0818921888233 -2.39221389028 -1.04208830602 1.085762064 0.999922209172 0.657898377125 1.92668306506 -0.736730779401 2.61080617699
18.1623188001 -1.46631226474 -0.0817301212382 -2.39195566032 -1.04260476594 1.08560398043 1.00024626799 0.656975899844 1.92703051164 -0.736529737585 2.61080445828
18.2288893326 -1.46449836979 -0.0815682180366 -2.39169783948 -1.04312040762 1.08544618466 1.00056953104 0.656054572793 1.9273771209 -0.736329076224 2.61080292871
18.2974842237 -1.46268428431 -0.0814065286509 -2.39144040796 -1.04363527065 1.08528871373 1.00089189886 0.655134346378 1.92772275958 -0.736128897226 2.61080143517
18.3681652844 -1.46087000176 -0.0812450609101 -2.39118340604 -1.04414927449 1.08513150742 1.00121359596 0.654215362639 1.92806772602 -0.735928982558 2.61080025539
18.440993816 -1.45905557557 -0.0810838634358 -2.39092681386 -1.04466245885 1.08497460309 1.00153452293 0.653297571641 1.92841188695 -0.735729433955 2.61079923663
18.5167895732 -1.45724090777 -0.0809228321501 -2.3906706292 -1.04517482818 1.0848179832 1.00185466148 0.652380929697 1.92875521767 -0.735530261538 2.61079840471
18.5956711306 -1.45542605151 -0.0807620154714 -2.39041483274 -1.04568642109 1.08466168441 1.00217391354 0.651465388592 1.92909758818 -0.735331562553 2.6107976097
18.6785853381 -1.45361100048 -0.0806014210413 -2.39015946374 -1.0461971591 1.08450564772 1.0024925005 0.65055108675 1.92943928986 -0.735133128018 2.61079712354
18.7666073289 -1.4517958074 -0.0804410964821 -2.38990450283 -1.04670708091 1.08434991007 1.00281032437 0.649637975623 1.9297801927 -0.734935055008 2.61079679667
18.8600567426 -1.44998037546 -0.0802809398455 -2.3896499478 -1.04721619096 1.08419445357 1.00312736707 0.648726012251 1.9301202724 -0.734737353989 2.61079665435
18.9612594534 -1.44816475712 -0.0801209985635 -2.38939577988 -1.04772452681 1.08403931441 1.00344353216 0.647815149882 1.93045940237 -0.73454011747 2.61079655
19.0719551062 -1.44634894627 -0.0799612800776 -2.38914203722 -1.04823201213 1.08388443491 1.00375903753 0.646905523175 1.93079786673 -0.734343145671 2.61079674943
19.1966993829 -1.44453299498 -0.0798018310375 -2.388888701 -1.04873868458 1.08372985155 1.00407378678 0.64599708505 1.93113553886 -0.734146530934 2.61079710644
19.3429908844 -1.44271680754 -0.0796425515846 -2.38863576901 -1.04924454856 1.08357554608 1.00438776209 0.645089793264 1.93147239487 -0.733950284064 2.61079764572
19.5307635024 -1.44090043254 -0.0794834917484 -2.38838324173 -1.04974960311 1.08342152649 1.00470097493 0.644183668181 1.93180844919 -0.733754398078 2.61079835415
20.0 -1.43908387506 -0.079324646603 -2.38813109215 -1.05025390227 1.08326783142 1.00501327586 0.64327861611 1.93214350808 -0.733559006301 2.61079904637